;FLAVOR:Marlin
;TIME:25261
;Filament used: 26.8295m
;Layer height: 0.28
;MINX:48
;MINY:11.75
;MINZ:0.28
;MAXX:187
;MAXY:223.25
;MAXZ:8.12
;Generated with Cura_SteamEngine 4.10.0
M140 S50
M105
M190 S50
M104 S200
M105
M109 S200
M82 ;absolute extrusion mode
; Ender 3 Custom Start G-code
G92 E0 ; Reset Extruder
G28 ; Home all axes
G1 Z2.0 F3000 ; Move Z Axis up little to prevent scratching of Heat Bed
G1 X0.1 Y20 Z0.3 F5000.0 ; Move to start position
G1 X0.1 Y200.0 Z0.3 F1500.0 E15 ; Draw the first line
G1 X0.4 Y200.0 Z0.3 F5000.0 ; Move to side a little
G1 X0.4 Y20 Z0.3 F1500.0 E30 ; Draw the second line
G92 E0 ; Reset Extruder
G1 Z2.0 F3000 ; Move Z Axis up little to prevent scratching of Heat Bed
G1 X5 Y20 Z0.3 F5000.0 ; Move over to prevent blob squish
G92 E0
G92 E0
G1 F2700 E-5
;LAYER_COUNT:29
;LAYER:0
M107
G0 F6000 X48.694 Y18.939 Z0.28
;TYPE:SKIRT
G1 F2700 E0
G1 F1200 X49.057 Y18.074 E0.04368
G1 X49.492 Y17.243 E0.08736
G1 X49.996 Y16.453 E0.13099
G1 X50.566 Y15.708 E0.17467
G1 X51.198 Y15.014 E0.21838
G1 X51.886 Y14.377 E0.26204
G1 X52.626 Y13.801 E0.3057
G1 X53.412 Y13.289 E0.34938
G1 X54.239 Y12.847 E0.39305
G1 X55.101 Y12.477 E0.43673
G1 X55.991 Y12.181 E0.4804
G1 X56.903 Y11.963 E0.52406
G1 X57.83 Y11.822 E0.56772
G1 X58.701 Y11.763 E0.60837
G1 X59.022 Y11.754 E0.62333
G1 X59.33 Y11.75 E0.63767
G1 X175.293 Y11.75 E6.03739
G1 X176.149 Y11.761 E6.07726
G1 X177.085 Y11.815 E6.12091
G1 X178.013 Y11.947 E6.16456
G1 X178.927 Y12.159 E6.20825
G1 X179.819 Y12.448 E6.25191
G1 X180.684 Y12.811 E6.29559
G1 X181.514 Y13.247 E6.33925
G1 X182.305 Y13.752 E6.38294
G1 X183.049 Y14.323 E6.42661
G1 X183.742 Y14.955 E6.47029
G1 X184.379 Y15.643 E6.51395
G1 X184.954 Y16.384 E6.55762
G1 X185.465 Y17.17 E6.60127
G1 X185.907 Y17.998 E6.64498
G1 X186.276 Y18.86 E6.68864
G1 X186.571 Y19.75 E6.7323
G1 X186.789 Y20.662 E6.77596
G1 X186.929 Y21.59 E6.81966
G1 X186.987 Y22.451 E6.85985
G1 X186.996 Y22.771 E6.87475
G1 X187 Y23.08 E6.88914
G1 X186.999 Y211.65 E15.66975
G1 X186.99 Y212.377 E15.70361
G1 X186.939 Y213.314 E15.7473
G1 X186.807 Y214.242 E15.79095
G1 X186.598 Y215.156 E15.83461
G1 X186.311 Y216.049 E15.87828
G1 X185.949 Y216.915 E15.92199
G1 X185.515 Y217.746 E15.96564
G1 X185.011 Y218.537 E16.00932
G1 X184.442 Y219.282 E16.05297
G1 X183.811 Y219.977 E16.09668
G1 X183.124 Y220.615 E16.14033
G1 X182.385 Y221.192 E16.18399
G1 X181.599 Y221.704 E16.22767
G1 X180.773 Y222.147 E16.27132
G1 X179.911 Y222.519 E16.31503
G1 X179.022 Y222.815 E16.35866
G1 X178.11 Y223.035 E16.40235
G1 X177.183 Y223.176 E16.44601
G1 X176.299 Y223.237 E16.48727
G1 X175.978 Y223.246 E16.50222
G1 X175.67 Y223.25 E16.51656
G1 X59.565 Y223.249 E21.9229
G1 X58.867 Y223.24 E21.9554
G1 X57.931 Y223.188 E21.99906
G1 X57.002 Y223.056 E22.04275
G1 X56.088 Y222.846 E22.08642
G1 X55.195 Y222.559 E22.13009
G1 X54.33 Y222.196 E22.17377
G1 X53.499 Y221.762 E22.21743
G1 X52.708 Y221.258 E22.2611
G1 X51.963 Y220.688 E22.30478
G1 X51.269 Y220.057 E22.34846
G1 X50.632 Y219.37 E22.39208
G1 X50.055 Y218.63 E22.43578
G1 X49.543 Y217.844 E22.47946
G1 X49.1 Y217.017 E22.52314
G1 X48.729 Y216.156 E22.5668
G1 X48.433 Y215.266 E22.61047
G1 X48.214 Y214.354 E22.65414
G1 X48.073 Y213.427 E22.69781
G1 X48.013 Y212.538 E22.7393
G1 X48.004 Y212.205 E22.75481
G1 X48 Y211.908 E22.76864
G1 X48.001 Y23.275 E31.55218
G1 X48.01 Y22.61 E31.58315
G1 X48.063 Y21.674 E31.6268
G1 X48.195 Y20.745 E31.6705
G1 X48.406 Y19.831 E31.71417
G1 X48.694 Y18.939 E31.75782
G0 F6000 X49.092 Y19.014
G1 F1200 X49.455 Y18.168 E31.80069
G1 X49.889 Y17.356 E31.84356
G1 X50.392 Y16.585 E31.88643
G1 X50.961 Y15.861 E31.9293
G1 X51.589 Y15.189 E31.97213
G1 X52.274 Y14.573 E32.01503
G1 X53.01 Y14.02 E32.05789
G1 X53.791 Y13.532 E32.10078
G1 X54.611 Y13.114 E32.14363
G1 X55.465 Y12.769 E32.18652
G1 X56.345 Y12.499 E32.22938
G1 X57.245 Y12.307 E32.27224
G1 X58.159 Y12.193 E32.31512
G1 X58.712 Y12.163 E32.34091
G1 X59.033 Y12.154 E32.35587
G1 X59.33 Y12.15 E32.3697
G1 X175.293 Y12.15 E37.76942
G1 X176.143 Y12.161 E37.809
G1 X177.062 Y12.214 E37.85187
G1 X177.973 Y12.347 E37.89474
G1 X178.869 Y12.558 E37.9376
G1 X179.743 Y12.846 E37.98045
G1 X180.59 Y13.209 E38.02336
G1 X181.401 Y13.644 E38.06621
G1 X182.171 Y14.148 E38.10906
G1 X182.895 Y14.717 E38.15194
G1 X183.567 Y15.347 E38.19483
G1 X184.182 Y16.032 E38.2377
G1 X184.735 Y16.768 E38.28056
G1 X185.222 Y17.549 E38.32342
G1 X185.639 Y18.37 E38.3663
G1 X185.984 Y19.224 E38.40919
G1 X186.253 Y20.104 E38.45204
G1 X186.445 Y21.005 E38.49493
G1 X186.558 Y21.918 E38.53777
G1 X186.587 Y22.462 E38.56314
G1 X186.596 Y22.782 E38.57804
G1 X186.6 Y23.08 E38.59192
G1 X186.599 Y211.645 E47.3723
G1 X186.59 Y212.372 E47.40615
G1 X186.539 Y213.291 E47.44901
G1 X186.408 Y214.203 E47.49191
G1 X186.198 Y215.099 E47.53476
G1 X185.912 Y215.974 E47.57763
G1 X185.551 Y216.821 E47.6205
G1 X185.117 Y217.633 E47.66337
G1 X184.615 Y218.405 E47.70625
G1 X184.047 Y219.13 E47.74914
G1 X183.419 Y219.803 E47.792
G1 X182.735 Y220.419 E47.83486
G1 X182 Y220.973 E47.87772
G1 X181.22 Y221.462 E47.92059
G1 X180.4 Y221.881 E47.96347
G1 X179.547 Y222.227 E48.00633
G1 X178.667 Y222.498 E48.04921
G1 X177.767 Y222.691 E48.09207
G1 X176.853 Y222.806 E48.13496
G1 X176.288 Y222.837 E48.16131
G1 X175.967 Y222.846 E48.17626
G1 X175.67 Y222.85 E48.19009
G1 X59.57 Y222.849 E53.5962
G1 X58.872 Y222.84 E53.6287
G1 X57.953 Y222.788 E53.67156
G1 X57.042 Y222.657 E53.71442
G1 X56.146 Y222.447 E53.75727
G1 X55.271 Y222.16 E53.80015
G1 X54.424 Y221.798 E53.84304
G1 X53.612 Y221.364 E53.88591
G1 X52.841 Y220.862 E53.92875
G1 X52.116 Y220.294 E53.97164
G1 X51.443 Y219.665 E54.01453
G1 X50.828 Y218.981 E54.05736
G1 X50.274 Y218.246 E54.10022
G1 X49.786 Y217.465 E54.1431
G1 X49.367 Y216.645 E54.18598
G1 X49.021 Y215.792 E54.22884
G1 X48.751 Y214.912 E54.27171
G1 X48.558 Y214.011 E54.31461
G1 X48.444 Y213.098 E54.35745
G1 X48.413 Y212.527 E54.38408
G1 X48.404 Y212.194 E54.39959
G1 X48.4 Y211.908 E54.41291
G1 X48.401 Y23.281 E63.19618
G1 X48.41 Y22.616 E63.22714
G1 X48.462 Y21.696 E63.27005
G1 X48.594 Y20.785 E63.31291
G1 X48.805 Y19.889 E63.35578
G1 X49.092 Y19.014 E63.39866
G0 F6000 X49.491 Y19.091
G1 F1200 X49.853 Y18.264 E63.44069
G1 X50.286 Y17.472 E63.48272
G1 X50.788 Y16.721 E63.52479
G1 X51.355 Y16.017 E63.56688
G1 X51.981 Y15.367 E63.6089
G1 X52.662 Y14.774 E63.65095
G1 X53.394 Y14.244 E63.69303
G1 X54.169 Y13.781 E63.73506
G1 X54.982 Y13.388 E63.77711
G1 X55.827 Y13.068 E63.81918
G1 X56.696 Y12.825 E63.8612
G1 X57.584 Y12.659 E63.90327
G1 X58.723 Y12.563 E63.95649
G1 X59.044 Y12.554 E63.97144
G1 X59.33 Y12.55 E63.98476
G1 X175.293 Y12.55 E69.38449
G1 X176.137 Y12.561 E69.42379
G1 X177.039 Y12.614 E69.46586
G1 X177.932 Y12.746 E69.5079
G1 X178.81 Y12.957 E69.54994
G1 X179.666 Y13.245 E69.592
G1 X180.493 Y13.607 E69.63403
G1 X181.285 Y14.042 E69.67611
G1 X182.036 Y14.544 E69.71817
G1 X182.739 Y15.111 E69.76023
G1 X183.389 Y15.738 E69.80228
G1 X183.981 Y16.42 E69.84433
G1 X184.511 Y17.151 E69.88638
G1 X184.973 Y17.927 E69.92843
G1 X185.366 Y18.74 E69.97048
G1 X185.684 Y19.585 E70.01252
G1 X185.927 Y20.455 E70.05458
G1 X186.092 Y21.343 E70.09664
G1 X186.187 Y22.473 E70.14944
G1 X186.196 Y22.793 E70.16435
G1 X186.2 Y23.08 E70.17771
G1 X186.199 Y211.64 E78.95785
G1 X186.19 Y212.367 E78.99171
G1 X186.139 Y213.269 E79.03378
G1 X186.008 Y214.163 E79.07585
G1 X185.799 Y215.041 E79.11788
G1 X185.513 Y215.898 E79.15994
G1 X185.152 Y216.726 E79.202
G1 X184.72 Y217.518 E79.24401
G1 X184.219 Y218.27 E79.28609
G1 X183.653 Y218.974 E79.32815
G1 X183.028 Y219.625 E79.37017
G1 X182.347 Y220.219 E79.41225
G1 X181.616 Y220.75 E79.45432
G1 X180.842 Y221.214 E79.49634
G1 X180.029 Y221.608 E79.53841
G1 X179.185 Y221.928 E79.58044
G1 X178.315 Y222.173 E79.62253
G1 X177.428 Y222.339 E79.66455
G1 X176.277 Y222.437 E79.71834
G1 X175.956 Y222.446 E79.73329
G1 X175.67 Y222.45 E79.74661
G1 X59.575 Y222.449 E85.15248
G1 X58.877 Y222.44 E85.18498
G1 X57.976 Y222.389 E85.227
G1 X57.082 Y222.257 E85.26908
G1 X56.204 Y222.048 E85.31111
G1 X55.347 Y221.761 E85.35319
G1 X54.52 Y221.4 E85.39521
G1 X53.727 Y220.967 E85.43728
G1 X52.976 Y220.466 E85.47932
G1 X52.272 Y219.9 E85.52138
G1 X51.621 Y219.274 E85.56343
G1 X51.028 Y218.593 E85.60548
G1 X50.498 Y217.862 E85.64753
G1 X50.034 Y217.087 E85.68959
G1 X49.64 Y216.274 E85.73165
G1 X49.32 Y215.43 E85.77368
G1 X49.076 Y214.56 E85.81576
G1 X48.91 Y213.672 E85.85782
G1 X48.813 Y212.517 E85.91179
G1 X48.804 Y212.184 E85.92731
G1 X48.8 Y211.908 E85.94016
G1 X48.801 Y23.286 E94.72319
G1 X48.81 Y22.621 E94.75416
G1 X48.862 Y21.719 E94.79623
G1 X48.994 Y20.826 E94.83826
G1 X49.204 Y19.948 E94.8803
G1 X49.491 Y19.091 E94.92238
G1 F2700 E89.92238
;MESH:CasesRCKlarge.stl
G0 F6000 X58.335 Y23.56
G0 X59.81 Y23.56
G0 X175.218 Y23.532
G0 X175.4 Y211.65
;TYPE:WALL-INNER
G1 F2700 E94.92238
G1 F1200 X59.6 Y211.65 E100.31452
G1 X59.6 Y23.35 E109.08255
G1 X175.4 Y23.35 E114.47469
G1 X175.4 Y211.65 E123.24272
G0 F6000 X175.8 Y212.05
;TYPE:WALL-OUTER
G1 F1200 X59.2 Y212.05 E128.67211
G1 X59.2 Y22.95 E137.47739
G1 X175.8 Y22.95 E142.90678
G1 X175.8 Y212.05 E151.71207
G0 F6000 X175.53 Y211.78
G0 X175.29 Y211.26
G0 X175.01 Y211.26
;TYPE:SKIN
G1 F1200 X59.99 Y211.26 E157.06788
G1 X59.99 Y23.74 E165.7996
G1 X175.01 Y23.74 E171.15541
G1 X175.01 Y211.26 E179.88713
G1 F2700 E174.88713
G0 F6000 X175.29 Y211.26
G0 X60.626 Y211.54
G0 X60.626 Y211.098
G1 F2700 E179.88713
G1 F1200 X60.149 Y210.621 E179.91854
G0 F6000 X60.149 Y210.055
G1 F1200 X61.192 Y211.098 E179.98722
G0 F6000 X61.757 Y211.098
G1 F1200 X60.149 Y209.49 E180.09311
G0 F6000 X60.149 Y208.924
G1 F1200 X62.323 Y211.098 E180.23627
G0 F6000 X62.889 Y211.098
G1 F1200 X60.149 Y208.358 E180.41671
G0 F6000 X60.149 Y207.793
G1 F1200 X63.455 Y211.098 E180.63438
G0 F6000 X64.02 Y211.098
G1 F1200 X60.149 Y207.227 E180.88929
G0 F6000 X60.149 Y206.661
G1 F1200 X64.586 Y211.098 E181.18147
G0 F6000 X65.152 Y211.098
G1 F1200 X60.149 Y206.096 E181.5109
G0 F6000 X60.149 Y205.53
G1 F1200 X65.717 Y211.098 E181.87756
G0 F6000 X66.283 Y211.098
G1 F1200 X60.149 Y204.964 E182.28149
G0 F6000 X60.149 Y204.399
G1 F1200 X66.849 Y211.098 E182.72267
G0 F6000 X67.414 Y211.098
G1 F1200 X60.149 Y203.833 E183.20108
G0 F6000 X60.149 Y203.267
G1 F1200 X67.98 Y211.098 E183.71677
G0 F6000 X68.546 Y211.098
G1 F1200 X60.149 Y202.702 E184.26969
G0 F6000 X60.149 Y202.136
G1 F1200 X69.111 Y211.098 E184.85985
G0 F6000 X69.677 Y211.098
G1 F1200 X60.149 Y201.57 E185.48729
G0 F6000 X60.149 Y201.005
G1 F1200 X70.243 Y211.098 E186.15196
G0 F6000 X70.808 Y211.098
G1 F1200 X60.149 Y200.439 E186.85388
G0 F6000 X60.149 Y199.873
G1 F1200 X71.374 Y211.098 E187.59306
G0 F6000 X71.94 Y211.098
G1 F1200 X60.149 Y199.307 E188.36952
G0 F6000 X60.149 Y198.742
G1 F1200 X72.506 Y211.098 E189.18321
G0 F6000 X73.071 Y211.098
G1 F1200 X60.149 Y198.176 E190.03415
G0 F6000 X60.149 Y197.61
G1 F1200 X73.637 Y211.098 E190.92236
G0 F6000 X74.203 Y211.098
G1 F1200 X60.149 Y197.045 E191.84781
G0 F6000 X60.149 Y196.479
G1 F1200 X74.768 Y211.098 E192.81049
G0 F6000 X75.334 Y211.098
G1 F1200 X60.149 Y195.913 E193.81045
G0 F6000 X60.149 Y195.348
G1 F1200 X75.9 Y211.098 E194.84765
G0 F6000 X76.465 Y211.098
G1 F1200 X60.149 Y194.782 E195.92208
G0 F6000 X60.149 Y194.216
G1 F1200 X77.031 Y211.098 E197.03379
G0 F6000 X77.597 Y211.098
G1 F1200 X60.149 Y193.651 E198.18274
G0 F6000 X60.149 Y193.085
G1 F1200 X78.162 Y211.098 E199.36893
G0 F6000 X78.728 Y211.098
G1 F1200 X60.149 Y192.519 E200.59239
G0 F6000 X60.149 Y191.954
G1 F1200 X79.294 Y211.098 E201.85308
G0 F6000 X79.859 Y211.098
G1 F1200 X60.149 Y191.388 E203.15102
G0 F6000 X60.149 Y190.822
G1 F1200 X80.425 Y211.098 E204.48623
G0 F6000 X80.991 Y211.098
G1 F1200 X60.149 Y190.256 E205.85871
G0 F6000 X60.149 Y189.691
G1 F1200 X81.556 Y211.098 E207.2684
G0 F6000 X82.122 Y211.098
G1 F1200 X60.149 Y189.125 E208.71536
G0 F6000 X60.149 Y188.559
G1 F1200 X82.688 Y211.098 E210.19959
G0 F6000 X83.254 Y211.098
G1 F1200 X60.149 Y187.994 E211.72106
G0 F6000 X60.149 Y187.428
G1 F1200 X83.819 Y211.098 E213.27977
G0 F6000 X84.385 Y211.098
G1 F1200 X60.149 Y186.862 E214.87575
G0 F6000 X60.149 Y186.297
G1 F1200 X84.951 Y211.098 E216.50897
G0 F6000 X85.516 Y211.098
G1 F1200 X60.149 Y185.731 E218.17943
G0 F6000 X60.149 Y185.165
G1 F1200 X86.082 Y211.098 E219.88717
G0 F6000 X86.648 Y211.098
G1 F1200 X60.149 Y184.6 E221.63214
G0 F6000 X60.149 Y184.034
G1 F1200 X87.213 Y211.098 E223.41435
G0 F6000 X87.779 Y211.098
G1 F1200 X60.149 Y183.468 E225.23383
G0 F6000 X60.149 Y182.903
G1 F1200 X88.345 Y211.098 E227.09055
G0 F6000 X88.91 Y211.098
G1 F1200 X60.149 Y182.337 E228.98451
G0 F6000 X60.149 Y181.771
G1 F1200 X89.476 Y211.098 E230.91575
G0 F6000 X90.042 Y211.098
G1 F1200 X60.149 Y181.206 E232.88422
G0 F6000 X60.149 Y180.64
G1 F1200 X90.607 Y211.098 E234.88993
G0 F6000 X91.173 Y211.098
G1 F1200 X60.149 Y180.074 E236.93291
G0 F6000 X60.149 Y179.508
G1 F1200 X91.739 Y211.098 E239.01317
G0 F6000 X92.305 Y211.098
G1 F1200 X60.149 Y178.943 E241.13066
G0 F6000 X60.149 Y178.377
G1 F1200 X92.87 Y211.098 E243.2854
G0 F6000 X93.436 Y211.098
G1 F1200 X60.149 Y177.811 E245.4774
G0 F6000 X60.149 Y177.246
G1 F1200 X94.002 Y211.098 E247.70665
G0 F6000 X94.567 Y211.098
G1 F1200 X60.149 Y176.68 E249.97313
G0 F6000 X60.149 Y176.114
G1 F1200 X95.133 Y211.098 E252.27689
G0 F6000 X95.699 Y211.098
G1 F1200 X60.149 Y175.549 E254.61788
G0 F6000 X60.149 Y174.983
G1 F1200 X96.264 Y211.098 E256.99612
G0 F6000 X96.83 Y211.098
G1 F1200 X60.149 Y174.417 E259.41162
G0 F6000 X60.149 Y173.852
G1 F1200 X97.396 Y211.098 E261.86437
G0 F6000 X97.961 Y211.098
G1 F1200 X60.149 Y173.286 E264.35435
G0 F6000 X60.149 Y172.72
G1 F1200 X98.527 Y211.098 E266.88161
G0 F6000 X99.093 Y211.098
G1 F1200 X60.149 Y172.155 E269.44611
G0 F6000 X60.149 Y171.589
G1 F1200 X99.658 Y211.098 E272.04784
G0 F6000 X100.224 Y211.098
G1 F1200 X60.149 Y171.023 E274.68685
G0 F6000 X60.149 Y170.457
G1 F1200 X100.79 Y211.098 E277.36313
G0 F6000 X101.355 Y211.098
G1 F1200 X60.149 Y169.892 E280.07661
G0 F6000 X60.149 Y169.326
G1 F1200 X101.921 Y211.098 E282.82737
G0 F6000 X102.487 Y211.098
G1 F1200 X60.149 Y168.76 E285.6154
G0 F6000 X60.149 Y168.195
G1 F1200 X103.053 Y211.098 E288.44067
G0 F6000 X103.618 Y211.098
G1 F1200 X60.149 Y167.629 E291.30318
G0 F6000 X60.149 Y167.063
G1 F1200 X104.184 Y211.098 E294.20296
G0 F6000 X104.75 Y211.098
G1 F1200 X60.149 Y166.498 E297.13998
G0 F6000 X60.149 Y165.932
G1 F1200 X105.315 Y211.098 E300.11424
G0 F6000 X105.881 Y211.098
G1 F1200 X60.149 Y165.366 E303.12577
G0 F6000 X60.149 Y164.801
G1 F1200 X106.447 Y211.098 E306.17454
G0 F6000 X107.012 Y211.098
G1 F1200 X60.149 Y164.235 E309.26054
G0 F6000 X60.149 Y163.669
G1 F1200 X107.578 Y211.098 E312.38382
G0 F6000 X108.144 Y211.098
G1 F1200 X60.149 Y163.104 E315.54434
G0 F6000 X60.149 Y162.538
G1 F1200 X108.709 Y211.098 E318.7421
G0 F6000 X109.275 Y211.098
G1 F1200 X60.149 Y161.972 E321.97713
G0 F6000 X60.149 Y161.407
G1 F1200 X109.841 Y211.098 E325.2494
G0 F6000 X110.406 Y211.098
G1 F1200 X60.149 Y160.841 E328.55891
G0 F6000 X60.149 Y160.275
G1 F1200 X110.972 Y211.098 E331.9057
G0 F6000 X111.538 Y211.098
G1 F1200 X60.149 Y159.709 E335.28975
G0 F6000 X60.149 Y159.144
G1 F1200 X112.104 Y211.098 E338.71104
G0 F6000 X112.669 Y211.098
G1 F1200 X60.149 Y158.578 E342.16957
G0 F6000 X60.149 Y158.012
G1 F1200 X113.235 Y211.098 E345.66538
G0 F6000 X113.801 Y211.098
G1 F1200 X60.149 Y157.447 E349.19842
G0 F6000 X60.149 Y156.881
G1 F1200 X114.366 Y211.098 E352.7687
G0 F6000 X114.932 Y211.098
G1 F1200 X60.149 Y156.315 E356.37626
G0 F6000 X60.149 Y155.75
G1 F1200 X115.498 Y211.098 E360.02105
G0 F6000 X116.063 Y211.098
G1 F1200 X60.149 Y155.184 E363.70308
G0 F6000 X60.149 Y154.618
G1 F1200 X116.629 Y211.098 E367.42239
G0 F6000 X117.195 Y211.098
G1 F1200 X60.149 Y154.053 E371.17893
G0 F6000 X60.149 Y153.487
G1 F1200 X117.76 Y211.098 E374.97271
G0 F6000 X118.326 Y211.098
G1 F1200 X60.149 Y152.921 E378.80377
G0 F6000 X60.149 Y152.356
G1 F1200 X118.892 Y211.098 E382.67206
G0 F6000 X119.457 Y211.098
G1 F1200 X60.149 Y151.79 E386.57759
G0 F6000 X60.149 Y151.224
G1 F1200 X120.023 Y211.098 E390.5204
G0 F6000 X120.589 Y211.098
