;FLAVOR:Marlin
;TIME:1795
;Filament used: 1.22524m
;Layer height: 0.16
;MINX:77.25
;MINY:94.25
;MINZ:0.2
;MAXX:157.75
;MAXY:140.75
;MAXZ:4.08
;Generated with Cura_SteamEngine 4.10.0
M140 S50
M105
M190 S50
M104 S200
M105
M109 S200
M82 ;absolute extrusion mode
; Ender 3 Custom Start G-code
G92 E0 ; Reset Extruder
G28 ; Home all axes
G1 Z2.0 F3000 ; Move Z Axis up little to prevent scratching of Heat Bed
G1 X0.1 Y20 Z0.3 F5000.0 ; Move to start position
G1 X0.1 Y200.0 Z0.3 F1500.0 E15 ; Draw the first line
G1 X0.4 Y200.0 Z0.3 F5000.0 ; Move to side a little
G1 X0.4 Y20 Z0.3 F1500.0 E30 ; Draw the second line
G92 E0 ; Reset Extruder
G1 Z2.0 F3000 ; Move Z Axis up little to prevent scratching of Heat Bed
G1 X5 Y20 Z0.3 F5000.0 ; Move over to prevent blob squish
G92 E0
G92 E0
G1 F2700 E-5
;LAYER_COUNT:22
;LAYER:0
M107
G0 F6000 X81.136 Y96.877 Z0.2
;TYPE:SKIRT
G1 F2700 E0
G1 F1200 X81.876 Y96.301 E0.03119
G1 X82.662 Y95.789 E0.06239
G1 X83.489 Y95.347 E0.09358
G1 X84.351 Y94.977 E0.12478
G1 X85.241 Y94.681 E0.15597
G1 X86.153 Y94.463 E0.18716
G1 X87.08 Y94.322 E0.21835
G1 X87.951 Y94.263 E0.24738
G1 X88.272 Y94.254 E0.25806
G1 X88.58 Y94.25 E0.26831
G1 X146.043 Y94.25 E2.17954
G1 X146.899 Y94.261 E2.20801
G1 X147.835 Y94.315 E2.23919
G1 X148.763 Y94.447 E2.27037
G1 X149.677 Y94.659 E2.30158
G1 X150.569 Y94.948 E2.33276
G1 X151.434 Y95.311 E2.36396
G1 X152.264 Y95.747 E2.39515
G1 X153.055 Y96.252 E2.42636
G1 X153.799 Y96.823 E2.45755
G1 X154.492 Y97.455 E2.48875
G1 X155.129 Y98.143 E2.51993
G1 X155.704 Y98.884 E2.55113
G1 X156.215 Y99.67 E2.58231
G1 X156.657 Y100.498 E2.61353
G1 X157.026 Y101.36 E2.64471
G1 X157.321 Y102.25 E2.6759
G1 X157.539 Y103.162 E2.70709
G1 X157.679 Y104.09 E2.7383
G1 X157.737 Y104.951 E2.767
G1 X157.746 Y105.271 E2.77765
G1 X157.75 Y105.58 E2.78793
G1 X157.749 Y129.15 E3.57187
G1 X157.74 Y129.877 E3.59605
G1 X157.689 Y130.814 E3.62726
G1 X157.557 Y131.742 E3.65844
G1 X157.348 Y132.656 E3.68962
G1 X157.061 Y133.549 E3.72082
G1 X156.699 Y134.415 E3.75204
G1 X156.265 Y135.246 E3.78322
G1 X155.761 Y136.037 E3.81442
G1 X155.192 Y136.782 E3.8456
G1 X154.561 Y137.477 E3.87682
G1 X153.874 Y138.115 E3.908
G1 X153.135 Y138.692 E3.93918
G1 X152.349 Y139.204 E3.97038
G1 X151.523 Y139.647 E4.00156
G1 X150.661 Y140.019 E4.03279
G1 X149.772 Y140.315 E4.06395
G1 X148.86 Y140.535 E4.09515
G1 X147.933 Y140.676 E4.12634
G1 X147.049 Y140.737 E4.15581
G1 X146.728 Y140.746 E4.16649
G1 X146.42 Y140.75 E4.17674
G1 X88.815 Y140.749 E6.09269
G1 X88.117 Y140.74 E6.1159
G1 X87.181 Y140.688 E6.14708
G1 X86.252 Y140.556 E6.17829
G1 X85.338 Y140.346 E6.20948
G1 X84.445 Y140.059 E6.24068
G1 X83.58 Y139.696 E6.27188
G1 X82.749 Y139.262 E6.30306
G1 X81.958 Y138.758 E6.33426
G1 X81.213 Y138.188 E6.36546
G1 X80.519 Y137.557 E6.39666
G1 X79.882 Y136.87 E6.42782
G1 X79.305 Y136.13 E6.45903
G1 X78.793 Y135.344 E6.49023
G1 X78.35 Y134.517 E6.52143
G1 X77.979 Y133.656 E6.55261
G1 X77.683 Y132.766 E6.58381
G1 X77.464 Y131.854 E6.615
G1 X77.323 Y130.927 E6.64619
G1 X77.263 Y130.038 E6.67583
G1 X77.254 Y129.705 E6.68691
G1 X77.25 Y129.408 E6.69679
G1 X77.251 Y105.775 E7.48282
G1 X77.26 Y105.11 E7.50494
G1 X77.313 Y104.174 E7.53612
G1 X77.445 Y103.245 E7.56733
G1 X77.656 Y102.331 E7.59853
G1 X77.944 Y101.439 E7.62971
G1 X78.307 Y100.574 E7.66091
G1 X78.742 Y99.743 E7.69211
G1 X79.246 Y98.953 E7.72327
G1 X79.816 Y98.208 E7.75447
G1 X80.448 Y97.514 E7.78569
G1 X81.136 Y96.877 E7.81688
G0 F6000 X81.524 Y97.073
G1 F1200 X82.26 Y96.52 E7.8475
G1 X83.041 Y96.032 E7.87813
G1 X83.861 Y95.614 E7.90874
G1 X84.715 Y95.269 E7.93937
G1 X85.595 Y94.999 E7.96999
G1 X86.495 Y94.807 E8.0006
G1 X87.409 Y94.693 E8.03123
G1 X87.962 Y94.663 E8.04965
G1 X88.283 Y94.654 E8.06033
G1 X88.58 Y94.65 E8.07021
G1 X146.043 Y94.65 E9.98144
G1 X146.893 Y94.661 E10.00971
G1 X147.812 Y94.714 E10.04033
G1 X148.723 Y94.847 E10.07095
G1 X149.619 Y95.058 E10.10157
G1 X150.493 Y95.346 E10.13217
G1 X151.34 Y95.709 E10.16282
G1 X152.151 Y96.144 E10.19343
G1 X152.921 Y96.648 E10.22404
G1 X153.645 Y97.217 E10.25467
G1 X154.317 Y97.847 E10.28531
G1 X154.932 Y98.532 E10.31592
G1 X155.485 Y99.268 E10.34654
G1 X155.972 Y100.049 E10.37716
G1 X156.389 Y100.87 E10.40778
G1 X156.734 Y101.724 E10.43842
G1 X157.003 Y102.604 E10.46902
G1 X157.195 Y103.505 E10.49966
G1 X157.308 Y104.418 E10.53026
G1 X157.337 Y104.962 E10.54838
G1 X157.346 Y105.282 E10.55903
G1 X157.35 Y105.58 E10.56894
G1 X157.349 Y129.145 E11.35272
G1 X157.34 Y129.872 E11.3769
G1 X157.289 Y130.791 E11.40751
G1 X157.158 Y131.703 E11.43815
G1 X156.948 Y132.599 E11.46876
G1 X156.662 Y133.474 E11.49938
G1 X156.301 Y134.321 E11.53
G1 X155.867 Y135.133 E11.56063
G1 X155.365 Y135.905 E11.59126
G1 X154.797 Y136.63 E11.62189
G1 X154.169 Y137.303 E11.6525
G1 X153.485 Y137.919 E11.68312
G1 X152.75 Y138.473 E11.71373
G1 X151.97 Y138.962 E11.74435
G1 X151.15 Y139.381 E11.77498
G1 X150.297 Y139.727 E11.8056
G1 X149.417 Y139.998 E11.83622
G1 X148.517 Y140.191 E11.86684
G1 X147.603 Y140.306 E11.89748
G1 X147.038 Y140.337 E11.9163
G1 X146.717 Y140.346 E11.92698
G1 X146.42 Y140.35 E11.93686
G1 X88.82 Y140.349 E13.85264
G1 X88.122 Y140.34 E13.87586
G1 X87.203 Y140.288 E13.90647
G1 X86.292 Y140.157 E13.93708
G1 X85.396 Y139.947 E13.96769
G1 X84.521 Y139.66 E13.99832
G1 X83.674 Y139.298 E14.02896
G1 X82.862 Y138.864 E14.05958
G1 X82.091 Y138.362 E14.09018
G1 X81.366 Y137.794 E14.12081
G1 X80.693 Y137.165 E14.15145
G1 X80.078 Y136.481 E14.18204
G1 X79.524 Y135.746 E14.21266
G1 X79.036 Y134.965 E14.24329
G1 X78.617 Y134.145 E14.27391
G1 X78.271 Y133.292 E14.30453
G1 X78.001 Y132.412 E14.33515
G1 X77.808 Y131.511 E14.36579
G1 X77.694 Y130.598 E14.3964
G1 X77.663 Y130.027 E14.41542
G1 X77.654 Y129.694 E14.42649
G1 X77.65 Y129.408 E14.43601
G1 X77.651 Y105.781 E15.22185
G1 X77.66 Y105.116 E15.24397
G1 X77.712 Y104.196 E15.27461
G1 X77.844 Y103.285 E15.30523
G1 X78.055 Y102.389 E15.33585
G1 X78.342 Y101.514 E15.36647
G1 X78.705 Y100.668 E15.39709
G1 X79.139 Y99.856 E15.42772
G1 X79.642 Y99.085 E15.45833
G1 X80.211 Y98.361 E15.48896
G1 X80.839 Y97.689 E15.51955
G1 X81.524 Y97.073 E15.55019
G0 F6000 X81.912 Y97.274
G1 F1200 X82.644 Y96.744 E15.58025
G1 X83.419 Y96.281 E15.61028
G1 X84.232 Y95.888 E15.64031
G1 X85.077 Y95.568 E15.67036
G1 X85.946 Y95.325 E15.70038
G1 X86.834 Y95.159 E15.73042
G1 X87.973 Y95.063 E15.76844
G1 X88.294 Y95.054 E15.77912
G1 X88.58 Y95.05 E15.78863
G1 X146.043 Y95.05 E17.69986
G1 X146.887 Y95.061 E17.72794
G1 X147.789 Y95.114 E17.75799
G1 X148.682 Y95.246 E17.78801
G1 X149.56 Y95.457 E17.81805
G1 X150.416 Y95.745 E17.84808
G1 X151.243 Y96.107 E17.87811
G1 X152.035 Y96.542 E17.90816
G1 X152.786 Y97.044 E17.93821
G1 X153.489 Y97.611 E17.96825
G1 X154.139 Y98.238 E17.99829
G1 X154.731 Y98.92 E18.02832
G1 X155.261 Y99.651 E18.05835
G1 X155.723 Y100.427 E18.08839
G1 X156.116 Y101.24 E18.11843
G1 X156.434 Y102.085 E18.14846
G1 X156.677 Y102.955 E18.1785
G1 X156.842 Y103.843 E18.20854
G1 X156.937 Y104.973 E18.24626
G1 X156.946 Y105.293 E18.2569
G1 X156.95 Y105.58 E18.26645
G1 X156.949 Y129.14 E19.05006
G1 X156.94 Y129.867 E19.07424
G1 X156.889 Y130.769 E19.10429
G1 X156.758 Y131.663 E19.13434
G1 X156.549 Y132.541 E19.16436
G1 X156.263 Y133.398 E19.19441
G1 X155.902 Y134.226 E19.22445
G1 X155.47 Y135.018 E19.25446
G1 X154.969 Y135.77 E19.28451
G1 X154.403 Y136.474 E19.31456
G1 X153.778 Y137.125 E19.34457
G1 X153.097 Y137.719 E19.37463
G1 X152.366 Y138.25 E19.40468
G1 X151.592 Y138.714 E19.43469
G1 X150.779 Y139.108 E19.46474
G1 X149.935 Y139.428 E19.49476
G1 X149.065 Y139.673 E19.52483
G1 X148.178 Y139.839 E19.55484
G1 X147.027 Y139.937 E19.59326
G1 X146.706 Y139.946 E19.60394
G1 X146.42 Y139.95 E19.61346
G1 X88.825 Y139.949 E21.52907
G1 X88.127 Y139.94 E21.55229
G1 X87.226 Y139.889 E21.58231
G1 X86.332 Y139.757 E21.61236
G1 X85.454 Y139.548 E21.64238
G1 X84.597 Y139.261 E21.67244
G1 X83.77 Y138.9 E21.70245
G1 X82.977 Y138.467 E21.7325
G1 X82.226 Y137.966 E21.76253
G1 X81.522 Y137.4 E21.79257
G1 X80.871 Y136.774 E21.82261
G1 X80.278 Y136.093 E21.85265
G1 X79.748 Y135.362 E21.88268
G1 X79.284 Y134.587 E21.91272
G1 X78.89 Y133.774 E21.94277
G1 X78.57 Y132.93 E21.97279
G1 X78.326 Y132.06 E22.00284
G1 X78.16 Y131.172 E22.03289
G1 X78.063 Y130.017 E22.07144
G1 X78.054 Y129.684 E22.08252
G1 X78.05 Y129.408 E22.0917
G1 X78.051 Y105.786 E22.87737
G1 X78.06 Y105.121 E22.89949
G1 X78.112 Y104.219 E22.92954
G1 X78.244 Y103.326 E22.95957
G1 X78.454 Y102.448 E22.98959
G1 X78.741 Y101.591 E23.01965
G1 X79.103 Y100.764 E23.04968
G1 X79.536 Y99.972 E23.0797
G1 X80.038 Y99.221 E23.10975
G1 X80.605 Y98.517 E23.13981
G1 X81.231 Y97.867 E23.16983
G1 X81.912 Y97.274 E23.19986
G1 F2700 E18.19986
;MESH:CasesRACK.stl
G0 F6000 X88.664 Y104.585
G0 X88.664 Y105.664
G0 X145.568 Y106.432
G0 X145.75 Y128.75
;TYPE:WALL-INNER
G1 F2700 E23.19986
G1 F1200 X89.25 Y128.75 E25.07906
G1 X89.25 Y106.25 E25.82741
G1 X145.75 Y106.25 E27.70661
G1 X145.75 Y128.75 E28.45496
G0 F6000 X146.15 Y129.15
G1 F1200 X88.85 Y129.15 E30.36077
G1 X88.85 Y105.85 E31.13573
G1 X146.15 Y105.85 E33.04153
G1 X146.15 Y129.15 E33.8165
G0 F6000 X146.55 Y129.55
;TYPE:WALL-OUTER
G1 F1200 X88.45 Y129.55 E35.74891
G1 X88.45 Y105.45 E36.55048
G1 X146.55 Y105.45 E38.48289
G1 X146.55 Y129.55 E39.28446
G0 F6000 X146.28 Y129.28
G0 X145.64 Y128.36
G0 X145.36 Y128.36
;TYPE:SKIN
G1 F1200 X89.64 Y128.36 E41.13772
G1 X89.64 Y106.64 E41.86013
G1 X145.36 Y106.64 E43.71338
G1 X145.36 Y128.36 E44.43579
G0 F6000 X145.64 Y128.36
G0 X145.64 Y107.297
G0 X145.198 Y107.297
G1 F1200 X144.7 Y106.799 E44.45922
G0 F6000 X144.135 Y106.799
G1 F1200 X145.198 Y107.863 E44.50924
G0 F6000 X145.198 Y108.429
G1 F1200 X143.569 Y106.799 E44.58589
G0 F6000 X143.003 Y106.799
G1 F1200 X145.198 Y108.994 E44.68913
G0 F6000 X145.198 Y109.56
G1 F1200 X142.438 Y106.799 E44.81898
G0 F6000 X141.872 Y106.799
G1 F1200 X145.198 Y110.126 E44.97545
G0 F6000 X145.198 Y110.691
G1 F1200 X141.306 Y106.799 E45.15851
G0 F6000 X140.741 Y106.799
G1 F1200 X145.198 Y111.257 E45.36818
G0 F6000 X145.198 Y111.823
G1 F1200 X140.175 Y106.799 E45.60447
G0 F6000 X139.609 Y106.799
G1 F1200 X145.198 Y112.388 E45.86736
G0 F6000 X145.198 Y112.954
G1 F1200 X139.044 Y106.799 E46.15685
G0 F6000 X138.478 Y106.799
G1 F1200 X145.198 Y113.52 E46.47296
G0 F6000 X145.198 Y114.086
G1 F1200 X137.912 Y106.799 E46.8157
G0 F6000 X137.347 Y106.799
G1 F1200 X145.198 Y114.651 E47.18501
G0 F6000 X145.198 Y115.217
G1 F1200 X136.781 Y106.799 E47.58094
G0 F6000 X136.215 Y106.799
G1 F1200 X145.198 Y115.783 E48.0035
G0 F6000 X145.198 Y116.348
G1 F1200 X135.649 Y106.799 E48.45265
G0 F6000 X135.084 Y106.799
G1 F1200 X145.198 Y116.914 E48.92841
G0 F6000 X145.198 Y117.48
G1 F1200 X134.518 Y106.799 E49.43078
G0 F6000 X133.952 Y106.799
G1 F1200 X145.198 Y118.045 E49.95976
G0 F6000 X145.198 Y118.611
G1 F1200 X133.387 Y106.799 E50.51534
G0 F6000 X132.821 Y106.799
G1 F1200 X145.198 Y119.177 E51.09754
G0 F6000 X145.198 Y119.742
G1 F1200 X132.255 Y106.799 E51.70634
G0 F6000 X131.69 Y106.799
G1 F1200 X145.198 Y120.308 E52.34174
G0 F6000 X145.198 Y120.874
G1 F1200 X131.124 Y106.799 E53.00376
G0 F6000 X130.558 Y106.799
G1 F1200 X145.198 Y121.439 E53.69238
G0 F6000 X145.198 Y122.005
G1 F1200 X129.993 Y106.799 E54.4076
G0 F6000 X129.427 Y106.799
G1 F1200 X145.198 Y122.571 E55.14944
G0 F6000 X145.198 Y123.136
G1 F1200 X128.861 Y106.799 E55.91788
G0 F6000 X128.296 Y106.799
G1 F1200 X145.198 Y123.702 E56.71293
G0 F6000 X145.198 Y124.268
G1 F1200 X127.73 Y106.799 E57.53459
G0 F6000 X127.164 Y106.799
G1 F1200 X145.198 Y124.834 E58.38288
G0 F6000 X145.198 Y125.399
G1 F1200 X126.598 Y106.799 E59.25776
G0 F6000 X126.033 Y106.799
G1 F1200 X145.198 Y125.965 E60.15925
G0 F6000 X145.198 Y126.531
G1 F1200 X125.467 Y106.799 E61.08736
G0 F6000 X124.901 Y106.799
G1 F1200 X145.198 Y127.096 E62.04207
G0 F6000 X145.198 Y127.662
G1 F1200 X124.336 Y106.799 E63.02338
G0 F6000 X123.77 Y106.799
G1 F1200 X145.169 Y128.199 E64.02994
G0 F6000 X144.604 Y128.199
G1 F1200 X123.204 Y106.799 E65.03653
G0 F6000 X122.639 Y106.799
G1 F1200 X144.038 Y128.199 E66.0431
G0 F6000 X143.472 Y128.199
G1 F1200 X122.073 Y106.799 E67.04967
G0 F6000 X121.507 Y106.799
G1 F1200 X142.906 Y128.199 E68.05623
G0 F6000 X142.341 Y128.199
G1 F1200 X120.942 Y106.799 E69.0628
G0 F6000 X120.376 Y106.799
G1 F1200 X141.775 Y128.199 E70.06937
G0 F6000 X141.209 Y128.199
G1 F1200 X119.81 Y106.799 E71.07594
G0 F6000 X119.245 Y106.799
G1 F1200 X140.644 Y128.199 E72.0825
G0 F6000 X140.078 Y128.199
G1 F1200 X118.679 Y106.799 E73.08907
G0 F6000 X118.113 Y106.799
G1 F1200 X139.512 Y128.199 E74.09564
G0 F6000 X138.947 Y128.199
G1 F1200 X117.548 Y106.799 E75.1022
G0 F6000 X116.982 Y106.799
G1 F1200 X138.381 Y128.199 E76.10877
G0 F6000 X137.815 Y128.199
G1 F1200 X116.416 Y106.799 E77.11534
G0 F6000 X115.85 Y106.799
G1 F1200 X137.25 Y128.199 E78.12193
G0 F6000 X136.684 Y128.199
G1 F1200 X115.285 Y106.799 E79.12849
G0 F6000 X114.719 Y106.799
G1 F1200 X136.118 Y128.199 E80.13506
G0 F6000 X135.553 Y128.199
G1 F1200 X114.153 Y106.799 E81.14165
G0 F6000 X113.588 Y106.799
G1 F1200 X134.987 Y128.199 E82.14822
G0 F6000 X134.421 Y128.199
G1 F1200 X113.022 Y106.799 E83.15478
G0 F6000 X112.456 Y106.799
G1 F1200 X133.856 Y128.199 E84.16138
G0 F6000 X133.29 Y128.199
G1 F1200 X111.891 Y106.799 E85.16794
G0 F6000 X111.325 Y106.799
G1 F1200 X132.724 Y128.199 E86.17451
G0 F6000 X132.158 Y128.199
G1 F1200 X110.759 Y106.799 E87.18108
G0 F6000 X110.194 Y106.799
G1 F1200 X131.593 Y128.199 E88.18764
G0 F6000 X131.027 Y128.199
G1 F1200 X109.628 Y106.799 E89.19421
G0 F6000 X109.062 Y106.799
G1 F1200 X130.461 Y128.199 E90.20078
G0 F6000 X129.896 Y128.199
G1 F1200 X108.497 Y106.799 E91.20734
G0 F6000 X107.931 Y106.799
G1 F1200 X129.33 Y128.199 E92.21391
G0 F6000 X128.764 Y128.199
G1 F1200 X107.365 Y106.799 E93.22048
G0 F6000 X106.799 Y106.799
G1 F1200 X128.199 Y128.199 E94.22707
G0 F6000 X127.633 Y128.199
G1 F1200 X106.234 Y106.799 E95.23363
G0 F6000 X105.668 Y106.799
G1 F1200 X127.067 Y128.199 E96.2402
G0 F6000 X126.502 Y128.199
G1 F1200 X105.102 Y106.799 E97.24679
G0 F6000 X104.537 Y106.799
G1 F1200 X125.936 Y128.199 E98.25336
G0 F6000 X125.37 Y128.199
G1 F1200 X103.971 Y106.799 E99.25993
G0 F6000 X103.405 Y106.799
G1 F1200 X124.805 Y128.199 E100.26652
G0 F6000 X124.239 Y128.199
G1 F1200 X102.84 Y106.799 E101.27308
G0 F6000 X102.274 Y106.799
G1 F1200 X123.673 Y128.199 E102.27965
G0 F6000 X123.107 Y128.199
G1 F1200 X101.708 Y106.799 E103.28622
G0 F6000 X101.143 Y106.799
G1 F1200 X122.542 Y128.199 E104.29278
G0 F6000 X121.976 Y128.199
G1 F1200 X100.577 Y106.799 E105.29935
G0 F6000 X100.011 Y106.799
G1 F1200 X121.41 Y128.199 E106.30592
G0 F6000 X120.845 Y128.199
G1 F1200 X99.446 Y106.799 E107.31248
G0 F6000 X98.88 Y106.799
G1 F1200 X120.279 Y128.199 E108.31905
G0 F6000 X119.713 Y128.199
G1 F1200 X98.314 Y106.799 E109.32562
G0 F6000 X97.749 Y106.799
G1 F1200 X119.148 Y128.199 E110.33218
G0 F6000 X118.582 Y128.199
G1 F1200 X97.183 Y106.799 E111.33875
G0 F6000 X96.617 Y106.799
G1 F1200 X118.016 Y128.199 E112.34532
G0 F6000 X117.451 Y128.199
G1 F1200 X96.051 Y106.799 E113.35191
G0 F6000 X95.486 Y106.799
G1 F1200 X116.885 Y128.199 E114.35848
G0 F6000 X116.319 Y128.199
G1 F1200 X94.92 Y106.799 E115.36504
G0 F6000 X94.354 Y106.799
G1 F1200 X115.754 Y128.199 E116.37163
G0 F6000 X115.188 Y128.199
G1 F1200 X93.789 Y106.799 E117.3782
G0 F6000 X93.223 Y106.799
G1 F1200 X114.622 Y128.199 E118.38477
G0 F6000 X114.057 Y128.199
G1 F1200 X92.657 Y106.799 E119.39136
G0 F6000 X92.092 Y106.799
G1 F1200 X113.491 Y128.199 E120.39792
G0 F6000 X112.925 Y128.199
G1 F1200 X91.526 Y106.799 E121.40449
G0 F6000 X90.96 Y106.799
G1 F1200 X112.359 Y128.199 E122.41106
G0 F6000 X111.794 Y128.199
G1 F1200 X90.395 Y106.799 E123.41762
G0 F6000 X89.829 Y106.799
G1 F1200 X111.228 Y128.199 E124.42419
G0 F6000 X110.662 Y128.199
G1 F1200 X89.8 Y107.336 E125.4055
G0 F6000 X89.8 Y107.902
G1 F1200 X110.097 Y128.199 E126.36021
G0 F6000 X109.531 Y128.199
G1 F1200 X89.8 Y108.468 E127.28829
G0 F6000 X89.8 Y109.033
G1 F1200 X108.965 Y128.199 E128.18978
G0 F6000 X108.4 Y128.199
G1 F1200 X89.8 Y109.599 E129.06467
G0 F6000 X89.8 Y110.165
