;FLAVOR:Marlin
;TIME:14066
;Filament used: 9.43459m
;Layer height: 0.16
;MINX:77.25
;MINY:12
;MINZ:0.2
;MAXX:157.75
;MAXY:223
;MAXZ:4.08
;Generated with Cura_SteamEngine 4.10.0
M140 S50
M105
M190 S50
M104 S200
M105
M109 S200
M82 ;absolute extrusion mode
; Ender 3 Custom Start G-code
G92 E0 ; Reset Extruder
G28 ; Home all axes
G1 Z2.0 F3000 ; Move Z Axis up little to prevent scratching of Heat Bed
G1 X0.1 Y20 Z0.3 F5000.0 ; Move to start position
G1 X0.1 Y200.0 Z0.3 F1500.0 E15 ; Draw the first line
G1 X0.4 Y200.0 Z0.3 F5000.0 ; Move to side a little
G1 X0.4 Y20 Z0.3 F1500.0 E30 ; Draw the second line
G92 E0 ; Reset Extruder
G1 Z2.0 F3000 ; Move Z Axis up little to prevent scratching of Heat Bed
G1 X5 Y20 Z0.3 F5000.0 ; Move over to prevent blob squish
G92 E0
G92 E0
G1 F2700 E-5
;LAYER_COUNT:22
;LAYER:0
M107
G0 F6000 X77.656 Y20.081 Z0.2
;TYPE:SKIRT
G1 F2700 E0
G1 F1200 X77.944 Y19.189 E0.03118
G1 X78.307 Y18.324 E0.06238
G1 X78.742 Y17.493 E0.09357
G1 X79.246 Y16.703 E0.12474
G1 X79.816 Y15.958 E0.15594
G1 X80.448 Y15.264 E0.18716
G1 X81.136 Y14.627 E0.21835
G1 X81.876 Y14.051 E0.24953
G1 X82.662 Y13.539 E0.28073
G1 X83.489 Y13.097 E0.31192
G1 X84.351 Y12.727 E0.34312
G1 X85.241 Y12.431 E0.37432
G1 X86.153 Y12.213 E0.40551
G1 X87.08 Y12.072 E0.43669
G1 X87.951 Y12.013 E0.46573
G1 X88.272 Y12.004 E0.47641
G1 X88.58 Y12 E0.48665
G1 X146.043 Y12 E2.39788
G1 X146.899 Y12.011 E2.42635
G1 X147.835 Y12.065 E2.45754
G1 X148.763 Y12.197 E2.48871
G1 X149.677 Y12.409 E2.51992
G1 X150.569 Y12.698 E2.55111
G1 X151.434 Y13.061 E2.58231
G1 X152.264 Y13.497 E2.61349
G1 X153.055 Y14.002 E2.6447
G1 X153.799 Y14.573 E2.6759
G1 X154.492 Y15.205 E2.70709
G1 X155.129 Y15.893 E2.73828
G1 X155.704 Y16.634 E2.76947
G1 X156.215 Y17.42 E2.80065
G1 X156.657 Y18.248 E2.83187
G1 X157.026 Y19.11 E2.86306
G1 X157.321 Y20 E2.89424
G1 X157.539 Y20.912 E2.92543
G1 X157.679 Y21.84 E2.95665
G1 X157.737 Y22.701 E2.98535
G1 X157.746 Y23.021 E2.996
G1 X157.75 Y23.33 E3.00627
G1 X157.749 Y211.4 E9.26151
G1 X157.74 Y212.127 E9.28569
G1 X157.689 Y213.064 E9.3169
G1 X157.557 Y213.992 E9.34808
G1 X157.348 Y214.906 E9.37926
G1 X157.061 Y215.799 E9.41046
G1 X156.699 Y216.665 E9.44168
G1 X156.265 Y217.496 E9.47286
G1 X155.761 Y218.287 E9.50405
G1 X155.192 Y219.032 E9.53523
G1 X154.561 Y219.727 E9.56645
G1 X153.874 Y220.365 E9.59764
G1 X153.135 Y220.942 E9.62882
G1 X152.349 Y221.454 E9.66002
G1 X151.523 Y221.897 E9.6912
G1 X150.661 Y222.269 E9.72242
G1 X149.772 Y222.565 E9.75359
G1 X148.86 Y222.785 E9.78479
G1 X147.933 Y222.926 E9.81598
G1 X147.049 Y222.987 E9.84545
G1 X146.728 Y222.996 E9.85613
G1 X146.42 Y223 E9.86637
G1 X88.815 Y222.999 E11.78232
G1 X88.117 Y222.99 E11.80554
G1 X87.181 Y222.938 E11.83672
G1 X86.252 Y222.806 E11.86793
G1 X85.338 Y222.596 E11.89912
G1 X84.445 Y222.309 E11.93032
G1 X83.58 Y221.946 E11.96152
G1 X82.749 Y221.512 E11.9927
G1 X81.958 Y221.008 E12.0239
G1 X81.213 Y220.438 E12.0551
G1 X80.519 Y219.807 E12.08629
G1 X79.882 Y219.12 E12.11745
G1 X79.305 Y218.38 E12.14866
G1 X78.793 Y217.594 E12.17986
G1 X78.35 Y216.767 E12.21107
G1 X77.979 Y215.906 E12.24225
G1 X77.683 Y215.016 E12.27345
G1 X77.464 Y214.104 E12.30464
G1 X77.323 Y213.177 E12.33583
G1 X77.263 Y212.288 E12.36546
G1 X77.254 Y211.955 E12.37654
G1 X77.25 Y211.658 E12.38642
G1 X77.251 Y23.525 E18.64375
G1 X77.26 Y22.86 E18.66587
G1 X77.313 Y21.924 E18.69705
G1 X77.445 Y20.995 E18.72826
G1 X77.656 Y20.081 E18.75946
G0 F6000 X78.055 Y20.139
G1 F1200 X78.342 Y19.264 E18.79009
G1 X78.705 Y18.418 E18.82071
G1 X79.139 Y17.606 E18.85133
G1 X79.642 Y16.835 E18.88195
G1 X80.211 Y16.111 E18.91258
G1 X80.839 Y15.439 E18.94317
G1 X81.524 Y14.823 E18.97381
G1 X82.26 Y14.27 E19.00443
G1 X83.041 Y13.782 E19.03506
G1 X83.861 Y13.364 E19.06567
G1 X84.715 Y13.019 E19.09631
G1 X85.595 Y12.749 E19.12692
G1 X86.495 Y12.557 E19.15753
G1 X87.409 Y12.443 E19.18816
G1 X87.962 Y12.413 E19.20658
G1 X88.283 Y12.404 E19.21726
G1 X88.58 Y12.4 E19.22714
G1 X146.043 Y12.4 E21.13837
G1 X146.893 Y12.411 E21.16664
G1 X147.812 Y12.464 E21.19726
G1 X148.723 Y12.597 E21.22788
G1 X149.619 Y12.808 E21.2585
G1 X150.493 Y13.096 E21.28911
G1 X151.34 Y13.459 E21.31976
G1 X152.151 Y13.894 E21.35036
G1 X152.921 Y14.398 E21.38097
G1 X153.645 Y14.967 E21.4116
G1 X154.317 Y15.597 E21.44224
G1 X154.932 Y16.282 E21.47286
G1 X155.485 Y17.018 E21.50347
G1 X155.972 Y17.799 E21.53409
G1 X156.389 Y18.62 E21.56471
G1 X156.734 Y19.474 E21.59535
G1 X157.003 Y20.354 E21.62595
G1 X157.195 Y21.255 E21.65659
G1 X157.308 Y22.168 E21.68719
G1 X157.337 Y22.712 E21.70531
G1 X157.346 Y23.032 E21.71596
G1 X157.35 Y23.33 E21.72587
G1 X157.349 Y211.395 E27.98094
G1 X157.34 Y212.122 E28.00512
G1 X157.289 Y213.041 E28.03573
G1 X157.158 Y213.953 E28.06638
G1 X156.948 Y214.849 E28.09699
G1 X156.662 Y215.724 E28.12761
G1 X156.301 Y216.571 E28.15823
G1 X155.867 Y217.383 E28.18885
G1 X155.365 Y218.155 E28.21948
G1 X154.797 Y218.88 E28.25011
G1 X154.169 Y219.553 E28.28073
G1 X153.485 Y220.169 E28.31134
G1 X152.75 Y220.723 E28.34196
G1 X151.97 Y221.212 E28.37258
G1 X151.15 Y221.631 E28.4032
G1 X150.297 Y221.977 E28.43382
G1 X149.417 Y222.248 E28.46445
G1 X148.517 Y222.441 E28.49506
G1 X147.603 Y222.556 E28.5257
G1 X147.038 Y222.587 E28.54452
G1 X146.717 Y222.596 E28.5552
G1 X146.42 Y222.6 E28.56508
G1 X88.82 Y222.599 E30.48086
G1 X88.122 Y222.59 E30.50408
G1 X87.203 Y222.538 E30.5347
G1 X86.292 Y222.407 E30.56531
G1 X85.396 Y222.197 E30.59592
G1 X84.521 Y221.91 E30.62654
G1 X83.674 Y221.548 E30.65718
G1 X82.862 Y221.114 E30.6878
G1 X82.091 Y220.612 E30.7184
G1 X81.366 Y220.044 E30.74904
G1 X80.693 Y219.415 E30.77967
G1 X80.078 Y218.731 E30.81027
G1 X79.524 Y217.996 E30.84088
G1 X79.036 Y217.215 E30.87151
G1 X78.617 Y216.395 E30.90214
G1 X78.271 Y215.542 E30.93275
G1 X78.001 Y214.662 E30.96337
G1 X77.808 Y213.761 E30.99402
G1 X77.694 Y212.848 E31.02462
G1 X77.663 Y212.277 E31.04364
G1 X77.654 Y211.944 E31.05472
G1 X77.65 Y211.658 E31.06423
G1 X77.651 Y23.531 E37.32136
G1 X77.66 Y22.866 E37.34348
G1 X77.712 Y21.946 E37.37413
G1 X77.844 Y21.035 E37.40475
G1 X78.055 Y20.139 E37.43536
G0 F6000 X78.454 Y20.198
G1 F1200 X78.741 Y19.341 E37.46542
G1 X79.103 Y18.514 E37.49545
G1 X79.536 Y17.722 E37.52547
G1 X80.038 Y16.971 E37.55551
G1 X80.605 Y16.267 E37.58558
G1 X81.231 Y15.617 E37.61559
G1 X81.912 Y15.024 E37.64563
G1 X82.644 Y14.494 E37.67569
G1 X83.419 Y14.031 E37.70571
G1 X84.232 Y13.638 E37.73575
G1 X85.077 Y13.318 E37.7658
G1 X85.946 Y13.075 E37.79581
G1 X86.834 Y12.909 E37.82586
G1 X87.973 Y12.813 E37.86388
G1 X88.294 Y12.804 E37.87456
G1 X88.58 Y12.8 E37.88407
G1 X146.043 Y12.8 E39.7953
G1 X146.887 Y12.811 E39.82337
G1 X147.789 Y12.864 E39.85342
G1 X148.682 Y12.996 E39.88345
G1 X149.56 Y13.207 E39.91348
G1 X150.416 Y13.495 E39.94352
G1 X151.243 Y13.857 E39.97355
G1 X152.035 Y14.292 E40.0036
G1 X152.786 Y14.794 E40.03364
G1 X153.489 Y15.361 E40.06368
G1 X154.139 Y15.988 E40.09372
G1 X154.731 Y16.67 E40.12376
G1 X155.261 Y17.401 E40.15379
G1 X155.723 Y18.177 E40.18383
G1 X156.116 Y18.99 E40.21386
G1 X156.434 Y19.835 E40.24389
G1 X156.677 Y20.705 E40.27393
G1 X156.842 Y21.593 E40.30398
G1 X156.937 Y22.723 E40.34169
G1 X156.946 Y23.043 E40.35234
G1 X156.95 Y23.33 E40.36189
G1 X156.949 Y211.39 E46.61679
G1 X156.94 Y212.117 E46.64097
G1 X156.889 Y213.019 E46.67102
G1 X156.758 Y213.913 E46.70107
G1 X156.549 Y214.791 E46.73109
G1 X156.263 Y215.648 E46.76114
G1 X155.902 Y216.476 E46.79118
G1 X155.47 Y217.268 E46.82119
G1 X154.969 Y218.02 E46.85124
G1 X154.403 Y218.724 E46.88128
G1 X153.778 Y219.375 E46.9113
G1 X153.097 Y219.969 E46.94136
G1 X152.366 Y220.5 E46.97141
G1 X151.592 Y220.964 E47.00142
G1 X150.779 Y221.358 E47.03147
G1 X149.935 Y221.678 E47.06149
G1 X149.065 Y221.923 E47.09155
G1 X148.178 Y222.089 E47.12157
G1 X147.027 Y222.187 E47.15999
G1 X146.706 Y222.196 E47.17067
G1 X146.42 Y222.2 E47.18018
G1 X88.825 Y222.199 E49.0958
G1 X88.127 Y222.19 E49.11902
G1 X87.226 Y222.139 E49.14903
G1 X86.332 Y222.007 E49.17909
G1 X85.454 Y221.798 E49.20911
G1 X84.597 Y221.511 E49.23917
G1 X83.77 Y221.15 E49.26918
G1 X82.977 Y220.717 E49.29923
G1 X82.226 Y220.216 E49.32926
G1 X81.522 Y219.65 E49.3593
G1 X80.871 Y219.024 E49.38934
G1 X80.278 Y218.343 E49.41937
G1 X79.748 Y217.612 E49.44941
G1 X79.284 Y216.837 E49.47945
G1 X78.89 Y216.024 E49.5095
G1 X78.57 Y215.18 E49.53952
G1 X78.326 Y214.31 E49.56957
G1 X78.16 Y213.422 E49.59962
G1 X78.063 Y212.267 E49.63817
G1 X78.054 Y211.934 E49.64925
G1 X78.05 Y211.658 E49.65843
G1 X78.051 Y23.536 E55.91539
G1 X78.06 Y22.871 E55.93751
G1 X78.112 Y21.969 E55.96756
G1 X78.244 Y21.076 E55.99759
G1 X78.454 Y20.198 E56.02761
G1 F2700 E51.02761
;MESH:CasesRACK.stl
G0 F6000 X87.585 Y24.21
G0 X89.46 Y24.21
G0 X145.568 Y24.182
G0 X145.75 Y211
;TYPE:WALL-INNER
G1 F2700 E56.02761
G1 F1200 X89.25 Y211 E57.90681
G1 X89.25 Y24 E64.12646
G1 X145.75 Y24 E66.00565
G1 X145.75 Y211 E72.2253
G0 F6000 X146.15 Y211.4
G1 F1200 X88.85 Y211.4 E74.13111
G1 X88.85 Y23.6 E80.37736
G1 X146.15 Y23.6 E82.28316
G1 X146.15 Y211.4 E88.52942
G0 F6000 X146.55 Y211.8
;TYPE:WALL-OUTER
G1 F1200 X88.45 Y211.8 E90.46183
G1 X88.45 Y23.2 E96.73469
G1 X146.55 Y23.2 E98.66711
G1 X146.55 Y211.8 E104.93997
G0 F6000 X146.28 Y211.53
G0 X145.64 Y210.61
G0 X145.36 Y210.61
;TYPE:SKIN
G1 F1200 X89.64 Y210.61 E106.79322
G1 X89.64 Y24.39 E112.98693
G1 X145.36 Y24.39 E114.84018
G1 X145.36 Y210.61 E121.03388
G1 F2700 E116.03388
G0 F6000 X145.64 Y210.61
G0 X89.958 Y210.89
G0 X89.958 Y210.449
G1 F2700 E121.03388
G1 F1200 X89.799 Y210.29 E121.04136
G0 F6000 X89.799 Y209.724
G1 F1200 X90.523 Y210.449 E121.07544
G0 F6000 X91.089 Y210.449
G1 F1200 X89.799 Y209.158 E121.13614
G0 F6000 X89.799 Y208.592
G1 F1200 X91.655 Y210.449 E121.22346
G0 F6000 X92.22 Y210.449
G1 F1200 X89.799 Y208.027 E121.33736
G0 F6000 X89.799 Y207.461
G1 F1200 X92.786 Y210.449 E121.47789
G0 F6000 X93.352 Y210.449
G1 F1200 X89.799 Y206.895 E121.64503
G0 F6000 X89.799 Y206.33
G1 F1200 X93.917 Y210.449 E121.83875
G0 F6000 X94.483 Y210.449
G1 F1200 X89.799 Y205.764 E122.0591
G0 F6000 X89.799 Y205.198
G1 F1200 X95.049 Y210.449 E122.30607
G0 F6000 X95.614 Y210.449
G1 F1200 X89.799 Y204.633 E122.57961
G0 F6000 X89.799 Y204.067
G1 F1200 X96.18 Y210.449 E122.87978
G0 F6000 X96.746 Y210.449
G1 F1200 X89.799 Y203.501 E123.20657
G0 F6000 X89.799 Y202.936
G1 F1200 X97.312 Y210.449 E123.55995
G0 F6000 X97.877 Y210.449
G1 F1200 X89.799 Y202.37 E123.93994
G0 F6000 X89.799 Y201.804
G1 F1200 X98.443 Y210.449 E124.34655
G0 F6000 X99.009 Y210.449
G1 F1200 X89.799 Y201.239 E124.77976
G0 F6000 X89.799 Y200.673
G1 F1200 X99.574 Y210.449 E125.23957
G0 F6000 X100.14 Y210.449
G1 F1200 X89.799 Y200.107 E125.726
G0 F6000 X89.799 Y199.541
G1 F1200 X100.706 Y210.449 E126.23906
G0 F6000 X101.271 Y210.449
G1 F1200 X89.799 Y198.976 E126.77869
G0 F6000 X89.799 Y198.41
G1 F1200 X101.837 Y210.449 E127.34495
G0 F6000 X102.403 Y210.449
G1 F1200 X89.799 Y197.844 E127.93782
G0 F6000 X89.799 Y197.279
G1 F1200 X102.968 Y210.449 E128.55728
G0 F6000 X103.534 Y210.449
G1 F1200 X89.799 Y196.713 E129.20335
G0 F6000 X89.799 Y196.147
G1 F1200 X104.1 Y210.449 E129.87605
G0 F6000 X104.665 Y210.449
G1 F1200 X89.799 Y195.582 E130.57532
G0 F6000 X89.799 Y195.016
G1 F1200 X105.231 Y210.449 E131.30122
G0 F6000 X105.797 Y210.449
G1 F1200 X89.799 Y194.45 E132.05374
G0 F6000 X89.799 Y193.885
G1 F1200 X106.363 Y210.449 E132.83286
G0 F6000 X106.928 Y210.449
G1 F1200 X89.799 Y193.319 E133.63858
G0 F6000 X89.799 Y192.753
G1 F1200 X107.494 Y210.449 E134.47092
G0 F6000 X108.06 Y210.449
G1 F1200 X89.799 Y192.188 E135.32986
G0 F6000 X89.799 Y191.622
G1 F1200 X108.625 Y210.449 E136.21541
G0 F6000 X109.191 Y210.449
G1 F1200 X89.799 Y191.056 E137.12757
G0 F6000 X89.799 Y190.491
G1 F1200 X109.757 Y210.449 E138.06633
G0 F6000 X110.322 Y210.449
G1 F1200 X89.799 Y189.925 E139.0317
G0 F6000 X89.799 Y189.359
G1 F1200 X110.888 Y210.449 E140.02368
G0 F6000 X111.454 Y210.449
G1 F1200 X89.799 Y188.793 E141.04229
G0 F6000 X89.799 Y188.228
G1 F1200 X112.019 Y210.449 E142.08747
G0 F6000 X112.585 Y210.449
G1 F1200 X89.799 Y187.662 E143.15928
G0 F6000 X89.799 Y187.096
G1 F1200 X113.151 Y210.449 E144.25771
G0 F6000 X113.716 Y210.449
G1 F1200 X89.799 Y186.531 E145.38272
G0 F6000 X89.799 Y185.965
G1 F1200 X114.282 Y210.449 E146.53434
G0 F6000 X114.848 Y210.449
G1 F1200 X89.799 Y185.399 E147.7126
G0 F6000 X89.799 Y184.834
G1 F1200 X115.413 Y210.449 E148.91742
G0 F6000 X115.979 Y210.449
G1 F1200 X89.799 Y184.268 E150.14887
G0 F6000 X89.799 Y183.702
G1 F1200 X116.545 Y210.449 E151.40695
G0 F6000 X117.111 Y210.449
G1 F1200 X89.799 Y183.137 E152.69162
G0 F6000 X89.799 Y182.571
G1 F1200 X117.676 Y210.449 E154.00289
G0 F6000 X118.242 Y210.449
G1 F1200 X89.799 Y182.005 E155.34079
G0 F6000 X89.799 Y181.44
G1 F1200 X118.808 Y210.449 E156.70528
G0 F6000 X119.373 Y210.449
G1 F1200 X89.799 Y180.874 E158.09638
G0 F6000 X89.799 Y180.308
G1 F1200 X119.939 Y210.449 E159.51409
G0 F6000 X120.505 Y210.449
G1 F1200 X89.799 Y179.743 E160.95841
G0 F6000 X89.799 Y179.177
G1 F1200 X121.07 Y210.449 E162.42932
G0 F6000 X121.636 Y210.449
G1 F1200 X89.799 Y178.611 E163.92686
G0 F6000 X89.799 Y178.045
G1 F1200 X122.202 Y210.449 E165.45102
G0 F6000 X122.767 Y210.449
G1 F1200 X89.799 Y177.48 E167.00176
G0 F6000 X89.799 Y176.914
G1 F1200 X123.333 Y210.449 E168.57912
G0 F6000 X123.899 Y210.449
G1 F1200 X89.799 Y176.348 E170.1831
G0 F6000 X89.799 Y175.783
G1 F1200 X124.464 Y210.449 E171.81366
G0 F6000 X125.03 Y210.449
G1 F1200 X89.799 Y175.217 E173.47084
G0 F6000 X89.799 Y174.651
G1 F1200 X125.596 Y210.449 E175.15465
G0 F6000 X126.161 Y210.449
G1 F1200 X89.799 Y174.086 E176.86503
G0 F6000 X89.799 Y173.52
G1 F1200 X126.727 Y210.449 E178.60203
G0 F6000 X127.293 Y210.449
G1 F1200 X89.799 Y172.954 E180.36566
G0 F6000 X89.799 Y172.389
G1 F1200 X127.859 Y210.449 E182.15589
G0 F6000 X128.424 Y210.449
G1 F1200 X89.799 Y171.823 E183.97271
G0 F6000 X89.799 Y171.257
G1 F1200 X128.99 Y210.449 E185.81616
G0 F6000 X129.556 Y210.449
G1 F1200 X89.799 Y170.692 E187.68621
G0 F6000 X89.799 Y170.126
G1 F1200 X130.121 Y210.449 E189.58285
G0 F6000 X130.687 Y210.449
G1 F1200 X89.799 Y169.56 E191.50612
G0 F6000 X89.799 Y168.994
G1 F1200 X131.253 Y210.449 E193.45601
G0 F6000 X131.818 Y210.449
G1 F1200 X89.799 Y168.429 E195.43248
G0 F6000 X89.799 Y167.863
G1 F1200 X132.384 Y210.449 E197.43557
G0 F6000 X132.95 Y210.449
G1 F1200 X89.799 Y167.297 E199.46529
G0 F6000 X89.799 Y166.732
G1 F1200 X133.515 Y210.449 E201.52158
G0 F6000 X134.081 Y210.449
G1 F1200 X89.799 Y166.166 E203.60449
G0 F6000 X89.799 Y165.6
G1 F1200 X134.647 Y210.449 E205.71403
G0 F6000 X135.212 Y210.449
G1 F1200 X89.799 Y165.035 E207.85014
G0 F6000 X89.799 Y164.469
G1 F1200 X135.778 Y210.449 E210.01287
G0 F6000 X136.344 Y210.449
G1 F1200 X89.799 Y163.903 E212.20223
G0 F6000 X89.799 Y163.338
G1 F1200 X136.91 Y210.449 E214.41819
G0 F6000 X137.475 Y210.449
G1 F1200 X89.799 Y162.772 E216.66075
G0 F6000 X89.799 Y162.206
G1 F1200 X138.041 Y210.449 E218.92992
G0 F6000 X138.607 Y210.449
G1 F1200 X89.799 Y161.641 E221.2257
G0 F6000 X89.799 Y161.075
G1 F1200 X139.172 Y210.449 E223.54808
G0 F6000 X139.738 Y210.449
G1 F1200 X89.799 Y160.509 E225.89708
G0 F6000 X89.799 Y159.944
G1 F1200 X140.304 Y210.449 E228.27268
G0 F6000 X140.869 Y210.449
G1 F1200 X89.799 Y159.378 E230.67488
G0 F6000 X89.799 Y158.812
G1 F1200 X141.435 Y210.449 E233.10371
G0 F6000 X142.001 Y210.449
G1 F1200 X89.799 Y158.246 E235.55915
G0 F6000 X89.799 Y157.681
G1 F1200 X142.566 Y210.449 E238.04117
G0 F6000 X143.132 Y210.449
G1 F1200 X89.799 Y157.115 E240.54982
G0 F6000 X89.799 Y156.549
G1 F1200 X143.698 Y210.449 E243.08508
G0 F6000 X144.263 Y210.449
G1 F1200 X89.799 Y155.984 E245.64693
G0 F6000 X89.799 Y155.418
G1 F1200 X144.829 Y210.449 E248.23539
G0 F6000 X145.2 Y210.253
G1 F1200 X89.799 Y154.852 E250.84129
G0 F6000 X89.799 Y154.287
G1 F1200 X145.2 Y209.688 E253.44718
G0 F6000 X145.2 Y209.122
G1 F1200 X89.799 Y153.721 E256.05307
G0 F6000 X89.799 Y153.155
G1 F1200 X145.2 Y208.556 E258.65897
G0 F6000 X145.2 Y207.991
G1 F1200 X89.799 Y152.59 E261.26486
G0 F6000 X89.799 Y152.024
G1 F1200 X145.2 Y207.425 E263.87075
