;FLAVOR:Marlin
;TIME:24110
;Filament used: 16.1778m
;Layer height: 0.16
;MINX:22.095
;MINY:32
;MINZ:0.2
;MAXX:221.885
;MAXY:203
;MAXZ:10.76
;Generated with Cura_SteamEngine 4.10.0
M140 S50
M105
M190 S50
M104 S200
M105
M109 S200
M82 ;absolute extrusion mode
; Ender 3 Custom Start G-code
G92 E0 ; Reset Extruder
G28 ; Home all axes
G1 Z2.0 F3000 ; Move Z Axis up little to prevent scratching of Heat Bed
G1 X0.1 Y20 Z0.3 F5000.0 ; Move to start position
G1 X0.1 Y200.0 Z0.3 F1500.0 E15 ; Draw the first line
G1 X0.4 Y200.0 Z0.3 F5000.0 ; Move to side a little
G1 X0.4 Y20 Z0.3 F1500.0 E30 ; Draw the second line
G92 E0 ; Reset Extruder
G1 Z2.0 F3000 ; Move Z Axis up little to prevent scratching of Heat Bed
G1 X5 Y20 Z0.3 F5000.0 ; Move over to prevent blob squish
G92 E0
G92 E0
G1 F2700 E-5
;LAYER_COUNT:68
;LAYER:0
M107
G0 F6000 X115 Y109.401 Z0.2
;TYPE:SKIRT
G1 F2700 E0
G1 F1200 X106.901 Y117.5 E0.38095
G1 X115 Y125.599 E0.7619
G1 X115 Y109.401 E1.30065
G0 F6000 X115.4 Y108.437
G1 F1200 X106.337 Y117.5 E1.72695
G1 X115.4 Y126.563 E2.15324
G1 X115.4 Y108.437 E2.75612
G0 F6000 X115.8 Y107.471
G1 F1200 X105.771 Y117.5 E3.22785
G1 X115.831 Y127.56 E3.70104
G1 X115.8 Y127.125 E3.71555
G1 X115.8 Y107.471 E4.36924
G0 F6000 X116.2 Y106.505
G1 F1200 X105.205 Y117.5 E4.88641
G1 X116.387 Y128.682 E5.41238
G1 X116.381 Y128.661 E5.41311
G1 X116.251 Y127.946 E5.43728
G1 X116.2 Y127.125 E5.46464
G1 X116.2 Y106.505 E6.15046
G0 F6000 X116.6 Y105.539
G1 F1200 X104.639 Y117.5 E6.71307
G1 X117.533 Y130.394 E7.31956
G1 X117.203 Y129.791 E7.34243
G1 X116.936 Y129.14 E7.36583
G1 X116.746 Y128.462 E7.38925
G1 X116.633 Y127.767 E7.41267
G1 X116.6 Y127.125 E7.43405
G1 X116.6 Y105.539 E8.152
G0 F6000 X117 Y104.573
G1 F1200 X104.073 Y117.5 E8.76005
G1 X125.173 Y138.6 E9.75253
G1 X126.073 Y138.6 E9.78246
G1 X118.699 Y131.226 E10.12931
G1 X118.246 Y130.717 E10.15197
G1 X117.857 Y130.159 E10.1746
G1 X117.535 Y129.559 E10.19725
G1 X117.286 Y128.925 E10.2199
G1 X117.113 Y128.266 E10.24256
G1 X117.019 Y127.592 E10.2652
G1 X117 Y127.125 E10.28074
G1 X117 Y104.573 E11.03082
G0 F6000 X117.4 Y103.607
G1 F1200 X103.507 Y117.5 E11.68431
G1 X125.007 Y139 E12.6956
G1 X127.039 Y139 E12.76319
G1 X118.982 Y130.943 E13.14216
G1 X118.546 Y130.451 E13.16403
G1 X118.174 Y129.91 E13.18587
G1 X117.87 Y129.328 E13.20771
G1 X117.639 Y128.713 E13.22956
G1 X117.484 Y128.074 E13.25142
G1 X117.4 Y127.125 E13.28311
G1 X117.4 Y103.607 E14.06532
G0 F6000 X117.8 Y102.643
G1 F1200 X102.943 Y117.5 E14.76415
G1 X124.807 Y139.364 E15.79257
G1 X124.839 Y139.4 E15.79417
G1 X127.125 Y139.4 E15.8702
G1 X127.756 Y139.44 E15.89123
G1 X128.111 Y139.508 E15.90325
G1 X119.264 Y130.661 E16.31939
G1 X118.847 Y130.186 E16.34041
G1 X118.492 Y129.663 E16.36144
G1 X118.206 Y129.099 E16.38247
G1 X117.994 Y128.504 E16.40348
G1 X117.858 Y127.886 E16.42452
G1 X117.8 Y127.125 E16.44991
G1 X117.8 Y102.643 E17.26418
G0 F6000 X118.2 Y101.677
G1 F1200 X102.377 Y117.5 E18.00845
G1 X124.524 Y139.647 E19.05017
G1 X124.658 Y139.8 E19.05694
G1 X127.125 Y139.8 E19.13899
G1 X127.73 Y139.84 E19.15916
G1 X128.324 Y139.959 E19.17931
G1 X128.898 Y140.155 E19.19948
G1 X129.441 Y140.426 E19.21967
G1 X129.913 Y140.744 E19.2386
G1 X119.547 Y130.378 E19.72618
G1 X119.148 Y129.922 E19.74633
G1 X118.812 Y129.417 E19.76651
G1 X118.545 Y128.873 E19.78666
G1 X118.352 Y128.298 E19.80684
G1 X118.236 Y127.703 E19.827
G1 X118.2 Y127.125 E19.84626
G1 X118.2 Y101.677 E20.69266
G0 F6000 X118.6 Y100.711
G1 F1200 X101.811 Y117.5 E21.48237
G1 X124.241 Y139.93 E22.53741
G1 X124.476 Y140.2 E22.54931
G1 X127.125 Y140.2 E22.63742
G1 X127.703 Y140.24 E22.65669
G1 X128.27 Y140.359 E22.67596
G1 X128.815 Y140.555 E22.69522
G1 X129.328 Y140.824 E22.71449
G1 X129.799 Y141.161 E22.73375
G1 X130.095 Y141.43 E22.74705
G1 X142.756 Y154.091 E23.34259
G1 X143.291 Y153.556 E23.36775
G1 X119.83 Y130.095 E24.47128
G1 X119.45 Y129.658 E24.49055
G1 X119.133 Y129.173 E24.50982
G1 X118.886 Y128.649 E24.52908
G1 X118.714 Y128.096 E24.54835
G1 X118.619 Y127.524 E24.56763
G1 X118.6 Y127.125 E24.58092
G1 X118.6 Y100.711 E25.45945
G0 F6000 X119 Y99.745
G1 F1200 X101.245 Y117.5 E26.29459
G1 X123.958 Y140.213 E27.36294
G1 X124.292 Y140.6 E27.37994
G1 X127.125 Y140.6 E27.47417
G1 X127.675 Y140.64 E27.49251
G1 X128.213 Y140.759 E27.51084
G1 X128.728 Y140.955 E27.52916
G1 X129.209 Y141.223 E27.54748
G1 X129.812 Y141.713 E27.57332
G1 X142.756 Y154.657 E28.18217
G1 X143.857 Y153.556 E28.23396
G1 X120.113 Y129.812 E29.3508
G1 X119.753 Y129.395 E29.36912
G1 X119.456 Y128.931 E29.38745
G1 X119.23 Y128.428 E29.40579
G1 X119.079 Y127.898 E29.42412
G1 X119 Y127.125 E29.44996
G1 X119 Y99.745 E30.36062
G0 F6000 X119.4 Y98.779
G1 F1200 X100.679 Y117.5 E31.2412
G1 X123.675 Y140.496 E32.32286
G1 X124.014 Y140.892 E32.3402
G1 X124.081 Y141 E32.34443
G1 X127.125 Y141 E32.44567
G1 X127.645 Y141.04 E32.46302
G1 X128.152 Y141.159 E32.48034
G1 X128.635 Y141.354 E32.49766
G1 X129.083 Y141.62 E32.51499
G1 X129.529 Y141.996 E32.5344
G1 X142.756 Y155.223 E33.15655
G1 X144.423 Y153.556 E33.23496
G1 X120.396 Y129.529 E34.36512
G1 X120.057 Y129.133 E34.38246
G1 X119.782 Y128.691 E34.39977
G1 X119.578 Y128.211 E34.41712
G1 X119.45 Y127.706 E34.43445
G1 X119.4 Y127.125 E34.45384
G1 X119.4 Y98.779 E35.39663
G0 F6000 X119.8 Y97.813
G1 F1200 X100.113 Y117.5 E36.32265
G1 X123.392 Y140.779 E37.41762
G1 X123.709 Y141.152 E37.4339
G1 X123.858 Y141.4 E37.44353
G1 X127.125 Y141.4 E37.55219
G1 X127.613 Y141.44 E37.56847
G1 X128.088 Y141.559 E37.58476
G1 X128.537 Y141.753 E37.60103
G1 X128.949 Y142.018 E37.61732
G1 X129.246 Y142.279 E37.63047
G1 X142.756 Y155.789 E38.26594
G1 X144.989 Y153.556 E38.37097
G1 X120.679 Y129.246 E39.51444
G1 X120.362 Y128.873 E39.53072
G1 X120.11 Y128.453 E39.54701
G1 X119.93 Y127.998 E39.56329
G1 X119.826 Y127.52 E39.57956
G1 X119.8 Y127.125 E39.59272
G1 X119.8 Y97.813 E40.56765
G0 F6000 X120.2 Y96.847
G1 F1200 X99.547 Y117.5 E41.5391
G1 X123.109 Y141.062 E42.64738
G1 X123.402 Y141.411 E42.66254
G1 X123.626 Y141.8 E42.67747
G1 X127.125 Y141.8 E42.79385
G1 X127.579 Y141.84 E42.80901
G1 X128.019 Y141.958 E42.82416
G1 X128.431 Y142.152 E42.8393
G1 X128.963 Y142.562 E42.86164
G1 X142.756 Y156.355 E43.51042
G1 X145.555 Y153.556 E43.64208
G1 X120.962 Y128.963 E44.79886
G1 X120.669 Y128.614 E44.81402
G1 X120.442 Y128.219 E44.82917
G1 X120.287 Y127.791 E44.84431
G1 X120.2 Y127.125 E44.86665
G1 X120.2 Y96.847 E45.8737
G0 F6000 X120.6 Y95.883
G1 F1200 X98.983 Y117.5 E46.8905
G1 X122.827 Y141.344 E48.01204
G1 X123.093 Y141.668 E48.02599
G1 X123.294 Y142.035 E48.0399
G1 X123.346 Y142.2 E48.04566
G1 X127.125 Y142.2 E48.17135
G1 X127.542 Y142.24 E48.18528
G1 X127.944 Y142.358 E48.19922
G1 X128.316 Y142.551 E48.21315
G1 X128.681 Y142.844 E48.22872
G1 X142.756 Y156.919 E48.89077
G1 X146.119 Y153.556 E49.04895
G1 X121.244 Y128.681 E50.219
G1 X120.978 Y128.357 E50.23294
G1 X120.777 Y127.99 E50.24686
G1 X120.65 Y127.59 E50.26081
G1 X120.6 Y127.125 E50.27637
G1 X120.6 Y95.883 E51.31548
G0 F6000 X121 Y94.917
G1 F1200 X98.417 Y117.5 E52.37772
G1 X122.544 Y141.627 E53.51258
G1 X122.782 Y141.922 E53.52518
G1 X122.953 Y142.26 E53.53778
G1 X123.043 Y142.6 E53.54948
G1 X127.125 Y142.6 E53.68525
G1 X127.502 Y142.64 E53.69786
G1 X127.862 Y142.758 E53.71046
G1 X128.189 Y142.948 E53.72304
G1 X128.398 Y143.127 E53.73219
G1 X142.756 Y157.485 E54.40755
G1 X146.685 Y153.556 E54.59235
G1 X121.527 Y128.398 E55.77571
G1 X121.289 Y128.103 E55.78832
G1 X121.118 Y127.765 E55.80092
G1 X121.021 Y127.399 E55.81351
G1 X121 Y127.125 E55.82265
G1 X121 Y94.917 E56.89389
G0 F6000 X121.4 Y93.951
G1 F1200 X97.851 Y117.5 E58.00156
G1 X122.261 Y141.91 E59.14974
G1 X122.467 Y142.173 E59.16085
G1 X122.606 Y142.477 E59.17197
G1 X122.668 Y142.805 E59.18307
G1 X122.657 Y143 E59.18956
G1 X127.125 Y143 E59.33817
G1 X127.457 Y143.04 E59.34929
G1 X127.769 Y143.157 E59.36037
G1 X128.115 Y143.41 E59.37463
G1 X142.758 Y158.053 E60.06339
G1 X142.796 Y158.01 E60.0653
G1 X147.253 Y153.553 E60.27495
G1 X147.21 Y153.515 E60.27685
G1 X121.81 Y128.115 E61.47159
G1 X121.604 Y127.852 E61.4827
G1 X121.465 Y127.548 E61.49382
G1 X121.4 Y127.125 E61.50806
G1 X121.4 Y93.951 E62.61143
G0 F6000 X121.8 Y92.985
G1 F1200 X97.285 Y117.5 E63.76454
G1 X121.978 Y142.193 E64.92602
G1 X122.147 Y142.419 E64.93541
G1 X122.247 Y142.683 E64.9448
G1 X122.269 Y142.964 E64.95417
G1 X122.211 Y143.24 E64.96355
G1 X122.126 Y143.4 E64.96958
G1 X127.125 Y143.4 E65.13584
G1 X127.404 Y143.44 E65.14522
G1 X127.661 Y143.556 E65.1546
G1 X127.832 Y143.693 E65.16188
G1 X142.838 Y158.699 E65.86772
G1 X142.846 Y158.66 E65.86905
G1 X142.978 Y158.411 E65.87842
G1 X143.079 Y158.293 E65.88358
G1 X147.899 Y153.473 E66.1103
G1 X147.86 Y153.465 E66.11163
G1 X147.611 Y153.333 E66.121
G1 X147.493 Y153.232 E66.12617
G1 X122.093 Y127.832 E67.3209
G1 X121.924 Y127.606 E67.33029
G1 X121.824 Y127.342 E67.33968
G1 X121.8 Y127.125 E67.34694
G1 X121.8 Y92.985 E68.48244
G0 F6000 X121.695 Y92.524
G1 F1200 X96.719 Y117.5 E69.65724
G1 X121.695 Y142.476 E70.83203
G1 X121.819 Y142.655 E70.83927
G1 X121.87 Y142.868 E70.84656
G1 X121.842 Y143.084 E70.8538
G1 X121.739 Y143.276 E70.86105
G1 X121.573 Y143.418 E70.86832
G1 X121.271 Y143.5 E70.87872
G1 X76.37 Y143.5 E72.37214
G1 X76.155 Y143.46 E72.37941
G1 X75.946 Y143.324 E72.3877
G1 X50.546 Y117.924 E73.58244
G1 X50.422 Y117.745 E73.58968
G1 X50.371 Y117.532 E73.59697
G1 X50.399 Y117.316 E73.60421
G1 X50.546 Y117.076 E73.61357
G1 X75.946 Y91.676 E74.80831
G1 X76.125 Y91.552 E74.81556
G1 X76.37 Y91.5 E74.82389
G1 X121.271 Y91.5 E76.3173
G1 X121.486 Y91.54 E76.32457
G1 X121.672 Y91.653 E76.33181
G1 X121.805 Y91.826 E76.33907
G1 X121.867 Y92.035 E76.34632
G1 X121.851 Y92.253 E76.35359
G1 X121.695 Y92.524 E76.36399
G0 F6000 X121.412 Y92.241
G1 F1200 X96.153 Y117.5 E77.5521
G1 X121.412 Y142.759 E78.7402
G1 X121.469 Y142.87 E78.74435
G1 X121.448 Y142.993 E78.7485
G1 X121.358 Y143.08 E78.75267
G1 X121.271 Y143.1 E78.75563
G1 X76.37 Y143.1 E80.24905
G1 X76.229 Y143.041 E80.25413
G1 X50.829 Y117.641 E81.44887
G1 X50.772 Y117.53 E81.45302
G1 X50.829 Y117.359 E81.45902
G1 X76.229 Y91.959 E82.65375
G1 X76.37 Y91.9 E82.65884
G1 X121.271 Y91.9 E84.15225
G1 X121.39 Y91.939 E84.15642
G1 X121.462 Y92.041 E84.16057
G1 X121.46 Y92.166 E84.16473
G1 X121.412 Y92.241 E84.16769
G1 F2700 E79.16769
G0 F6000 X121.741 Y92.57
G0 X122.047 Y92.254
G0 X121.711 Y91.442
G0 X114.71 Y90.3
G1 F2700 E84.16769
G1 F1200 X121 Y90.3 E84.37689
G1 X121 Y84.01 E84.5861
G1 X114.71 Y90.3 E84.88196
G0 F6000 X113.744 Y90.7
G1 F1200 X121.271 Y90.7 E85.13231
G1 X121.4 Y90.716 E85.13664
G1 X121.4 Y83.044 E85.39181
G1 X113.744 Y90.7 E85.75192
G0 F6000 X112.778 Y91.1
G1 F1200 X121.271 Y91.1 E86.0344
G1 X121.55 Y91.14 E86.04377
G1 X121.8 Y91.253 E86.0529
G1 X121.8 Y82.223 E86.35324
G1 X121.824 Y82.054 E86.35892
G1 X112.778 Y91.1 E86.78441
G0 F6000 X111.864 Y91.2
G1 F1200 X66.963 Y91.2 E88.27783
G1 X66.748 Y91.16 E88.2851
G1 X66.562 Y91.047 E88.29234
G1 X66.429 Y90.874 E88.2996
G1 X66.367 Y90.665 E88.30685
G1 X66.383 Y90.447 E88.31412
G1 X66.539 Y90.176 E88.32452
G1 X91.515 Y65.2 E89.49931
G1 X66.539 Y40.224 E90.67411
G1 X66.415 Y40.045 E90.68135
G1 X66.364 Y39.832 E90.68863
G1 X66.392 Y39.616 E90.69588
G1 X66.495 Y39.424 E90.70312
G1 X66.661 Y39.282 E90.71039
G1 X66.963 Y39.2 E90.7208
G1 X111.864 Y39.2 E92.21421
G1 X112.079 Y39.24 E92.22148
G1 X112.288 Y39.376 E92.22978
G1 X137.688 Y64.776 E93.42452
G1 X137.812 Y64.955 E93.43176
G1 X137.863 Y65.168 E93.43904
G1 X137.835 Y65.384 E93.44629
G1 X137.688 Y65.624 E93.45565
G1 X112.288 Y91.024 E94.65039
G1 X112.109 Y91.148 E94.65763
G1 X111.864 Y91.2 E94.66596
G0 F6000 X111.864 Y90.8
G1 F1200 X66.963 Y90.8 E96.15937
G1 X66.844 Y90.761 E96.16354
G1 X66.772 Y90.659 E96.16769
G1 X66.774 Y90.534 E96.17185
G1 X66.822 Y90.459 E96.17481
G1 X92.081 Y65.2 E97.36292
G1 X66.822 Y39.941 E98.55102
G1 X66.765 Y39.83 E98.55517
G1 X66.786 Y39.707 E98.55932
G1 X66.876 Y39.62 E98.56349
G1 X66.963 Y39.6 E98.56645
G1 X111.864 Y39.6 E100.05987
G1 X112.005 Y39.659 E100.06495
G1 X137.405 Y65.059 E101.25969
G1 X137.462 Y65.17 E101.26384
G1 X137.405 Y65.341 E101.26984
G1 X112.005 Y90.741 E102.46457
G1 X111.864 Y90.8 E102.46966
G1 F2700 E97.46966
G0 F6000 X112.234 Y91.17
G0 X122.142 Y81.783
G0 X122.872 Y81.481
G0 X123.507 Y81.516
G1 F2700 E102.46966
G1 F1200 X148.2 Y106.209 E103.63114
G1 X172.893 Y81.516 E104.79262
G1 X173.119 Y81.347 E104.80201
G1 X173.383 Y81.247 E104.8114
G1 X173.664 Y81.225 E104.82077
G1 X173.94 Y81.283 E104.83015
G1 X174.189 Y81.415 E104.83953
G1 X174.391 Y81.612 E104.84891
G1 X174.531 Y81.857 E104.8583
G1 X174.6 Y82.223 E104.87068
G1 X174.6 Y127.125 E106.36413
G1 X174.56 Y127.404 E106.37351
G1 X174.444 Y127.661 E106.38288
G1 X174.307 Y127.832 E106.39017
G1 X169.539 Y132.6 E106.61444
G1 X214.087 Y132.6 E108.09612
G1 X214.366 Y132.64 E108.10549
G1 X214.623 Y132.756 E108.11487
G1 X214.838 Y132.939 E108.12426
G1 X214.992 Y133.175 E108.13363
G1 X215.075 Y133.445 E108.14303
G1 X215.079 Y133.727 E108.15241
G1 X215.004 Y133.999 E108.16179
G1 X214.794 Y134.307 E108.17419
G1 X190.101 Y159 E109.33567
G1 X214.794 Y183.693 E110.49716
G1 X214.963 Y183.919 E110.50654
G1 X215.063 Y184.183 E110.51593
G1 X215.085 Y184.464 E110.52531
G1 X215.027 Y184.74 E110.53469
G1 X214.895 Y184.989 E110.54406
G1 X214.698 Y185.191 E110.55345
G1 X214.453 Y185.331 E110.56283
G1 X214.087 Y185.4 E110.57522
G1 X169.186 Y185.4 E112.06863
G1 X168.907 Y185.36 E112.07801
G1 X168.65 Y185.244 E112.08738
G1 X168.479 Y185.107 E112.09467
G1 X153.473 Y170.101 E112.80051
G1 X153.465 Y170.14 E112.80183
G1 X153.333 Y170.389 E112.81121
G1 X153.232 Y170.507 E112.81637
G1 X127.832 Y195.907 E114.01111
G1 X127.606 Y196.076 E114.0205
G1 X127.342 Y196.176 E114.02989
G1 X127.125 Y196.2 E114.03715
G1 X82.224 Y196.2 E115.53056
G1 X81.945 Y196.16 E115.53993
G1 X81.688 Y196.044 E115.54931
G1 X81.473 Y195.861 E115.5587
G1 X81.319 Y195.625 E115.56808
G1 X81.236 Y195.355 E115.57747
G1 X81.232 Y195.073 E115.58685
G1 X81.25 Y195.007 E115.58913
G1 X81.12 Y195.092 E115.59429
G1 X80.85 Y195.175 E115.60369
G1 X80.568 Y195.179 E115.61307
G1 X80.296 Y195.104 E115.62245
G1 X79.988 Y194.894 E115.63485
G1 X55.295 Y170.201 E116.79633
G1 X30.602 Y194.894 E117.95782
G1 X30.376 Y195.063 E117.9672
G1 X30.112 Y195.163 E117.97659
G1 X29.831 Y195.185 E117.98597
G1 X29.555 Y195.127 E117.99535
G1 X29.306 Y194.995 E118.00472
G1 X29.104 Y194.798 E118.01411
G1 X28.964 Y194.553 E118.02349
G1 X28.895 Y194.187 E118.03588
G1 X28.895 Y149.286 E119.52929
G1 X28.935 Y149.007 E119.53867
G1 X29.051 Y148.75 E119.54805
G1 X29.188 Y148.579 E119.55533
G1 X54.588 Y123.179 E120.75007
G1 X54.814 Y123.01 E120.75946
G1 X54.997 Y122.941 E120.76596
G1 X50.263 Y118.207 E120.98863
G1 X50.094 Y117.981 E120.99802
G1 X49.994 Y117.717 E121.00741
G1 X49.972 Y117.436 E121.01678
G1 X50.03 Y117.16 E121.02617
G1 X50.162 Y116.911 E121.03554
G1 X50.263 Y116.793 E121.0407
G1 X75.456 Y91.6 E122.22571
G1 X66.963 Y91.6 E122.50818
G1 X66.684 Y91.56 E122.51756
G1 X66.427 Y91.444 E122.52694
G1 X66.212 Y91.261 E122.53633
G1 X66.058 Y91.025 E122.5457
G1 X65.975 Y90.755 E122.5551
G1 X65.971 Y90.473 E122.56448
G1 X66.046 Y90.201 E122.57386
G1 X66.256 Y89.893 E122.58626
G1 X90.949 Y65.2 E123.74774
G1 X66.256 Y40.507 E124.90922
G1 X66.087 Y40.281 E124.91861
G1 X65.987 Y40.017 E124.928
G1 X65.965 Y39.736 E124.93738
G1 X66.023 Y39.46 E124.94676
G1 X66.155 Y39.211 E124.95613
G1 X66.352 Y39.009 E124.96551
G1 X66.597 Y38.869 E124.9749
G1 X66.963 Y38.8 E124.98729
G1 X111.864 Y38.8 E126.4807
G1 X112.143 Y38.84 E126.49007
G1 X112.4 Y38.956 E126.49945
G1 X112.571 Y39.093 E126.50674
G1 X137.971 Y64.493 E127.70148
G1 X138.14 Y64.719 E127.71086
G1 X138.24 Y64.983 E127.72025
G1 X138.262 Y65.264 E127.72963
G1 X138.204 Y65.54 E127.73901
G1 X138.072 Y65.789 E127.74838
G1 X137.971 Y65.907 E127.75355
G1 X122.642 Y81.236 E128.47458
G1 X122.927 Y81.231 E128.48406
G1 X123.199 Y81.306 E128.49344
G1 X123.507 Y81.516 E128.50584
G0 F6000 X123.79 Y81.233
G1 F1200 X148.2 Y105.643 E129.65401
G1 X172.61 Y81.233 E130.80218
G1 X172.873 Y81.027 E130.8133
G1 X173.177 Y80.888 E130.82441
G1 X173.505 Y80.826 E130.83552
