;FLAVOR:Marlin
;TIME:14621
;Filament used: 9.7709m
;Layer height: 0.16
;MINX:30.3
;MINY:76.475
;MINZ:0.2
;MAXX:204.7
;MAXY:158.525
;MAXZ:10.36
;Generated with Cura_SteamEngine 4.10.0
M140 S50
M105
M190 S50
M104 S200
M105
M109 S200
M82 ;absolute extrusion mode
; Ender 3 Custom Start G-code
G92 E0 ; Reset Extruder
G28 ; Home all axes
G1 Z2.0 F3000 ; Move Z Axis up little to prevent scratching of Heat Bed
G1 X0.1 Y20 Z0.3 F5000.0 ; Move to start position
G1 X0.1 Y200.0 Z0.3 F1500.0 E15 ; Draw the first line
G1 X0.4 Y200.0 Z0.3 F5000.0 ; Move to side a little
G1 X0.4 Y20 Z0.3 F1500.0 E30 ; Draw the second line
G92 E0 ; Reset Extruder
G1 Z2.0 F3000 ; Move Z Axis up little to prevent scratching of Heat Bed
G1 X5 Y20 Z0.3 F5000.0 ; Move over to prevent blob squish
G92 E0
G92 E0
G1 F2700 E-5
;LAYER_COUNT:54
;LAYER:0
M107
G0 F6000 X36.539 Y77.572 Z0.2
;TYPE:SKIRT
G1 F2700 E0
G1 F1200 X37.401 Y77.202 E0.0312
G1 X38.291 Y76.906 E0.0624
G1 X39.203 Y76.688 E0.09358
G1 X40.13 Y76.547 E0.12477
G1 X41.001 Y76.488 E0.15381
G1 X41.322 Y76.479 E0.16449
G1 X41.63 Y76.475 E0.17473
G1 X192.993 Y76.475 E5.20909
G1 X193.849 Y76.486 E5.23756
G1 X194.785 Y76.54 E5.26874
G1 X195.713 Y76.672 E5.29992
G1 X196.627 Y76.884 E5.33112
G1 X197.519 Y77.173 E5.36231
G1 X198.384 Y77.536 E5.39351
G1 X199.214 Y77.972 E5.42469
G1 X200.005 Y78.477 E5.45591
G1 X200.749 Y79.048 E5.4871
G1 X201.442 Y79.68 E5.5183
G1 X202.079 Y80.368 E5.54948
G1 X202.654 Y81.109 E5.58068
G1 X203.165 Y81.895 E5.61186
G1 X203.607 Y82.723 E5.64308
G1 X203.976 Y83.585 E5.67426
G1 X204.271 Y84.475 E5.70545
G1 X204.489 Y85.387 E5.73664
G1 X204.629 Y86.315 E5.76785
G1 X204.687 Y87.176 E5.79655
G1 X204.696 Y87.496 E5.8072
G1 X204.7 Y87.805 E5.81748
G1 X204.7 Y106.561 E6.4413
G1 X204.696 Y107.668 E6.47812
G1 X204.7 Y108.215 E6.49632
G1 X204.7 Y127.061 E7.12314
G1 X204.696 Y128.168 E7.15996
G1 X204.7 Y128.715 E7.17815
G1 X204.699 Y146.925 E7.78382
G1 X204.69 Y147.652 E7.808
G1 X204.639 Y148.589 E7.83921
G1 X204.507 Y149.517 E7.87039
G1 X204.298 Y150.431 E7.90157
G1 X204.011 Y151.324 E7.93277
G1 X203.649 Y152.19 E7.96399
G1 X203.215 Y153.021 E7.99517
G1 X202.711 Y153.812 E8.02636
G1 X202.142 Y154.557 E8.05754
G1 X201.511 Y155.252 E8.08877
G1 X200.824 Y155.89 E8.11995
G1 X200.085 Y156.467 E8.15113
G1 X199.299 Y156.979 E8.18233
G1 X198.473 Y157.422 E8.21351
G1 X197.611 Y157.794 E8.24473
G1 X196.722 Y158.09 E8.2759
G1 X195.81 Y158.31 E8.3071
G1 X194.883 Y158.451 E8.33829
G1 X193.999 Y158.512 E8.36776
G1 X193.678 Y158.521 E8.37844
G1 X193.37 Y158.525 E8.38869
G1 X41.865 Y158.524 E13.42776
G1 X41.167 Y158.515 E13.45098
G1 X40.231 Y158.463 E13.48216
G1 X39.302 Y158.331 E13.51337
G1 X38.388 Y158.121 E13.54456
G1 X37.495 Y157.834 E13.57576
G1 X36.63 Y157.471 E13.60696
G1 X35.799 Y157.037 E13.63814
G1 X35.008 Y156.533 E13.66934
G1 X34.263 Y155.963 E13.70053
G1 X33.569 Y155.332 E13.73173
G1 X32.932 Y154.645 E13.76289
G1 X32.355 Y153.905 E13.7941
G1 X31.843 Y153.119 E13.8253
G1 X31.4 Y152.292 E13.85651
G1 X31.029 Y151.431 E13.88769
G1 X30.733 Y150.541 E13.91888
G1 X30.514 Y149.629 E13.95008
G1 X30.373 Y148.702 E13.98127
G1 X30.313 Y147.813 E14.0109
G1 X30.304 Y147.48 E14.02198
G1 X30.3 Y147.183 E14.03186
G1 X30.3 Y128.439 E14.65529
G1 X30.304 Y127.332 E14.69211
G1 X30.3 Y126.785 E14.7103
G1 X30.3 Y107.939 E15.33712
G1 X30.304 Y106.832 E15.37394
G1 X30.3 Y106.285 E15.39214
G1 X30.301 Y88 E16.0003
G1 X30.31 Y87.335 E16.02242
G1 X30.363 Y86.399 E16.0536
G1 X30.495 Y85.47 E16.08481
G1 X30.706 Y84.556 E16.11601
G1 X30.994 Y83.664 E16.14718
G1 X31.357 Y82.799 E16.17838
G1 X31.792 Y81.968 E16.20958
G1 X32.296 Y81.178 E16.24075
G1 X32.866 Y80.433 E16.27195
G1 X33.498 Y79.739 E16.30317
G1 X34.186 Y79.102 E16.33435
G1 X34.926 Y78.526 E16.36554
G1 X35.712 Y78.014 E16.39674
G1 X36.539 Y77.572 E16.42793
G0 F6000 X36.911 Y77.839
G1 F1200 X37.765 Y77.494 E16.45856
G1 X38.645 Y77.224 E16.48918
G1 X39.545 Y77.032 E16.51979
G1 X40.459 Y76.918 E16.55042
G1 X41.012 Y76.888 E16.56884
G1 X41.333 Y76.879 E16.57952
G1 X41.63 Y76.875 E16.5894
G1 X192.993 Y76.875 E21.62376
G1 X193.843 Y76.886 E21.65203
G1 X194.762 Y76.939 E21.68265
G1 X195.673 Y77.072 E21.71327
G1 X196.569 Y77.283 E21.74388
G1 X197.443 Y77.571 E21.77449
G1 X198.29 Y77.934 E21.80514
G1 X199.101 Y78.369 E21.83575
G1 X199.871 Y78.873 E21.86636
G1 X200.595 Y79.442 E21.89699
G1 X201.267 Y80.072 E21.92762
G1 X201.882 Y80.757 E21.95824
G1 X202.435 Y81.493 E21.98886
G1 X202.922 Y82.274 E22.01947
G1 X203.339 Y83.095 E22.0501
G1 X203.684 Y83.949 E22.08073
G1 X203.953 Y84.829 E22.11134
G1 X204.145 Y85.73 E22.14198
G1 X204.258 Y86.643 E22.17258
G1 X204.287 Y87.187 E22.1907
G1 X204.296 Y87.507 E22.20134
G1 X204.3 Y87.805 E22.21126
G1 X204.3 Y106.56 E22.83505
G1 X204.296 Y107.67 E22.87197
G1 X204.3 Y108.217 E22.89016
G1 X204.3 Y127.06 E23.51688
G1 X204.296 Y128.17 E23.5538
G1 X204.3 Y128.717 E23.572
G1 X204.299 Y146.92 E24.17743
G1 X204.29 Y147.647 E24.20161
G1 X204.239 Y148.566 E24.23223
G1 X204.108 Y149.478 E24.26287
G1 X203.898 Y150.374 E24.29348
G1 X203.612 Y151.249 E24.3241
G1 X203.251 Y152.096 E24.35472
G1 X202.817 Y152.908 E24.38534
G1 X202.315 Y153.68 E24.41597
G1 X201.747 Y154.405 E24.4466
G1 X201.119 Y155.078 E24.47722
G1 X200.435 Y155.694 E24.50784
G1 X199.7 Y156.248 E24.53845
G1 X198.92 Y156.737 E24.56907
G1 X198.1 Y157.156 E24.5997
G1 X197.247 Y157.502 E24.63031
G1 X196.367 Y157.773 E24.66094
G1 X195.467 Y157.966 E24.69155
G1 X194.553 Y158.081 E24.72219
G1 X193.988 Y158.112 E24.74101
G1 X193.667 Y158.121 E24.75169
G1 X193.37 Y158.125 E24.76157
G1 X41.87 Y158.124 E29.80048
G1 X41.172 Y158.115 E29.8237
G1 X40.253 Y158.063 E29.85431
G1 X39.342 Y157.932 E29.88493
G1 X38.446 Y157.722 E29.91553
G1 X37.571 Y157.435 E29.94616
G1 X36.724 Y157.073 E29.9768
G1 X35.912 Y156.639 E30.00742
G1 X35.141 Y156.137 E30.03802
G1 X34.416 Y155.569 E30.06865
G1 X33.743 Y154.94 E30.09929
G1 X33.128 Y154.256 E30.12989
G1 X32.574 Y153.521 E30.1605
G1 X32.086 Y152.74 E30.19113
G1 X31.667 Y151.92 E30.22176
G1 X31.321 Y151.067 E30.25237
G1 X31.051 Y150.187 E30.28299
G1 X30.858 Y149.286 E30.31364
G1 X30.744 Y148.373 E30.34424
G1 X30.713 Y147.802 E30.36326
G1 X30.704 Y147.469 E30.37434
G1 X30.7 Y147.183 E30.38385
G1 X30.7 Y128.44 E31.00725
G1 X30.704 Y127.33 E31.04416
G1 X30.7 Y126.783 E31.06236
G1 X30.7 Y107.94 E31.68908
G1 X30.704 Y106.83 E31.726
G1 X30.7 Y106.283 E31.74419
G1 X30.701 Y88.006 E32.35209
G1 X30.71 Y87.341 E32.37421
G1 X30.762 Y86.421 E32.40486
G1 X30.894 Y85.51 E32.43547
G1 X31.105 Y84.614 E32.46609
G1 X31.392 Y83.739 E32.49672
G1 X31.755 Y82.893 E32.52734
G1 X32.189 Y82.081 E32.55796
G1 X32.692 Y81.31 E32.58858
G1 X33.261 Y80.586 E32.6192
G1 X33.889 Y79.914 E32.64979
G1 X34.574 Y79.298 E32.68044
G1 X35.31 Y78.745 E32.71105
G1 X36.091 Y78.257 E32.74168
G1 X36.911 Y77.839 E32.7723
G0 F6000 X37.282 Y78.113
G1 F1200 X38.127 Y77.793 E32.80235
G1 X38.996 Y77.55 E32.83236
G1 X39.884 Y77.384 E32.86241
G1 X41.023 Y77.288 E32.90043
G1 X41.344 Y77.279 E32.91111
G1 X41.63 Y77.275 E32.92062
G1 X192.993 Y77.275 E37.95497
G1 X193.837 Y77.286 E37.98305
G1 X194.739 Y77.339 E38.0131
G1 X195.632 Y77.471 E38.04312
G1 X196.51 Y77.682 E38.07316
G1 X197.366 Y77.97 E38.1032
G1 X198.193 Y78.332 E38.13322
G1 X198.985 Y78.767 E38.16328
G1 X199.736 Y79.269 E38.19332
G1 X200.439 Y79.836 E38.22336
G1 X201.089 Y80.463 E38.2534
G1 X201.681 Y81.145 E38.28344
G1 X202.211 Y81.876 E38.31347
G1 X202.673 Y82.652 E38.3435
G1 X203.066 Y83.465 E38.37354
G1 X203.384 Y84.31 E38.40357
G1 X203.627 Y85.18 E38.43361
G1 X203.792 Y86.068 E38.46365
G1 X203.887 Y87.198 E38.50137
G1 X203.896 Y87.518 E38.51202
G1 X203.9 Y87.805 E38.52156
G1 X203.9 Y106.558 E39.14529
G1 X203.896 Y107.673 E39.18238
G1 X203.9 Y108.22 E39.20057
G1 X203.9 Y127.058 E39.82712
G1 X203.896 Y128.173 E39.86421
G1 X203.9 Y128.72 E39.8824
G1 X203.899 Y146.915 E40.48757
G1 X203.89 Y147.642 E40.51175
G1 X203.839 Y148.544 E40.5418
G1 X203.708 Y149.438 E40.57185
G1 X203.499 Y150.316 E40.60187
G1 X203.213 Y151.173 E40.63192
G1 X202.852 Y152.001 E40.66196
G1 X202.42 Y152.793 E40.69197
G1 X201.919 Y153.545 E40.72202
G1 X201.353 Y154.249 E40.75207
G1 X200.728 Y154.9 E40.78208
G1 X200.047 Y155.494 E40.81214
G1 X199.316 Y156.025 E40.84219
G1 X198.542 Y156.489 E40.87221
G1 X197.729 Y156.883 E40.90225
G1 X196.885 Y157.203 E40.93228
G1 X196.015 Y157.448 E40.96234
G1 X195.128 Y157.614 E40.99235
G1 X193.977 Y157.712 E41.03077
G1 X193.656 Y157.721 E41.04145
G1 X193.37 Y157.725 E41.05097
G1 X41.875 Y157.724 E46.08971
G1 X41.177 Y157.715 E46.11293
G1 X40.276 Y157.664 E46.14294
G1 X39.382 Y157.532 E46.173
G1 X38.504 Y157.323 E46.20302
G1 X37.647 Y157.036 E46.23308
G1 X36.82 Y156.675 E46.26309
G1 X36.027 Y156.242 E46.29314
G1 X35.276 Y155.741 E46.32317
G1 X34.572 Y155.175 E46.35321
G1 X33.921 Y154.549 E46.38325
G1 X33.328 Y153.868 E46.41329
G1 X32.798 Y153.137 E46.44332
G1 X32.334 Y152.362 E46.47336
G1 X31.94 Y151.549 E46.50341
G1 X31.62 Y150.705 E46.53343
G1 X31.376 Y149.835 E46.56348
G1 X31.21 Y148.947 E46.59353
G1 X31.113 Y147.792 E46.63208
G1 X31.104 Y147.459 E46.64316
G1 X31.1 Y147.183 E46.65234
G1 X31.1 Y128.442 E47.27567
G1 X31.104 Y127.327 E47.31275
G1 X31.1 Y126.78 E47.33095
G1 X31.1 Y107.942 E47.9575
G1 X31.104 Y106.827 E47.99459
G1 X31.1 Y106.28 E48.01278
G1 X31.101 Y88.011 E48.62041
G1 X31.11 Y87.346 E48.64253
G1 X31.162 Y86.444 E48.67258
G1 X31.294 Y85.551 E48.70261
G1 X31.504 Y84.673 E48.73263
G1 X31.791 Y83.816 E48.76269
G1 X32.153 Y82.989 E48.79272
G1 X32.586 Y82.197 E48.82274
G1 X33.088 Y81.446 E48.85278
G1 X33.655 Y80.742 E48.88285
G1 X34.281 Y80.092 E48.91286
G1 X34.962 Y79.499 E48.9429
G1 X35.694 Y78.969 E48.97296
G1 X36.469 Y78.506 E49.00298
G1 X37.282 Y78.113 E49.03302
G1 F2700 E44.03302
;MESH:Veneer3topsides.stl(1)
G0 F6000 X42.51 Y86.81
G0 X42.51 Y88.685
G0 X42.482 Y105.343
G0 X192.7 Y105.525
;TYPE:WALL-INNER
G1 F2700 E49.03302
G1 F1200 X42.3 Y105.525 E54.03534
G1 X42.3 Y88.475 E54.60243
G1 X192.7 Y88.475 E59.60475
G1 X192.7 Y105.525 E60.17184
G0 F6000 X193.1 Y105.925
G1 F1200 X41.9 Y105.925 E65.20077
G1 X41.9 Y88.075 E65.79446
G1 X193.1 Y88.075 E70.82339
G1 X193.1 Y105.925 E71.41709
G0 F6000 X193.5 Y106.325
;TYPE:WALL-OUTER
G1 F1200 X41.5 Y106.325 E76.47263
G1 X41.5 Y87.675 E77.09293
G1 X193.5 Y87.675 E82.14847
G1 X193.5 Y106.325 E82.76877
G0 F6000 X193.23 Y106.055
G0 X192.59 Y105.135
G0 X192.31 Y105.135
;TYPE:SKIN
G1 F1200 X42.69 Y105.135 E87.74515
G1 X42.69 Y88.865 E88.28629
G1 X192.31 Y88.865 E93.26268
G1 X192.31 Y105.135 E93.80382
G0 F6000 X192.59 Y105.135
G0 X192.59 Y89.195
G0 X192.149 Y89.195
G1 F1200 X191.979 Y89.024 E93.81184
G0 F6000 X191.413 Y89.024
G1 F1200 X192.149 Y89.76 E93.84646
G0 F6000 X192.149 Y90.326
G1 F1200 X190.848 Y89.024 E93.90768
G0 F6000 X190.282 Y89.024
G1 F1200 X192.149 Y90.892 E93.99552
G0 F6000 X192.149 Y91.457
G1 F1200 X189.716 Y89.024 E94.10996
G0 F6000 X189.151 Y89.024
G1 F1200 X192.149 Y92.023 E94.251
G0 F6000 X192.149 Y92.589
G1 F1200 X188.585 Y89.024 E94.41866
G0 F6000 X188.019 Y89.024
G1 F1200 X192.149 Y93.154 E94.61292
G0 F6000 X192.149 Y93.72
G1 F1200 X187.454 Y89.024 E94.83379
G0 F6000 X186.888 Y89.024
G1 F1200 X192.149 Y94.286 E95.08127
G0 F6000 X192.149 Y94.852
G1 F1200 X186.322 Y89.024 E95.35538
G0 F6000 X185.756 Y89.024
G1 F1200 X192.149 Y95.417 E95.65609
G0 F6000 X192.149 Y95.983
G1 F1200 X185.191 Y89.024 E95.98339
G0 F6000 X184.625 Y89.024
G1 F1200 X192.149 Y96.549 E96.33732
G0 F6000 X192.149 Y97.114
G1 F1200 X184.059 Y89.024 E96.71785
G0 F6000 X183.494 Y89.024
G1 F1200 X192.149 Y97.68 E97.12498
G0 F6000 X192.149 Y98.246
G1 F1200 X182.928 Y89.024 E97.55873
G0 F6000 X182.362 Y89.024
G1 F1200 X192.149 Y98.811 E98.01908
G0 F6000 X192.149 Y99.377
G1 F1200 X181.797 Y89.024 E98.50603
G0 F6000 X181.231 Y89.024
G1 F1200 X192.149 Y99.943 E99.0196
G0 F6000 X192.149 Y100.508
G1 F1200 X180.665 Y89.024 E99.55978
G0 F6000 X180.1 Y89.024
G1 F1200 X192.149 Y101.074 E100.12655
G0 F6000 X192.149 Y101.64
G1 F1200 X179.534 Y89.024 E100.71994
G0 F6000 X178.968 Y89.024
G1 F1200 X192.149 Y102.205 E101.33994
G0 F6000 X192.149 Y102.771
G1 F1200 X178.403 Y89.024 E101.98653
G0 F6000 X177.837 Y89.024
G1 F1200 X192.149 Y103.337 E102.65974
G0 F6000 X192.149 Y103.902
G1 F1200 X177.271 Y89.024 E103.35956
G0 F6000 X176.705 Y89.024
G1 F1200 X192.149 Y104.468 E104.086
G0 F6000 X192.09 Y104.974
G1 F1200 X176.14 Y89.024 E104.83624
G0 F6000 X175.574 Y89.024
G1 F1200 X191.524 Y104.974 E105.58648
G0 F6000 X190.959 Y104.974
G1 F1200 X175.008 Y89.024 E106.33674
G0 F6000 X174.443 Y89.024
G1 F1200 X190.393 Y104.974 E107.08698
G0 F6000 X189.827 Y104.974
G1 F1200 X173.877 Y89.024 E107.83722
G0 F6000 X173.311 Y89.024
G1 F1200 X189.262 Y104.974 E108.58748
G0 F6000 X188.696 Y104.974
G1 F1200 X172.746 Y89.024 E109.33772
G0 F6000 X172.18 Y89.024
G1 F1200 X188.13 Y104.974 E110.08796
G0 F6000 X187.565 Y104.974
G1 F1200 X171.614 Y89.024 E110.83822
G0 F6000 X171.049 Y89.024
G1 F1200 X186.999 Y104.974 E111.58846
G0 F6000 X186.433 Y104.974
G1 F1200 X170.483 Y89.024 E112.3387
G0 F6000 X169.917 Y89.024
G1 F1200 X185.867 Y104.974 E113.08894
G0 F6000 X185.302 Y104.974
G1 F1200 X169.352 Y89.024 E113.83918
G0 F6000 X168.786 Y89.024
G1 F1200 X184.736 Y104.974 E114.58942
G0 F6000 X184.17 Y104.974
G1 F1200 X168.22 Y89.024 E115.33966
G0 F6000 X167.655 Y89.024
G1 F1200 X183.605 Y104.974 E116.08989
G0 F6000 X183.039 Y104.974
G1 F1200 X167.089 Y89.024 E116.84013
G0 F6000 X166.523 Y89.024
G1 F1200 X182.473 Y104.974 E117.59037
G0 F6000 X181.908 Y104.974
G1 F1200 X165.957 Y89.024 E118.34064
G0 F6000 X165.392 Y89.024
G1 F1200 X181.342 Y104.974 E119.09087
G0 F6000 X180.776 Y104.974
G1 F1200 X164.826 Y89.024 E119.84111
G0 F6000 X164.26 Y89.024
G1 F1200 X180.211 Y104.974 E120.59138
G0 F6000 X179.645 Y104.974
G1 F1200 X163.695 Y89.024 E121.34162
G0 F6000 X163.129 Y89.024
G1 F1200 X179.079 Y104.974 E122.09185
G0 F6000 X178.514 Y104.974
G1 F1200 X162.563 Y89.024 E122.84212
G0 F6000 X161.998 Y89.024
G1 F1200 X177.948 Y104.974 E123.59236
G0 F6000 X177.382 Y104.974
G1 F1200 X161.432 Y89.024 E124.3426
G0 F6000 X160.866 Y89.024
G1 F1200 X176.817 Y104.974 E125.09286
G0 F6000 X176.251 Y104.974
G1 F1200 X160.301 Y89.024 E125.8431
G0 F6000 X159.735 Y89.024
G1 F1200 X175.685 Y104.974 E126.59334
G0 F6000 X175.119 Y104.974
G1 F1200 X159.169 Y89.024 E127.34358
G0 F6000 X158.604 Y89.024
G1 F1200 X174.554 Y104.974 E128.09381
G0 F6000 X173.988 Y104.974
G1 F1200 X158.038 Y89.024 E128.84405
G0 F6000 X157.472 Y89.024
G1 F1200 X173.422 Y104.974 E129.59429
G0 F6000 X172.857 Y104.974
G1 F1200 X156.906 Y89.024 E130.34455
G0 F6000 X156.341 Y89.024
G1 F1200 X172.291 Y104.974 E131.09479
G0 F6000 X171.725 Y104.974
G1 F1200 X155.775 Y89.024 E131.84503
G0 F6000 X155.209 Y89.024
G1 F1200 X171.16 Y104.974 E132.5953
G0 F6000 X170.594 Y104.974
G1 F1200 X154.644 Y89.024 E133.34553
G0 F6000 X154.078 Y89.024
G1 F1200 X170.028 Y104.974 E134.09577
G0 F6000 X169.463 Y104.974
G1 F1200 X153.512 Y89.024 E134.84604
G0 F6000 X152.947 Y89.024
G1 F1200 X168.897 Y104.974 E135.59628
G0 F6000 X168.331 Y104.974
G1 F1200 X152.381 Y89.024 E136.34651
G0 F6000 X151.815 Y89.024
G1 F1200 X167.766 Y104.974 E137.09678
G0 F6000 X167.2 Y104.974
G1 F1200 X151.25 Y89.024 E137.84702
G0 F6000 X150.684 Y89.024
G1 F1200 X166.634 Y104.974 E138.59726
G0 F6000 X166.068 Y104.974
G1 F1200 X150.118 Y89.024 E139.34749
G0 F6000 X149.553 Y89.024
G1 F1200 X165.503 Y104.974 E140.09773
G0 F6000 X164.937 Y104.974
G1 F1200 X148.987 Y89.024 E140.84797
G0 F6000 X148.421 Y89.024
G1 F1200 X164.371 Y104.974 E141.59821
G0 F6000 X163.806 Y104.974
G1 F1200 X147.856 Y89.024 E142.34845
G0 F6000 X147.29 Y89.024
G1 F1200 X163.24 Y104.974 E143.09869
G0 F6000 X162.674 Y104.974
G1 F1200 X146.724 Y89.024 E143.84893
G0 F6000 X146.158 Y89.024
G1 F1200 X162.109 Y104.974 E144.59919
G0 F6000 X161.543 Y104.974
G1 F1200 X145.593 Y89.024 E145.34943
G0 F6000 X145.027 Y89.024
G1 F1200 X160.977 Y104.974 E146.09967
G0 F6000 X160.412 Y104.974
G1 F1200 X144.461 Y89.024 E146.84993
G0 F6000 X143.896 Y89.024
G1 F1200 X159.846 Y104.974 E147.60017
G0 F6000 X159.28 Y104.974
G1 F1200 X143.33 Y89.024 E148.35041
G0 F6000 X142.764 Y89.024
