;FLAVOR:Marlin
;TIME:2140
;Filament used: 1.99339m
;Layer height: 0.28
;MINX:42.32
;MINY:61.77
;MINZ:0.28
;MAXX:192.68
;MAXY:173.23
;MAXZ:0.56
;Generated with Cura_SteamEngine 4.10.0
M140 S50
M105
M190 S50
M104 S200
M105
M109 S200
M82 ;absolute extrusion mode
; Ender 3 Custom Start G-code
G92 E0 ; Reset Extruder
G28 ; Home all axes
G1 Z2.0 F3000 ; Move Z Axis up little to prevent scratching of Heat Bed
G1 X0.1 Y20 Z0.3 F5000.0 ; Move to start position
G1 X0.1 Y200.0 Z0.3 F1500.0 E15 ; Draw the first line
G1 X0.4 Y200.0 Z0.3 F5000.0 ; Move to side a little
G1 X0.4 Y20 Z0.3 F1500.0 E30 ; Draw the second line
G92 E0 ; Reset Extruder
G1 Z2.0 F3000 ; Move Z Axis up little to prevent scratching of Heat Bed
G1 X5 Y20 Z0.3 F5000.0 ; Move over to prevent blob squish
G92 E0
G92 E0
G1 F2700 E-5
;LAYER_COUNT:2
;LAYER:0
M107
G0 F6000 X46.96 Y63.811 Z0.28
;TYPE:SKIRT
G1 F2700 E0
G1 F1200 X47.747 Y63.301 E0.04367
G1 X48.575 Y62.86 E0.08735
G1 X49.437 Y62.491 E0.13101
G1 X50.328 Y62.197 E0.1747
G1 X51.24 Y61.979 E0.21836
G1 X52.167 Y61.841 E0.262
G1 X53.021 Y61.783 E0.30186
G1 X53.341 Y61.774 E0.31677
G1 X53.65 Y61.77 E0.33116
G1 X90.869 Y61.771 E2.06423
G1 X91.572 Y61.781 E2.09697
G1 X92.509 Y61.834 E2.14067
G1 X93.437 Y61.967 E2.18432
G1 X94.351 Y62.179 E2.22801
G1 X95.243 Y62.467 E2.27166
G1 X96.108 Y62.831 E2.31536
G1 X96.938 Y63.267 E2.35901
G1 X97.729 Y63.772 E2.40271
G1 X98.643 Y64.494 E2.45695
G1 X98.74 Y64.572 E2.46274
G1 X100.679 Y66.23 E2.58154
G1 X102.622 Y67.798 E2.6978
G1 X104.642 Y69.335 E2.81599
G1 X106.691 Y70.807 E2.93347
G1 X108.77 Y72.211 E3.05028
G1 X110.871 Y73.546 E3.16619
G1 X113.077 Y74.861 E3.28578
G1 X115.249 Y76.074 E3.40162
G1 X117.476 Y77.237 E3.51861
G1 X119.773 Y78.354 E3.63754
G1 X122.018 Y79.369 E3.75227
G1 X124.387 Y80.362 E3.87188
G1 X126.718 Y81.258 E3.98816
G1 X129.094 Y82.098 E4.10551
G1 X131.482 Y82.866 E4.22231
G1 X133.89 Y83.567 E4.33909
G1 X136.345 Y84.206 E4.45722
G1 X138.82 Y84.778 E4.5755
G1 X141.253 Y85.265 E4.69104
G1 X143.728 Y85.69 E4.80797
G1 X146.245 Y86.048 E4.92635
G1 X148.725 Y86.331 E5.04258
G1 X151.234 Y86.545 E5.15984
G1 X153.765 Y86.689 E5.27788
G1 X156.27 Y86.761 E5.39457
G1 X157.624 Y86.77 E5.45762
G1 X181.146 Y86.771 E6.5529
G1 X181.844 Y86.782 E6.58541
G1 X182.781 Y86.837 E6.62912
G1 X183.709 Y86.971 E6.67277
G1 X184.622 Y87.184 E6.71643
G1 X185.514 Y87.474 E6.7601
G1 X186.378 Y87.839 E6.80378
G1 X187.208 Y88.276 E6.84746
G1 X187.997 Y88.782 E6.8911
G1 X188.741 Y89.354 E6.9348
G1 X189.433 Y89.987 E6.97847
G1 X190.069 Y90.676 E7.02213
G1 X190.644 Y91.418 E7.06584
G1 X191.153 Y92.205 E7.10949
G1 X191.594 Y93.033 E7.15317
G1 X191.962 Y93.895 E7.19681
G1 X192.255 Y94.786 E7.24049
G1 X192.472 Y95.699 E7.28418
G1 X192.61 Y96.626 E7.32782
G1 X192.667 Y97.471 E7.36726
G1 X192.676 Y97.79 E7.38212
G1 X192.68 Y98.1 E7.39656
G1 X192.679 Y116.251 E8.24174
G1 X192.65 Y118.228 E8.33381
G1 X192.641 Y118.555 E8.34904
G1 X192.638 Y121.08 E8.46662
G1 X192.68 Y123.091 E8.56028
G1 X192.679 Y161.63 E10.35482
G1 X192.67 Y162.357 E10.38867
G1 X192.619 Y163.294 E10.43237
G1 X192.487 Y164.222 E10.47601
G1 X192.278 Y165.136 E10.51967
G1 X191.991 Y166.029 E10.56335
G1 X191.629 Y166.895 E10.60705
G1 X191.195 Y167.726 E10.65071
G1 X190.691 Y168.517 E10.69438
G1 X190.122 Y169.262 E10.73803
G1 X189.491 Y169.957 E10.78174
G1 X188.804 Y170.595 E10.8254
G1 X188.065 Y171.172 E10.86906
G1 X187.279 Y171.684 E10.91274
G1 X186.453 Y172.127 E10.95638
G1 X185.591 Y172.499 E11.0001
G1 X184.702 Y172.795 E11.04373
G1 X183.79 Y173.015 E11.08741
G1 X182.863 Y173.156 E11.13107
G1 X181.979 Y173.217 E11.17233
G1 X181.658 Y173.226 E11.18729
G1 X181.35 Y173.23 E11.20163
G1 X53.885 Y173.229 E17.13693
G1 X53.187 Y173.22 E17.16944
G1 X52.251 Y173.168 E17.21309
G1 X51.322 Y173.036 E17.25678
G1 X50.408 Y172.826 E17.30045
G1 X49.515 Y172.539 E17.34413
G1 X48.65 Y172.176 E17.38781
G1 X47.819 Y171.742 E17.43146
G1 X47.028 Y171.238 E17.47514
G1 X46.283 Y170.668 E17.51881
G1 X45.589 Y170.037 E17.56249
G1 X44.952 Y169.35 E17.60612
G1 X44.375 Y168.61 E17.64981
G1 X43.863 Y167.824 E17.69349
G1 X43.42 Y166.997 E17.73717
G1 X43.049 Y166.136 E17.78083
G1 X42.753 Y165.246 E17.8245
G1 X42.534 Y164.334 E17.86818
G1 X42.393 Y163.407 E17.91184
G1 X42.333 Y162.518 E17.95333
G1 X42.324 Y162.185 E17.96884
G1 X42.32 Y161.888 E17.98267
G1 X42.321 Y123.319 E19.77861
G1 X42.35 Y121.362 E19.86974
G1 X42.359 Y121.035 E19.88497
G1 X42.362 Y118.51 E20.00255
G1 X42.32 Y116.499 E20.09621
G1 X42.321 Y98.283 E20.94442
G1 X42.352 Y96.272 E21.03807
G1 X42.359 Y96.034 E21.04916
G1 X42.362 Y93.465 E21.16879
G1 X42.332 Y92.061 E21.23418
G1 X42.325 Y91.824 E21.24522
G1 X42.32 Y91.499 E21.26035
G1 X42.321 Y73.279 E22.10875
G1 X42.331 Y72.614 E22.13972
G1 X42.385 Y71.677 E22.18342
G1 X42.519 Y70.749 E22.22708
G1 X42.731 Y69.835 E22.27077
G1 X43.02 Y68.943 E22.31443
G1 X43.385 Y68.079 E22.35811
G1 X43.821 Y67.249 E22.40176
G1 X44.327 Y66.459 E22.44545
G1 X44.898 Y65.715 E22.48912
G1 X45.53 Y65.022 E22.53279
G1 X46.219 Y64.386 E22.57645
G1 X46.96 Y63.811 E22.62013
G0 F6000 X47.344 Y64.031
G1 F1200 X48.126 Y63.544 E22.66302
G1 X48.947 Y63.128 E22.70588
G1 X49.801 Y62.784 E22.74875
G1 X50.681 Y62.515 E22.7916
G1 X51.582 Y62.324 E22.83449
G1 X52.496 Y62.212 E22.87736
G1 X53.032 Y62.183 E22.90236
G1 X53.352 Y62.174 E22.91727
G1 X53.65 Y62.17 E22.93114
G1 X90.713 Y62.17 E24.65695
G1 X91.567 Y62.181 E24.69672
G1 X92.486 Y62.234 E24.73958
G1 X93.397 Y62.367 E24.78245
G1 X94.293 Y62.578 E24.82532
G1 X95.167 Y62.866 E24.86817
G1 X96.014 Y63.229 E24.91108
G1 X96.825 Y63.664 E24.95393
G1 X97.596 Y64.168 E24.99682
G1 X98.383 Y64.797 E25.04373
G1 X100.414 Y66.53 E25.16805
G1 X102.397 Y68.129 E25.28667
G1 X104.389 Y69.646 E25.40326
G1 X106.456 Y71.13 E25.52174
G1 X108.562 Y72.553 E25.6401
G1 X110.673 Y73.894 E25.75655
G1 X112.856 Y75.196 E25.87491
G1 X115.048 Y76.419 E25.99179
G1 X117.322 Y77.607 E26.11125
G1 X119.569 Y78.7 E26.2276
G1 X121.891 Y79.75 E26.34627
G1 X124.255 Y80.741 E26.46563
G1 X126.545 Y81.621 E26.57986
G1 X128.975 Y82.48 E26.69987
G1 X131.354 Y83.245 E26.81623
G1 X133.792 Y83.954 E26.93446
G1 X136.259 Y84.597 E27.05317
G1 X138.717 Y85.165 E27.17064
G1 X141.185 Y85.659 E27.28784
G1 X143.67 Y86.085 E27.40524
G1 X146.18 Y86.443 E27.5233
G1 X148.682 Y86.728 E27.64056
G1 X151.214 Y86.944 E27.75889
G1 X153.73 Y87.087 E27.87623
G1 X156.302 Y87.161 E27.99605
G1 X157.622 Y87.17 E28.05751
G1 X181.14 Y87.171 E29.15261
G1 X181.838 Y87.182 E29.18511
G1 X182.757 Y87.237 E29.22798
G1 X183.668 Y87.371 E29.27086
G1 X184.564 Y87.583 E29.31373
G1 X185.438 Y87.873 E29.35661
G1 X186.283 Y88.237 E29.39945
G1 X187.094 Y88.673 E29.44233
G1 X187.864 Y89.178 E29.48521
G1 X188.587 Y89.748 E29.52808
G1 X189.258 Y90.378 E29.57093
G1 X189.872 Y91.065 E29.61384
G1 X190.423 Y91.802 E29.65669
G1 X190.909 Y92.584 E29.69956
G1 X191.325 Y93.405 E29.74242
G1 X191.669 Y94.259 E29.78529
G1 X191.937 Y95.14 E29.82817
G1 X192.127 Y96.041 E29.87104
G1 X192.239 Y96.954 E29.91388
G1 X192.267 Y97.482 E29.9385
G1 X192.276 Y97.801 E29.95336
G1 X192.28 Y98.1 E29.96728
G1 X192.279 Y116.245 E30.81219
G1 X192.25 Y118.217 E30.90402
G1 X192.241 Y118.544 E30.91925
G1 X192.238 Y121.088 E31.03771
G1 X192.28 Y123.091 E31.131
G1 X192.279 Y161.625 E32.92531
G1 X192.27 Y162.352 E32.95916
G1 X192.219 Y163.271 E33.00202
G1 X192.088 Y164.183 E33.04492
G1 X191.878 Y165.079 E33.08777
G1 X191.592 Y165.954 E33.13064
G1 X191.231 Y166.801 E33.17351
G1 X190.797 Y167.613 E33.21638
G1 X190.295 Y168.385 E33.25926
G1 X189.727 Y169.11 E33.30215
G1 X189.099 Y169.783 E33.34501
G1 X188.415 Y170.399 E33.38787
G1 X187.68 Y170.953 E33.43073
G1 X186.9 Y171.442 E33.4736
G1 X186.08 Y171.861 E33.51648
G1 X185.227 Y172.207 E33.55934
G1 X184.347 Y172.478 E33.60221
G1 X183.447 Y172.671 E33.64507
G1 X182.533 Y172.786 E33.68797
G1 X181.968 Y172.817 E33.71432
G1 X181.647 Y172.826 E33.72927
G1 X181.35 Y172.83 E33.7431
G1 X53.89 Y172.829 E39.67817
G1 X53.192 Y172.82 E39.71068
G1 X52.273 Y172.768 E39.75354
G1 X51.362 Y172.637 E39.7964
G1 X50.466 Y172.427 E39.83925
G1 X49.591 Y172.14 E39.88213
G1 X48.744 Y171.778 E39.92502
G1 X47.932 Y171.344 E39.96789
G1 X47.161 Y170.842 E40.01073
G1 X46.436 Y170.274 E40.05362
G1 X45.763 Y169.645 E40.09651
G1 X45.148 Y168.961 E40.13934
G1 X44.594 Y168.226 E40.1822
G1 X44.106 Y167.445 E40.22508
G1 X43.687 Y166.625 E40.26796
G1 X43.341 Y165.772 E40.31082
G1 X43.071 Y164.892 E40.35368
G1 X42.878 Y163.991 E40.39659
G1 X42.764 Y163.078 E40.43943
G1 X42.733 Y162.507 E40.46606
G1 X42.724 Y162.174 E40.48157
G1 X42.72 Y161.888 E40.49489
G1 X42.721 Y123.324 E42.29059
G1 X42.75 Y121.373 E42.38145
G1 X42.759 Y121.046 E42.39668
G1 X42.762 Y118.502 E42.51514
G1 X42.72 Y116.499 E42.60843
G1 X42.721 Y98.288 E43.45641
G1 X42.748 Y96.448 E43.5421
G1 X42.759 Y96.041 E43.56105
G1 X42.762 Y93.502 E43.67928
G1 X42.72 Y91.499 E43.77257
G1 X42.721 Y73.285 E44.62069
G1 X42.731 Y72.62 E44.65166
G1 X42.785 Y71.701 E44.69452
G1 X42.918 Y70.79 E44.73739
G1 X43.13 Y69.894 E44.78027
G1 X43.419 Y69.019 E44.82318
G1 X43.783 Y68.174 E44.86602
G1 X44.218 Y67.363 E44.90887
G1 X44.723 Y66.592 E44.95179
G1 X45.292 Y65.869 E44.99463
G1 X45.922 Y65.197 E45.03752
G1 X46.608 Y64.583 E45.08039
G1 X47.344 Y64.031 E45.12323
G0 F6000 X47.727 Y64.255
G1 F1200 X48.503 Y63.793 E45.16528
G1 X49.317 Y63.402 E45.20733
G1 X50.162 Y63.083 E45.24939
G1 X51.032 Y62.841 E45.29144
G1 X51.92 Y62.677 E45.33349
G1 X53.043 Y62.583 E45.38596
G1 X53.363 Y62.574 E45.40087
G1 X53.65 Y62.57 E45.41423
G1 X90.713 Y62.57 E47.14004
G1 X91.561 Y62.581 E47.17953
G1 X92.463 Y62.634 E47.2216
G1 X93.356 Y62.766 E47.26364
G1 X94.234 Y62.977 E47.30568
G1 X95.09 Y63.265 E47.34774
G1 X95.917 Y63.627 E47.38978
G1 X96.709 Y64.061 E47.43183
G1 X97.46 Y64.563 E47.47389
G1 X98.193 Y65.156 E47.51779
G1 X100.169 Y66.847 E47.6389
G1 X102.144 Y68.44 E47.75705
G1 X104.158 Y69.974 E47.87493
G1 X106.228 Y71.459 E47.99356
G1 X108.32 Y72.873 E48.11113
G1 X110.485 Y74.248 E48.23056
G1 X112.636 Y75.531 E48.34718
G1 X114.889 Y76.789 E48.46734
G1 X117.126 Y77.957 E48.58485
G1 X119.408 Y79.067 E48.70301
G1 X121.72 Y80.112 E48.82115
G1 X124.082 Y81.102 E48.94041
G1 X126.429 Y82.004 E49.05749
G1 X128.845 Y82.859 E49.17682
G1 X131.235 Y83.627 E49.29371
G1 X133.684 Y84.34 E49.41249
G1 X136.174 Y84.988 E49.53229
G1 X138.62 Y85.553 E49.64919
G1 X141.104 Y86.05 E49.76714
G1 X143.623 Y86.483 E49.88616
G1 X146.11 Y86.837 E50.00313
G1 X148.674 Y87.129 E50.12329
G1 X151.193 Y87.344 E50.24102
G1 X153.695 Y87.486 E50.35771
G1 X156.288 Y87.561 E50.4785
G1 X157.619 Y87.57 E50.54048
G1 X181.134 Y87.571 E51.63543
G1 X181.832 Y87.582 E51.66794
G1 X182.733 Y87.636 E51.70997
G1 X183.626 Y87.77 E51.75202
G1 X184.504 Y87.982 E51.79408
G1 X185.36 Y88.271 E51.83614
G1 X186.186 Y88.635 E51.87818
G1 X186.978 Y89.07 E51.92025
G1 X187.727 Y89.574 E51.96229
G1 X188.43 Y90.142 E52.00437
G1 X189.079 Y90.769 E52.04639
G1 X189.67 Y91.452 E52.08845
G1 X190.199 Y92.184 E52.1305
G1 X190.66 Y92.961 E52.17257
G1 X191.051 Y93.775 E52.21462
G1 X191.369 Y94.62 E52.25666
G1 X191.61 Y95.49 E52.2987
G1 X191.774 Y96.378 E52.34075
G1 X191.867 Y97.493 E52.39285
G1 X191.876 Y97.812 E52.40771
G1 X191.88 Y98.1 E52.42112
G1 X191.879 Y116.239 E53.26575
G1 X191.85 Y118.206 E53.35735
G1 X191.841 Y118.532 E53.37253
G1 X191.838 Y121.096 E53.49192
G1 X191.869 Y122.553 E53.55978
G1 X191.876 Y122.789 E53.57078
G1 X191.88 Y123.091 E53.58484
G1 X191.879 Y161.62 E55.37891
G1 X191.87 Y162.347 E55.41277
G1 X191.819 Y163.249 E55.45484
G1 X191.688 Y164.143 E55.49691
G1 X191.479 Y165.021 E55.53893
G1 X191.193 Y165.878 E55.581
G1 X190.832 Y166.706 E55.62306
G1 X190.4 Y167.498 E55.66507
G1 X189.899 Y168.25 E55.70715
G1 X189.333 Y168.954 E55.74921
G1 X188.708 Y169.605 E55.79123
G1 X188.027 Y170.199 E55.83331
G1 X187.296 Y170.73 E55.87538
G1 X186.522 Y171.194 E55.9174
G1 X185.709 Y171.588 E55.95947
G1 X184.865 Y171.908 E56.0015
G1 X183.995 Y172.153 E56.04359
G1 X183.108 Y172.319 E56.08561
G1 X181.957 Y172.417 E56.13939
G1 X181.636 Y172.426 E56.15435
G1 X181.35 Y172.43 E56.16767
G1 X53.895 Y172.429 E62.1025
G1 X53.197 Y172.42 E62.13501
G1 X52.296 Y172.369 E62.17703
G1 X51.402 Y172.237 E62.21911
G1 X50.524 Y172.028 E62.26114
G1 X49.667 Y171.741 E62.30322
G1 X48.84 Y171.38 E62.34524
G1 X48.047 Y170.947 E62.38731
G1 X47.296 Y170.446 E62.42935
G1 X46.592 Y169.88 E62.47141
G1 X45.941 Y169.254 E62.51346
G1 X45.348 Y168.573 E62.55551
G1 X44.818 Y167.842 E62.59755
G1 X44.354 Y167.067 E62.63961
G1 X43.96 Y166.254 E62.68168
G1 X43.64 Y165.41 E62.72371
G1 X43.396 Y164.54 E62.76579
G1 X43.23 Y163.652 E62.80785
G1 X43.133 Y162.497 E62.86182
G1 X43.124 Y162.164 E62.87733
G1 X43.12 Y161.888 E62.89019
G1 X43.121 Y123.33 E64.68561
G1 X43.15 Y121.384 E64.77623
G1 X43.159 Y121.058 E64.79142
G1 X43.162 Y118.494 E64.91081
G1 X43.131 Y117.037 E64.97867
G1 X43.124 Y116.801 E64.98966
G1 X43.12 Y116.499 E65.00373
G1 X43.121 Y98.294 E65.85143
G1 X43.148 Y96.454 E65.93711
G1 X43.159 Y96.06 E65.95547
G1 X43.162 Y93.494 E66.07495
G1 X43.129 Y91.954 E66.14668
G1 X43.124 Y91.8 E66.15385
G1 X43.12 Y91.499 E66.16787
G1 X43.121 Y73.291 E67.01571
G1 X43.131 Y72.626 E67.04668
G1 X43.185 Y71.724 E67.08875
G1 X43.318 Y70.831 E67.13079
G1 X43.529 Y69.953 E67.17284
G1 X43.818 Y69.097 E67.21491
G1 X44.181 Y68.27 E67.25697
G1 X44.615 Y67.479 E67.29898
G1 X45.118 Y66.728 E67.34107
G1 X45.686 Y66.026 E67.38312
G1 X46.313 Y65.376 E67.42517
G1 X46.995 Y64.784 E67.46722
G1 X47.727 Y64.255 E67.50927
G1 F2700 E62.50927
;MESH:veneerTest1.stl
G0 F6000 X52.667 Y117.473
G0 X53.74 Y122.105
G0 X53.74 Y123.19
G0 X180.898 Y123.552
G0 X181.08 Y161.63
;TYPE:WALL-INNER
G1 F2700 E67.50927
G1 F1200 X53.92 Y161.63 E73.43038
G1 X53.92 Y123.37 E75.21192
G1 X181.08 Y123.37 E81.13302
G1 X181.08 Y161.63 E82.91457
G0 F6000 X181.48 Y162.03
;TYPE:WALL-OUTER
G1 F1200 X53.52 Y162.03 E88.87292
G1 X53.52 Y122.97 E90.69172
G1 X181.48 Y122.97 E96.65008
G1 X181.48 Y162.03 E98.46887
G0 F6000 X181.21 Y161.76
G0 X180.97 Y161.24
G0 X180.69 Y161.24
;TYPE:SKIN
G1 F1200 X54.31 Y161.24 E104.35365
G1 X54.31 Y123.76 E106.09888
G1 X180.69 Y123.76 E111.98366
G1 X180.69 Y161.24 E113.72889
G1 F2700 E108.72889
G0 F6000 X180.97 Y161.24
G0 X180.97 Y124.526
G0 X180.529 Y124.526
G1 F2700 E113.72889
G1 F1200 X179.922 Y123.919 E113.76886
G0 F6000 X179.356 Y123.919
G1 F1200 X180.529 Y125.092 E113.8461
G0 F6000 X180.529 Y125.657
G1 F1200 X178.791 Y123.919 E113.96055
G0 F6000 X178.225 Y123.919
G1 F1200 X180.529 Y126.223 E114.11228
G0 F6000 X180.529 Y126.789
G1 F1200 X177.659 Y123.919 E114.30127
G0 F6000 X177.094 Y123.919
G1 F1200 X180.529 Y127.354 E114.52747
G0 F6000 X180.529 Y127.92
G1 F1200 X176.528 Y123.919 E114.79094
G0 F6000 X175.962 Y123.919
G1 F1200 X180.529 Y128.486 E115.09169
G0 F6000 X180.529 Y129.051
G1 F1200 X175.397 Y123.919 E115.42964
G0 F6000 X174.831 Y123.919
G1 F1200 X180.529 Y129.617 E115.80486
G0 F6000 X180.529 Y130.183
G1 F1200 X174.265 Y123.919 E116.21736
G0 F6000 X173.7 Y123.919
G1 F1200 X180.529 Y130.748 E116.66706
G0 F6000 X180.529 Y131.314
G1 F1200 X173.134 Y123.919 E117.15403
G0 F6000 X172.568 Y123.919
G1 F1200 X180.529 Y131.88 E117.67828
G0 F6000 X180.529 Y132.446
G1 F1200 X172.003 Y123.919 E118.23976
G0 F6000 X171.437 Y123.919
G1 F1200 X180.529 Y133.011 E118.83849
G0 F6000 X180.529 Y133.577
G1 F1200 X170.871 Y123.919 E119.47448
G0 F6000 X170.305 Y123.919
G1 F1200 X180.529 Y134.143 E120.14775
G0 F6000 X180.529 Y134.708
G1 F1200 X169.74 Y123.919 E120.85822
G0 F6000 X169.174 Y123.919
G1 F1200 X180.529 Y135.274 E121.60597
G0 F6000 X180.529 Y135.84
G1 F1200 X168.608 Y123.919 E122.39099
G0 F6000 X168.043 Y123.919
G1 F1200 X180.529 Y136.405 E123.21321
G0 F6000 X180.529 Y136.971
G1 F1200 X167.477 Y123.919 E124.07271
G0 F6000 X166.911 Y123.919
G1 F1200 X180.529 Y137.537 E124.96948
G0 F6000 X180.529 Y138.102
G1 F1200 X166.346 Y123.919 E125.90345
G0 F6000 X165.78 Y123.919
G1 F1200 X180.529 Y138.668 E126.8747
G0 F6000 X180.529 Y139.234
G1 F1200 X165.214 Y123.919 E127.88322
G0 F6000 X164.649 Y123.919
G1 F1200 X180.529 Y139.799 E128.92894
G0 F6000 X180.529 Y140.365
G1 F1200 X164.083 Y123.919 E130.01194
G0 F6000 X163.517 Y123.919
