;FLAVOR:Marlin
;TIME:8423
;Filament used: 7.51857m
;Layer height: 0.28
;MINX:34.7
;MINY:96.708
;MINZ:0.28
;MAXX:200.3
;MAXY:152.608
;MAXZ:6.44
;Generated with Cura_SteamEngine 4.10.0
M140 S50
M105
M190 S50
M104 S200
M105
M109 S200
M82 ;absolute extrusion mode
; Ender 3 Custom Start G-code
G92 E0 ; Reset Extruder
G28 ; Home all axes
G1 Z2.0 F3000 ; Move Z Axis up little to prevent scratching of Heat Bed
G1 X0.1 Y20 Z0.3 F5000.0 ; Move to start position
G1 X0.1 Y200.0 Z0.3 F1500.0 E15 ; Draw the first line
G1 X0.4 Y200.0 Z0.3 F5000.0 ; Move to side a little
G1 X0.4 Y20 Z0.3 F1500.0 E30 ; Draw the second line
G92 E0 ; Reset Extruder
G1 Z2.0 F3000 ; Move Z Axis up little to prevent scratching of Heat Bed
G1 X5 Y20 Z0.3 F5000.0 ; Move over to prevent blob squish
G92 E0
G92 E0
G1 F2700 E-5
;LAYER_COUNT:23
;LAYER:0
M107
G0 F6000 X39.786 Y97.195 Z0.28
;TYPE:SKIRT
G1 F2700 E0
G1 F1200 X40.539 Y96.958 E0.03676
G1 X41.313 Y96.799 E0.07355
G1 X42.098 Y96.718 E0.1103
G1 X42.5 Y96.708 E0.12902
G1 X192.5 Y96.708 E7.11365
G1 X193.289 Y96.748 E7.15044
G1 X194.069 Y96.867 E7.18718
G1 X194.834 Y97.065 E7.22397
G1 X195.574 Y97.339 E7.26072
G1 X196.283 Y97.687 E7.29749
G1 X196.954 Y98.105 E7.33431
G1 X197.578 Y98.588 E7.37105
G1 X198.151 Y99.131 E7.40781
G1 X198.666 Y99.73 E7.44459
G1 X199.117 Y100.378 E7.48135
G1 X199.501 Y101.069 E7.51816
G1 X199.813 Y101.794 E7.55492
G1 X200.05 Y102.547 E7.59167
G1 X200.209 Y103.321 E7.62847
G1 X200.29 Y104.106 E7.66521
G1 X200.3 Y104.508 E7.68394
G1 X200.3 Y123.908 E8.58728
G1 X200.259 Y124.704 E8.6244
G1 X200.29 Y125.006 E8.63853
G1 X200.3 Y125.408 E8.65726
G1 X200.3 Y144.808 E9.5606
G1 X200.26 Y145.597 E9.59739
G1 X200.141 Y146.377 E9.63413
G1 X199.943 Y147.142 E9.67093
G1 X199.669 Y147.882 E9.70767
G1 X199.321 Y148.591 E9.74445
G1 X198.903 Y149.262 E9.78126
G1 X198.42 Y149.886 E9.818
G1 X197.877 Y150.459 E9.85476
G1 X197.278 Y150.974 E9.89154
G1 X196.63 Y151.425 E9.92831
G1 X195.939 Y151.809 E9.96512
G1 X195.214 Y152.121 E10.00187
G1 X194.461 Y152.358 E10.03863
G1 X193.687 Y152.517 E10.07542
G1 X192.902 Y152.598 E10.11217
G1 X192.5 Y152.608 E10.13089
G1 X42.5 Y152.608 E17.11552
G1 X41.711 Y152.568 E17.15231
G1 X40.931 Y152.449 E17.18905
G1 X40.166 Y152.251 E17.22584
G1 X39.426 Y151.977 E17.26259
G1 X38.717 Y151.629 E17.29936
G1 X38.046 Y151.211 E17.33617
G1 X37.422 Y150.728 E17.37292
G1 X36.849 Y150.185 E17.40968
G1 X36.334 Y149.586 E17.44646
G1 X35.883 Y148.938 E17.48322
G1 X35.499 Y148.247 E17.52003
G1 X35.187 Y147.522 E17.55678
G1 X34.95 Y146.769 E17.59354
G1 X34.791 Y145.995 E17.63034
G1 X34.71 Y145.21 E17.66708
G1 X34.7 Y144.808 E17.68581
G1 X34.7 Y125.408 E18.58915
G1 X34.741 Y124.612 E18.62627
G1 X34.71 Y124.31 E18.6404
G1 X34.7 Y123.908 E18.65913
G1 X34.7 Y104.508 E19.56247
G1 X34.74 Y103.719 E19.59926
G1 X34.859 Y102.939 E19.636
G1 X35.057 Y102.174 E19.6728
G1 X35.331 Y101.434 E19.70954
G1 X35.679 Y100.725 E19.74632
G1 X36.097 Y100.054 E19.78313
G1 X36.58 Y99.43 E19.81987
G1 X37.123 Y98.857 E19.85663
G1 X37.722 Y98.342 E19.89341
G1 X38.37 Y97.891 E19.93017
G1 X39.061 Y97.507 E19.96698
G1 X39.786 Y97.195 E20.00374
G0 F6000 X40.151 Y97.491
G1 F1200 X40.893 Y97.285 E20.03959
G1 X41.651 Y97.157 E20.07539
G1 X42.5 Y97.108 E20.11499
G1 X192.5 Y97.108 E27.09962
G1 X193.268 Y97.148 E27.13543
G1 X194.028 Y97.267 E27.17125
G1 X194.771 Y97.465 E27.20705
G1 X195.49 Y97.739 E27.24288
G1 X196.176 Y98.086 E27.27868
G1 X196.823 Y98.502 E27.31449
G1 X197.423 Y98.983 E27.3503
G1 X197.97 Y99.524 E27.38613
G1 X198.458 Y100.119 E27.42196
G1 X198.881 Y100.761 E27.45776
G1 X199.236 Y101.444 E27.4936
G1 X199.517 Y102.159 E27.52937
G1 X199.723 Y102.901 E27.56523
G1 X199.851 Y103.659 E27.60103
G1 X199.9 Y104.508 E27.64062
G1 X199.9 Y123.908 E28.54397
G1 X199.86 Y124.676 E28.57978
G1 X199.858 Y124.686 E28.58025
G1 X199.9 Y125.408 E28.61393
G1 X199.9 Y144.808 E29.51728
G1 X199.86 Y145.576 E29.55309
G1 X199.741 Y146.336 E29.58891
G1 X199.543 Y147.079 E29.62471
G1 X199.269 Y147.798 E29.66054
G1 X198.922 Y148.484 E29.69634
G1 X198.506 Y149.131 E29.73215
G1 X198.025 Y149.731 E29.76796
G1 X197.484 Y150.278 E29.80378
G1 X196.889 Y150.766 E29.83962
G1 X196.247 Y151.189 E29.87542
G1 X195.564 Y151.544 E29.91126
G1 X194.849 Y151.825 E29.94703
G1 X194.107 Y152.031 E29.98289
G1 X193.349 Y152.159 E30.01868
G1 X192.5 Y152.208 E30.05828
G1 X42.5 Y152.208 E37.04291
G1 X41.732 Y152.168 E37.07872
G1 X40.972 Y152.049 E37.11454
G1 X40.229 Y151.851 E37.15035
G1 X39.51 Y151.577 E37.18617
G1 X38.824 Y151.23 E37.22197
G1 X38.177 Y150.814 E37.25779
G1 X37.577 Y150.333 E37.2936
G1 X37.03 Y149.792 E37.32942
G1 X36.542 Y149.197 E37.36525
G1 X36.119 Y148.555 E37.40105
G1 X35.764 Y147.872 E37.43689
G1 X35.483 Y147.157 E37.47267
G1 X35.277 Y146.415 E37.50852
G1 X35.149 Y145.657 E37.54432
G1 X35.1 Y144.808 E37.58392
G1 X35.1 Y125.408 E38.48726
G1 X35.14 Y124.64 E38.52307
G1 X35.142 Y124.63 E38.52355
G1 X35.1 Y123.908 E38.55722
G1 X35.1 Y104.508 E39.46057
G1 X35.14 Y103.74 E39.49638
G1 X35.259 Y102.98 E39.5322
G1 X35.457 Y102.237 E39.568
G1 X35.731 Y101.518 E39.60383
G1 X36.078 Y100.832 E39.63963
G1 X36.494 Y100.185 E39.67545
G1 X36.975 Y99.585 E39.71125
G1 X37.516 Y99.038 E39.74708
G1 X38.111 Y98.55 E39.78291
G1 X38.753 Y98.127 E39.81871
G1 X39.436 Y97.772 E39.85455
G1 X40.151 Y97.491 E39.89033
G0 F6000 X39.808 Y98.046
G1 F1200 X40.513 Y97.796 E39.92516
G1 X41.241 Y97.622 E39.96001
G1 X41.983 Y97.527 E39.99484
G1 X42.5 Y97.508 E40.01893
G1 X192.5 Y97.508 E47.00356
G1 X193.247 Y97.548 E47.03839
G1 X193.985 Y97.667 E47.0732
G1 X194.707 Y97.865 E47.10806
G1 X195.403 Y98.138 E47.14288
G1 X196.066 Y98.485 E47.17772
G1 X196.689 Y98.9 E47.21258
G1 X197.263 Y99.379 E47.24739
G1 X197.784 Y99.916 E47.28223
G1 X198.243 Y100.506 E47.31704
G1 X198.638 Y101.142 E47.3519
G1 X198.962 Y101.816 E47.38672
G1 X199.212 Y102.521 E47.42155
G1 X199.386 Y103.249 E47.4564
G1 X199.481 Y103.991 E47.49124
G1 X199.5 Y104.508 E47.51533
G1 X199.5 Y123.908 E48.41867
G1 X199.46 Y124.655 E48.4535
G1 X199.481 Y124.891 E48.46454
G1 X199.5 Y125.408 E48.48863
G1 X199.5 Y144.808 E49.39197
G1 X199.46 Y145.555 E49.42681
G1 X199.341 Y146.293 E49.46161
G1 X199.143 Y147.015 E49.49647
G1 X198.87 Y147.711 E49.53129
G1 X198.523 Y148.374 E49.56613
G1 X198.108 Y148.997 E49.60099
G1 X197.629 Y149.571 E49.6358
G1 X197.092 Y150.092 E49.67064
G1 X196.502 Y150.551 E49.70545
G1 X195.866 Y150.946 E49.74031
G1 X195.192 Y151.27 E49.77513
G1 X194.487 Y151.52 E49.80996
G1 X193.759 Y151.694 E49.84481
G1 X193.017 Y151.789 E49.87965
G1 X192.5 Y151.808 E49.90374
G1 X42.5 Y151.808 E56.88837
G1 X41.753 Y151.768 E56.9232
G1 X41.015 Y151.649 E56.95801
G1 X40.293 Y151.451 E56.99287
G1 X39.597 Y151.178 E57.02768
G1 X38.934 Y150.831 E57.06253
G1 X38.311 Y150.416 E57.09738
G1 X37.737 Y149.937 E57.13219
G1 X37.216 Y149.4 E57.16703
G1 X36.757 Y148.81 E57.20184
G1 X36.362 Y148.174 E57.2367
G1 X36.038 Y147.5 E57.27152
G1 X35.788 Y146.795 E57.30635
G1 X35.614 Y146.067 E57.34121
G1 X35.519 Y145.325 E57.37604
G1 X35.5 Y144.808 E57.40013
G1 X35.5 Y125.408 E58.30348
G1 X35.54 Y124.661 E58.33831
G1 X35.519 Y124.425 E58.34934
G1 X35.5 Y123.908 E58.37343
G1 X35.5 Y104.508 E59.27678
G1 X35.54 Y103.761 E59.31161
G1 X35.659 Y103.023 E59.34642
G1 X35.857 Y102.301 E59.38128
G1 X36.13 Y101.605 E59.41609
G1 X36.477 Y100.942 E59.45094
G1 X36.892 Y100.319 E59.48579
G1 X37.371 Y99.745 E59.52061
G1 X37.908 Y99.224 E59.55544
G1 X38.498 Y98.765 E59.59025
G1 X39.134 Y98.37 E59.62511
G1 X39.808 Y98.046 E59.65994
G0 F6000 X40.178 Y98.33
G1 F1200 X40.871 Y98.112 E59.69376
G1 X41.583 Y97.972 E59.72755
G1 X42.5 Y97.908 E59.77036
G1 X192.5 Y97.908 E66.75498
G1 X193.225 Y97.948 E66.78879
G1 X193.942 Y98.067 E66.82264
G1 X194.641 Y98.265 E66.85647
G1 X195.314 Y98.538 E66.89028
G1 X195.953 Y98.883 E66.9241
G1 X196.55 Y99.297 E66.95793
G1 X197.098 Y99.773 E66.99173
G1 X197.591 Y100.307 E67.02557
G1 X198.021 Y100.892 E67.05938
G1 X198.385 Y101.521 E67.09322
G1 X198.678 Y102.186 E67.12705
G1 X198.896 Y102.879 E67.16088
G1 X199.036 Y103.591 E67.19467
G1 X199.1 Y104.508 E67.23747
G1 X199.1 Y123.908 E68.14082
G1 X199.06 Y124.633 E68.17463
G1 X199.05 Y124.693 E68.17746
G1 X199.1 Y125.408 E68.21084
G1 X199.1 Y144.808 E69.11418
G1 X199.06 Y145.533 E69.14799
G1 X198.941 Y146.25 E69.18183
G1 X198.743 Y146.949 E69.21566
G1 X198.47 Y147.622 E69.24948
G1 X198.125 Y148.261 E69.2833
G1 X197.711 Y148.858 E69.31712
G1 X197.235 Y149.406 E69.35092
G1 X196.701 Y149.899 E69.38477
G1 X196.116 Y150.329 E69.41857
G1 X195.487 Y150.693 E69.45241
G1 X194.822 Y150.986 E69.48625
G1 X194.129 Y151.204 E69.52008
G1 X193.417 Y151.344 E69.55387
G1 X192.5 Y151.408 E69.59667
G1 X42.5 Y151.408 E76.5813
G1 X41.775 Y151.368 E76.61511
G1 X41.058 Y151.249 E76.64895
G1 X40.359 Y151.051 E76.68278
G1 X39.686 Y150.778 E76.7166
G1 X39.047 Y150.433 E76.75041
G1 X38.45 Y150.019 E76.78424
G1 X37.902 Y149.543 E76.81804
G1 X37.409 Y149.009 E76.85188
G1 X36.979 Y148.424 E76.88569
G1 X36.615 Y147.795 E76.91953
G1 X36.322 Y147.13 E76.95337
G1 X36.104 Y146.437 E76.9872
G1 X35.964 Y145.725 E77.02098
G1 X35.9 Y144.808 E77.06379
G1 X35.9 Y125.408 E77.96713
G1 X35.94 Y124.683 E78.00094
G1 X35.95 Y124.623 E78.00378
G1 X35.9 Y123.908 E78.03715
G1 X35.9 Y104.508 E78.9405
G1 X35.94 Y103.783 E78.97431
G1 X36.059 Y103.066 E79.00815
G1 X36.257 Y102.367 E79.04198
G1 X36.53 Y101.694 E79.0758
G1 X36.875 Y101.055 E79.10961
G1 X37.289 Y100.458 E79.14344
G1 X37.765 Y99.91 E79.17724
G1 X38.299 Y99.417 E79.21108
G1 X38.884 Y98.987 E79.24489
G1 X39.513 Y98.623 E79.27873
G1 X40.178 Y98.33 E79.31256
G0 F6000 X40.543 Y98.625
G1 F1200 X41.223 Y98.441 E79.34537
G1 X41.919 Y98.335 E79.37815
G1 X42.5 Y98.308 E79.40523
G1 X192.5 Y98.308 E86.38986
G1 X193.203 Y98.348 E86.42265
G1 X193.897 Y98.467 E86.45543
G1 X194.572 Y98.665 E86.48819
G1 X195.221 Y98.937 E86.52096
G1 X195.835 Y99.282 E86.55375
G1 X196.406 Y99.693 E86.58651
G1 X196.927 Y100.167 E86.61931
G1 X197.391 Y100.697 E86.65211
G1 X197.791 Y101.276 E86.68488
G1 X198.123 Y101.897 E86.71767
G1 X198.383 Y102.551 E86.75044
G1 X198.567 Y103.231 E86.78324
G1 X198.673 Y103.927 E86.81602
G1 X198.7 Y104.508 E86.84311
G1 X198.7 Y123.908 E87.74645
G1 X198.66 Y124.611 E87.77924
G1 X198.673 Y124.827 E87.78932
G1 X198.7 Y125.408 E87.8164
G1 X198.7 Y144.808 E88.71974
G1 X198.66 Y145.511 E88.75253
G1 X198.541 Y146.205 E88.78532
G1 X198.343 Y146.88 E88.81807
G1 X198.071 Y147.529 E88.85084
G1 X197.726 Y148.143 E88.88364
G1 X197.315 Y148.714 E88.91639
G1 X196.841 Y149.235 E88.94919
G1 X196.311 Y149.699 E88.98199
G1 X195.732 Y150.099 E89.01476
G1 X195.111 Y150.431 E89.04755
G1 X194.457 Y150.691 E89.08032
G1 X193.777 Y150.875 E89.11312
G1 X193.081 Y150.981 E89.14591
G1 X192.5 Y151.008 E89.17299
G1 X42.5 Y151.008 E96.15762
G1 X41.797 Y150.968 E96.19041
G1 X41.103 Y150.849 E96.22319
G1 X40.428 Y150.651 E96.25595
G1 X39.779 Y150.379 E96.28872
G1 X39.165 Y150.034 E96.32151
G1 X38.594 Y149.623 E96.35427
G1 X38.073 Y149.149 E96.38707
G1 X37.609 Y148.619 E96.41987
G1 X37.209 Y148.04 E96.45264
G1 X36.877 Y147.419 E96.48543
G1 X36.617 Y146.765 E96.5182
G1 X36.433 Y146.085 E96.551
G1 X36.327 Y145.389 E96.58378
G1 X36.3 Y144.808 E96.61086
G1 X36.3 Y125.408 E97.51421
G1 X36.34 Y124.705 E97.547
G1 X36.327 Y124.489 E97.55707
G1 X36.3 Y123.908 E97.58416
G1 X36.3 Y104.508 E98.4875
G1 X36.34 Y103.805 E98.52029
G1 X36.459 Y103.111 E98.55308
G1 X36.657 Y102.436 E98.58583
G1 X36.929 Y101.787 E98.6186
G1 X37.274 Y101.173 E98.65139
G1 X37.685 Y100.602 E98.68415
G1 X38.159 Y100.081 E98.71695
G1 X38.689 Y99.617 E98.74975
G1 X39.268 Y99.217 E98.78252
G1 X39.889 Y98.885 E98.81531
G1 X40.543 Y98.625 E98.84808
G0 F6000 X40.262 Y99.157
G1 F1200 X40.904 Y98.932 E98.87976
G1 X41.569 Y98.783 E98.91149
G1 X42.5 Y98.708 E98.95498
G1 X192.5 Y98.708 E105.93961
G1 X193.18 Y98.748 E105.97133
G1 X193.85 Y98.867 E106.00301
G1 X194.502 Y99.064 E106.03473
G1 X195.126 Y99.336 E106.06643
G1 X195.714 Y99.68 E106.09815
G1 X196.258 Y100.09 E106.12987
G1 X196.749 Y100.561 E106.16155
G1 X197.183 Y101.086 E106.19327
G1 X197.552 Y101.658 E106.22496
G1 X197.851 Y102.27 E106.25668
G1 X198.076 Y102.912 E106.28836
G1 X198.225 Y103.577 E106.32009
G1 X198.3 Y104.508 E106.36358
G1 X198.3 Y123.908 E107.26693
G1 X198.26 Y124.588 E107.29864
G1 X198.242 Y124.689 E107.30342
G1 X198.3 Y125.408 E107.33701
G1 X198.3 Y144.808 E108.24036
G1 X198.26 Y145.488 E108.27207
G1 X198.141 Y146.158 E108.30376
G1 X197.944 Y146.81 E108.33548
G1 X197.672 Y147.434 E108.36717
G1 X197.328 Y148.022 E108.39889
G1 X196.918 Y148.566 E108.43061
G1 X196.447 Y149.057 E108.46229
G1 X195.922 Y149.491 E108.49401
G1 X195.35 Y149.86 E108.52571
G1 X194.738 Y150.159 E108.55742
G1 X194.096 Y150.384 E108.5891
G1 X193.431 Y150.533 E108.62083
G1 X192.5 Y150.608 E108.66433
G1 X42.5 Y150.608 E115.64895
G1 X41.82 Y150.568 E115.68067
G1 X41.15 Y150.449 E115.71236
G1 X40.498 Y150.252 E115.74407
G1 X39.874 Y149.98 E115.77577
G1 X39.286 Y149.636 E115.80749
G1 X38.742 Y149.226 E115.83921
G1 X38.251 Y148.755 E115.87089
G1 X37.817 Y148.23 E115.90261
G1 X37.448 Y147.658 E115.93431
G1 X37.149 Y147.046 E115.96602
G1 X36.924 Y146.404 E115.9977
G1 X36.775 Y145.739 E116.02943
G1 X36.7 Y144.808 E116.07292
G1 X36.7 Y125.408 E116.97627
G1 X36.74 Y124.728 E117.00799
G1 X36.758 Y124.627 E117.01277
G1 X36.7 Y123.908 E117.04635
G1 X36.7 Y104.508 E117.9497
G1 X36.74 Y103.828 E117.98142
G1 X36.859 Y103.158 E118.0131
G1 X37.056 Y102.506 E118.04482
G1 X37.328 Y101.882 E118.07652
G1 X37.672 Y101.294 E118.10824
G1 X38.082 Y100.75 E118.13996
G1 X38.553 Y100.259 E118.17164
G1 X39.078 Y99.825 E118.20336
G1 X39.65 Y99.456 E118.23505
G1 X40.262 Y99.157 E118.26677
G0 F6000 X40.631 Y99.442
G1 F1200 X41.26 Y99.252 E118.29736
G1 X41.907 Y99.141 E118.32793
G1 X42.5 Y99.108 E118.35559
G1 X192.5 Y99.108 E125.34022
G1 X193.156 Y99.148 E125.37082
G1 X193.802 Y99.267 E125.4014
G1 X194.429 Y99.464 E125.43201
G1 X195.027 Y99.736 E125.4626
G1 X195.588 Y100.078 E125.49319
G1 X196.103 Y100.486 E125.52379
G1 X196.565 Y100.953 E125.55437
G1 X196.966 Y101.473 E125.58495
G1 X197.302 Y102.037 E125.61552
G1 X197.566 Y102.639 E125.64613
G1 X197.756 Y103.268 E125.67673
G1 X197.867 Y103.915 E125.70729
G1 X197.9 Y104.508 E125.73495
G1 X197.9 Y123.908 E126.63829
G1 X197.86 Y124.564 E126.6689
G1 X197.867 Y124.815 E126.68059
G1 X197.9 Y125.408 E126.70824
G1 X197.9 Y144.808 E127.61159
G1 X197.86 Y145.464 E127.64219
G1 X197.741 Y146.11 E127.67278
G1 X197.544 Y146.737 E127.70338
G1 X197.272 Y147.335 E127.73397
G1 X196.93 Y147.896 E127.76457
G1 X196.522 Y148.411 E127.79516
G1 X196.055 Y148.873 E127.82575
G1 X195.535 Y149.274 E127.85632
G1 X194.971 Y149.61 E127.88689
G1 X194.369 Y149.874 E127.9175
G1 X193.74 Y150.064 E127.9481
G1 X193.093 Y150.175 E127.97867
G1 X192.5 Y150.208 E128.00632
G1 X42.5 Y150.208 E134.99095
G1 X41.844 Y150.168 E135.02155
G1 X41.198 Y150.049 E135.05214
G1 X40.571 Y149.852 E135.08274
G1 X39.973 Y149.58 E135.11333
G1 X39.412 Y149.238 E135.14393
G1 X38.897 Y148.83 E135.17452
G1 X38.435 Y148.363 E135.20511
G1 X38.034 Y147.843 E135.23569
G1 X37.698 Y147.279 E135.26626
G1 X37.434 Y146.677 E135.29686
G1 X37.244 Y146.048 E135.32746
G1 X37.133 Y145.401 E135.35803
G1 X37.1 Y144.808 E135.38568
G1 X37.1 Y125.408 E136.28903
G1 X37.14 Y124.752 E136.31963
G1 X37.133 Y124.501 E136.33132
G1 X37.1 Y123.908 E136.35898
G1 X37.1 Y104.508 E137.26232
G1 X37.14 Y103.852 E137.29293
G1 X37.259 Y103.206 E137.32351
G1 X37.456 Y102.579 E137.35412
G1 X37.728 Y101.981 E137.38471
G1 X38.07 Y101.42 E137.4153
G1 X38.478 Y100.905 E137.44589
G1 X38.945 Y100.443 E137.47648
G1 X39.465 Y100.042 E137.50706
G1 X40.029 Y99.706 E137.53763
G1 X40.631 Y99.442 E137.56824
G0 F6000 X40.995 Y99.74
G1 F1200 X41.609 Y99.588 E137.59769
G1 X42.5 Y99.508 E137.63935
G1 X192.5 Y99.508 E144.62397
G1 X193.131 Y99.548 E144.65342
G1 X193.752 Y99.667 E144.68286
G1 X194.352 Y99.864 E144.71226
G1 X194.924 Y100.135 E144.74174
G1 X195.456 Y100.475 E144.77114
G1 X195.941 Y100.881 E144.80059
G1 X196.371 Y101.344 E144.83001
G1 X196.74 Y101.858 E144.85947
G1 X197.04 Y102.414 E144.88889
G1 X197.268 Y103.003 E144.9183
G1 X197.42 Y103.617 E144.94775
G1 X197.5 Y104.508 E144.98941
