;FLAVOR:Marlin
;TIME:3029
;Filament used: 2.11157m
;Layer height: 0.16
;MINX:42.32
;MINY:61.77
;MINZ:0.2
;MAXX:192.68
;MAXY:173.23
;MAXZ:0.6
;Generated with Cura_SteamEngine 4.10.0
M140 S50
M105
M190 S50
M104 S200
M105
M109 S200
M82 ;absolute extrusion mode
; Ender 3 Custom Start G-code
G92 E0 ; Reset Extruder
G28 ; Home all axes
G1 Z2.0 F3000 ; Move Z Axis up little to prevent scratching of Heat Bed
G1 X0.1 Y20 Z0.3 F5000.0 ; Move to start position
G1 X0.1 Y200.0 Z0.3 F1500.0 E15 ; Draw the first line
G1 X0.4 Y200.0 Z0.3 F5000.0 ; Move to side a little
G1 X0.4 Y20 Z0.3 F1500.0 E30 ; Draw the second line
G92 E0 ; Reset Extruder
G1 Z2.0 F3000 ; Move Z Axis up little to prevent scratching of Heat Bed
G1 X5 Y20 Z0.3 F5000.0 ; Move over to prevent blob squish
G92 E0
G92 E0
G1 F2700 E-5
;LAYER_COUNT:4
;LAYER:0
M107
G0 F6000 X46.96 Y63.811 Z0.2
;TYPE:SKIRT
G1 F2700 E0
G1 F1200 X47.747 Y63.301 E0.03119
G1 X48.575 Y62.86 E0.06239
G1 X49.437 Y62.491 E0.09358
G1 X50.328 Y62.197 E0.12479
G1 X51.24 Y61.979 E0.15597
G1 X52.167 Y61.841 E0.18715
G1 X53.021 Y61.783 E0.21562
G1 X53.341 Y61.774 E0.22626
G1 X53.65 Y61.77 E0.23654
G1 X90.869 Y61.771 E1.47445
G1 X91.572 Y61.781 E1.49783
G1 X92.509 Y61.834 E1.52905
G1 X93.437 Y61.967 E1.56023
G1 X94.351 Y62.179 E1.59144
G1 X95.243 Y62.467 E1.62261
G1 X96.108 Y62.831 E1.65383
G1 X96.938 Y63.267 E1.68501
G1 X97.729 Y63.772 E1.71622
G1 X98.643 Y64.494 E1.75496
G1 X98.74 Y64.572 E1.7591
G1 X100.679 Y66.23 E1.84396
G1 X102.622 Y67.798 E1.927
G1 X104.642 Y69.335 E2.01142
G1 X106.691 Y70.807 E2.09534
G1 X108.77 Y72.211 E2.17877
G1 X110.871 Y73.546 E2.26157
G1 X113.077 Y74.861 E2.34699
G1 X115.249 Y76.074 E2.42973
G1 X117.476 Y77.237 E2.51329
G1 X119.773 Y78.354 E2.59824
G1 X122.018 Y79.369 E2.68019
G1 X124.387 Y80.362 E2.76563
G1 X126.718 Y81.258 E2.84869
G1 X129.094 Y82.098 E2.9325
G1 X131.482 Y82.866 E3.01594
G1 X133.89 Y83.567 E3.09935
G1 X136.345 Y84.206 E3.18373
G1 X138.82 Y84.778 E3.26821
G1 X141.253 Y85.265 E3.35074
G1 X143.728 Y85.69 E3.43427
G1 X146.245 Y86.048 E3.51882
G1 X148.725 Y86.331 E3.60184
G1 X151.234 Y86.545 E3.6856
G1 X153.765 Y86.689 E3.76991
G1 X156.27 Y86.761 E3.85327
G1 X157.624 Y86.77 E3.8983
G1 X181.146 Y86.771 E4.68065
G1 X181.844 Y86.782 E4.70386
G1 X182.781 Y86.837 E4.73508
G1 X183.709 Y86.971 E4.76627
G1 X184.622 Y87.184 E4.79745
G1 X185.514 Y87.474 E4.82865
G1 X186.378 Y87.839 E4.85984
G1 X187.208 Y88.276 E4.89104
G1 X187.997 Y88.782 E4.92222
G1 X188.741 Y89.354 E4.95343
G1 X189.433 Y89.987 E4.98462
G1 X190.069 Y90.676 E5.01581
G1 X190.644 Y91.418 E5.04703
G1 X191.153 Y92.205 E5.0782
G1 X191.594 Y93.033 E5.10941
G1 X191.962 Y93.895 E5.14058
G1 X192.255 Y94.786 E5.17178
G1 X192.472 Y95.699 E5.20299
G1 X192.61 Y96.626 E5.23416
G1 X192.667 Y97.471 E5.26233
G1 X192.676 Y97.79 E5.27294
G1 X192.68 Y98.1 E5.28325
G1 X192.679 Y116.251 E5.88696
G1 X192.65 Y118.228 E5.95272
G1 X192.641 Y118.555 E5.9636
G1 X192.638 Y121.08 E6.04758
G1 X192.68 Y123.091 E6.11448
G1 X192.679 Y161.63 E7.3963
G1 X192.67 Y162.357 E7.42048
G1 X192.619 Y163.294 E7.45169
G1 X192.487 Y164.222 E7.48287
G1 X192.278 Y165.136 E7.51405
G1 X191.991 Y166.029 E7.54525
G1 X191.629 Y166.895 E7.57647
G1 X191.195 Y167.726 E7.60765
G1 X190.691 Y168.517 E7.63884
G1 X190.122 Y169.262 E7.67002
G1 X189.491 Y169.957 E7.70124
G1 X188.804 Y170.595 E7.73243
G1 X188.065 Y171.172 E7.76361
G1 X187.279 Y171.684 E7.79481
G1 X186.453 Y172.127 E7.82599
G1 X185.591 Y172.499 E7.85721
G1 X184.702 Y172.795 E7.88838
G1 X183.79 Y173.015 E7.91958
G1 X182.863 Y173.156 E7.95077
G1 X181.979 Y173.217 E7.98024
G1 X181.658 Y173.226 E7.99092
G1 X181.35 Y173.23 E8.00116
G1 X53.885 Y173.229 E12.24067
G1 X53.187 Y173.22 E12.26388
G1 X52.251 Y173.168 E12.29506
G1 X51.322 Y173.036 E12.32627
G1 X50.408 Y172.826 E12.35746
G1 X49.515 Y172.539 E12.38866
G1 X48.65 Y172.176 E12.41986
G1 X47.819 Y171.742 E12.45104
G1 X47.028 Y171.238 E12.48224
G1 X46.283 Y170.668 E12.51344
G1 X45.589 Y170.037 E12.54464
G1 X44.952 Y169.35 E12.5758
G1 X44.375 Y168.61 E12.60701
G1 X43.863 Y167.824 E12.63821
G1 X43.42 Y166.997 E12.66941
G1 X43.049 Y166.136 E12.70059
G1 X42.753 Y165.246 E12.73179
G1 X42.534 Y164.334 E12.76298
G1 X42.393 Y163.407 E12.79417
G1 X42.333 Y162.518 E12.82381
G1 X42.324 Y162.185 E12.83489
G1 X42.32 Y161.888 E12.84477
G1 X42.321 Y123.319 E14.12758
G1 X42.35 Y121.362 E14.19267
G1 X42.359 Y121.035 E14.20355
G1 X42.362 Y118.51 E14.28753
G1 X42.32 Y116.499 E14.35444
G1 X42.321 Y98.283 E14.9603
G1 X42.352 Y96.272 E15.0272
G1 X42.359 Y96.034 E15.03512
G1 X42.362 Y93.465 E15.12056
G1 X42.332 Y92.061 E15.16727
G1 X42.325 Y91.824 E15.17515
G1 X42.32 Y91.499 E15.18597
G1 X42.321 Y73.279 E15.79197
G1 X42.331 Y72.614 E15.81409
G1 X42.385 Y71.677 E15.8453
G1 X42.519 Y70.749 E15.87649
G1 X42.731 Y69.835 E15.90769
G1 X43.02 Y68.943 E15.93888
G1 X43.385 Y68.079 E15.97008
G1 X43.821 Y67.249 E16.00126
G1 X44.327 Y66.459 E16.03246
G1 X44.898 Y65.715 E16.06366
G1 X45.53 Y65.022 E16.09485
G1 X46.219 Y64.386 E16.12604
G1 X46.96 Y63.811 E16.15723
G0 F6000 X47.344 Y64.031
G1 F1200 X48.126 Y63.544 E16.18787
G1 X48.947 Y63.128 E16.21849
G1 X49.801 Y62.784 E16.24911
G1 X50.681 Y62.515 E16.27971
G1 X51.582 Y62.324 E16.31035
G1 X52.496 Y62.212 E16.34097
G1 X53.032 Y62.183 E16.35883
G1 X53.352 Y62.174 E16.36948
G1 X53.65 Y62.17 E16.37939
G1 X90.713 Y62.17 E17.61211
G1 X91.567 Y62.181 E17.64051
G1 X92.486 Y62.234 E17.67113
G1 X93.397 Y62.367 E17.70175
G1 X94.293 Y62.578 E17.73237
G1 X95.167 Y62.866 E17.76298
G1 X96.014 Y63.229 E17.79363
G1 X96.825 Y63.664 E17.82423
G1 X97.596 Y64.168 E17.85487
G1 X98.383 Y64.797 E17.88838
G1 X100.414 Y66.53 E17.97718
G1 X102.397 Y68.129 E18.06191
G1 X104.389 Y69.646 E18.14519
G1 X106.456 Y71.13 E18.22982
G1 X108.562 Y72.553 E18.31435
G1 X110.673 Y73.894 E18.39754
G1 X112.856 Y75.196 E18.48208
G1 X115.048 Y76.419 E18.56556
G1 X117.322 Y77.607 E18.65089
G1 X119.569 Y78.7 E18.734
G1 X121.891 Y79.75 E18.81876
G1 X124.255 Y80.741 E18.90402
G1 X126.545 Y81.621 E18.98561
G1 X128.975 Y82.48 E19.07134
G1 X131.354 Y83.245 E19.15445
G1 X133.792 Y83.954 E19.2389
G1 X136.259 Y84.597 E19.3237
G1 X138.717 Y85.165 E19.4076
G1 X141.185 Y85.659 E19.49132
G1 X143.67 Y86.085 E19.57517
G1 X146.18 Y86.443 E19.6595
G1 X148.682 Y86.728 E19.74326
G1 X151.214 Y86.944 E19.82778
G1 X153.73 Y87.087 E19.9116
G1 X156.302 Y87.161 E19.99718
G1 X157.622 Y87.17 E20.04108
G1 X181.14 Y87.171 E20.82329
G1 X181.838 Y87.182 E20.84651
G1 X182.757 Y87.237 E20.87713
G1 X183.668 Y87.371 E20.90776
G1 X184.564 Y87.583 E20.93838
G1 X185.438 Y87.873 E20.96901
G1 X186.283 Y88.237 E20.99961
G1 X187.094 Y88.673 E21.03024
G1 X187.864 Y89.178 E21.06086
G1 X188.587 Y89.748 E21.09148
G1 X189.258 Y90.378 E21.1221
G1 X189.872 Y91.065 E21.15274
G1 X190.423 Y91.802 E21.18335
G1 X190.909 Y92.584 E21.21397
G1 X191.325 Y93.405 E21.24458
G1 X191.669 Y94.259 E21.27521
G1 X191.937 Y95.14 E21.30583
G1 X192.127 Y96.041 E21.33646
G1 X192.239 Y96.954 E21.36705
G1 X192.267 Y97.482 E21.38464
G1 X192.276 Y97.801 E21.39525
G1 X192.28 Y98.1 E21.4052
G1 X192.279 Y116.245 E22.0087
G1 X192.25 Y118.217 E22.0743
G1 X192.241 Y118.544 E22.08518
G1 X192.238 Y121.088 E22.16979
G1 X192.28 Y123.091 E22.23643
G1 X192.279 Y161.625 E23.51808
G1 X192.27 Y162.352 E23.54226
G1 X192.219 Y163.271 E23.57287
G1 X192.088 Y164.183 E23.60352
G1 X191.878 Y165.079 E23.63412
G1 X191.592 Y165.954 E23.66474
G1 X191.231 Y166.801 E23.69536
G1 X190.797 Y167.613 E23.72599
G1 X190.295 Y168.385 E23.75662
G1 X189.727 Y169.11 E23.78725
G1 X189.099 Y169.783 E23.81786
G1 X188.415 Y170.399 E23.84848
G1 X187.68 Y170.953 E23.87909
G1 X186.9 Y171.442 E23.90971
G1 X186.08 Y171.861 E23.94034
G1 X185.227 Y172.207 E23.97096
G1 X184.347 Y172.478 E24.00158
G1 X183.447 Y172.671 E24.0322
G1 X182.533 Y172.786 E24.06284
G1 X181.968 Y172.817 E24.08166
G1 X181.647 Y172.826 E24.09234
G1 X181.35 Y172.83 E24.10222
G1 X53.89 Y172.829 E28.34155
G1 X53.192 Y172.82 E28.36477
G1 X52.273 Y172.768 E28.39538
G1 X51.362 Y172.637 E28.426
G1 X50.466 Y172.427 E28.45661
G1 X49.591 Y172.14 E28.48723
G1 X48.744 Y171.778 E28.51787
G1 X47.932 Y171.344 E28.54849
G1 X47.161 Y170.842 E28.57909
G1 X46.436 Y170.274 E28.60973
G1 X45.763 Y169.645 E28.64036
G1 X45.148 Y168.961 E28.67096
G1 X44.594 Y168.226 E28.70157
G1 X44.106 Y167.445 E28.7322
G1 X43.687 Y166.625 E28.76283
G1 X43.341 Y165.772 E28.79344
G1 X43.071 Y164.892 E28.82406
G1 X42.878 Y163.991 E28.85471
G1 X42.764 Y163.078 E28.88531
G1 X42.733 Y162.507 E28.90433
G1 X42.724 Y162.174 E28.91541
G1 X42.72 Y161.888 E28.92492
G1 X42.721 Y123.324 E30.20757
G1 X42.75 Y121.373 E30.27246
G1 X42.759 Y121.046 E30.28334
G1 X42.762 Y118.502 E30.36796
G1 X42.72 Y116.499 E30.43459
G1 X42.721 Y98.288 E31.04029
G1 X42.748 Y96.448 E31.1015
G1 X42.759 Y96.041 E31.11504
G1 X42.762 Y93.502 E31.19949
G1 X42.72 Y91.499 E31.26612
G1 X42.721 Y73.285 E31.87192
G1 X42.731 Y72.62 E31.89404
G1 X42.785 Y71.701 E31.92466
G1 X42.918 Y70.79 E31.95528
G1 X43.13 Y69.894 E31.98591
G1 X43.419 Y69.019 E32.01655
G1 X43.783 Y68.174 E32.04716
G1 X44.218 Y67.363 E32.07777
G1 X44.723 Y66.592 E32.10842
G1 X45.292 Y65.869 E32.13902
G1 X45.922 Y65.197 E32.16966
G1 X46.608 Y64.583 E32.20028
G1 X47.344 Y64.031 E32.23088
G0 F6000 X47.727 Y64.255
G1 F1200 X48.503 Y63.793 E32.26092
G1 X49.317 Y63.402 E32.29095
G1 X50.162 Y63.083 E32.32099
G1 X51.032 Y62.841 E32.35103
G1 X51.92 Y62.677 E32.38106
G1 X53.043 Y62.583 E32.41854
G1 X53.363 Y62.574 E32.42919
G1 X53.65 Y62.57 E32.43874
G1 X90.713 Y62.57 E33.67146
G1 X91.561 Y62.581 E33.69966
G1 X92.463 Y62.634 E33.72972
G1 X93.356 Y62.766 E33.75974
G1 X94.234 Y62.977 E33.78977
G1 X95.09 Y63.265 E33.81981
G1 X95.917 Y63.627 E33.84984
G1 X96.709 Y64.061 E33.87988
G1 X97.46 Y64.563 E33.90992
G1 X98.193 Y65.156 E33.94128
G1 X100.169 Y66.847 E34.02778
G1 X102.144 Y68.44 E34.11218
G1 X104.158 Y69.974 E34.19638
G1 X106.228 Y71.459 E34.28111
G1 X108.32 Y72.873 E34.3651
G1 X110.485 Y74.248 E34.4504
G1 X112.636 Y75.531 E34.5337
G1 X114.889 Y76.789 E34.61953
G1 X117.126 Y77.957 E34.70346
G1 X119.408 Y79.067 E34.78786
G1 X121.72 Y80.112 E34.87225
G1 X124.082 Y81.102 E34.95743
G1 X126.429 Y82.004 E35.04106
G1 X128.845 Y82.859 E35.1263
G1 X131.235 Y83.627 E35.2098
G1 X133.684 Y84.34 E35.29463
G1 X136.174 Y84.988 E35.38021
G1 X138.62 Y85.553 E35.4637
G1 X141.104 Y86.05 E35.54796
G1 X143.623 Y86.483 E35.63297
G1 X146.11 Y86.837 E35.71652
G1 X148.674 Y87.129 E35.80235
G1 X151.193 Y87.344 E35.88644
G1 X153.695 Y87.486 E35.96979
G1 X156.288 Y87.561 E36.05607
G1 X157.619 Y87.57 E36.10034
G1 X181.134 Y87.571 E36.88245
G1 X181.832 Y87.582 E36.90567
G1 X182.733 Y87.636 E36.93569
G1 X183.626 Y87.77 E36.96573
G1 X184.504 Y87.982 E36.99577
G1 X185.36 Y88.271 E37.02582
G1 X186.186 Y88.635 E37.05584
G1 X186.978 Y89.07 E37.08589
G1 X187.727 Y89.574 E37.11592
G1 X188.43 Y90.142 E37.14598
G1 X189.079 Y90.769 E37.17599
G1 X189.67 Y91.452 E37.20604
G1 X190.199 Y92.184 E37.23607
G1 X190.66 Y92.961 E37.26612
G1 X191.051 Y93.775 E37.29616
G1 X191.369 Y94.62 E37.32619
G1 X191.61 Y95.49 E37.35621
G1 X191.774 Y96.378 E37.38625
G1 X191.867 Y97.493 E37.42346
G1 X191.876 Y97.812 E37.43408
G1 X191.88 Y98.1 E37.44366
G1 X191.879 Y116.239 E38.04696
G1 X191.85 Y118.206 E38.11239
G1 X191.841 Y118.532 E38.12324
G1 X191.838 Y121.096 E38.20852
G1 X191.869 Y122.553 E38.25699
G1 X191.876 Y122.789 E38.26484
G1 X191.88 Y123.091 E38.27489
G1 X191.879 Y161.62 E39.55637
G1 X191.87 Y162.347 E39.58055
G1 X191.819 Y163.249 E39.6106
G1 X191.688 Y164.143 E39.64065
G1 X191.479 Y165.021 E39.67067
G1 X191.193 Y165.878 E39.70072
G1 X190.832 Y166.706 E39.73076
G1 X190.4 Y167.498 E39.76077
G1 X189.899 Y168.25 E39.79082
G1 X189.333 Y168.954 E39.82086
G1 X188.708 Y169.605 E39.85088
G1 X188.027 Y170.199 E39.88094
G1 X187.296 Y170.73 E39.91099
G1 X186.522 Y171.194 E39.941
G1 X185.709 Y171.588 E39.97105
G1 X184.865 Y171.908 E40.00107
G1 X183.995 Y172.153 E40.03113
G1 X183.108 Y172.319 E40.06115
G1 X181.957 Y172.417 E40.09957
G1 X181.636 Y172.426 E40.11025
G1 X181.35 Y172.43 E40.11976
G1 X53.895 Y172.429 E44.35893
G1 X53.197 Y172.42 E44.38215
G1 X52.296 Y172.369 E44.41216
G1 X51.402 Y172.237 E44.44222
G1 X50.524 Y172.028 E44.47224
G1 X49.667 Y171.741 E44.5023
G1 X48.84 Y171.38 E44.53231
G1 X48.047 Y170.947 E44.56236
G1 X47.296 Y170.446 E44.59239
G1 X46.592 Y169.88 E44.62243
G1 X45.941 Y169.254 E44.65247
G1 X45.348 Y168.573 E44.68251
G1 X44.818 Y167.842 E44.71254
G1 X44.354 Y167.067 E44.74258
G1 X43.96 Y166.254 E44.77263
G1 X43.64 Y165.41 E44.80265
G1 X43.396 Y164.54 E44.8327
G1 X43.23 Y163.652 E44.86275
G1 X43.133 Y162.497 E44.9013
G1 X43.124 Y162.164 E44.91238
G1 X43.12 Y161.888 E44.92156
G1 X43.121 Y123.33 E46.20401
G1 X43.15 Y121.384 E46.26874
G1 X43.159 Y121.058 E46.27958
G1 X43.162 Y118.494 E46.36486
G1 X43.131 Y117.037 E46.41333
G1 X43.124 Y116.801 E46.42119
G1 X43.12 Y116.499 E46.43123
G1 X43.121 Y98.294 E47.03673
G1 X43.148 Y96.454 E47.09794
G1 X43.159 Y96.06 E47.11105
G1 X43.162 Y93.494 E47.19639
G1 X43.129 Y91.954 E47.24763
G1 X43.124 Y91.8 E47.25275
G1 X43.12 Y91.499 E47.26276
G1 X43.121 Y73.291 E47.86836
G1 X43.131 Y72.626 E47.89048
G1 X43.185 Y71.724 E47.92054
G1 X43.318 Y70.831 E47.95057
G1 X43.529 Y69.953 E47.9806
G1 X43.818 Y69.097 E48.01065
G1 X44.181 Y68.27 E48.04069
G1 X44.615 Y67.479 E48.0707
G1 X45.118 Y66.728 E48.10076
G1 X45.686 Y66.026 E48.1308
G1 X46.313 Y65.376 E48.16083
G1 X46.995 Y64.784 E48.19087
G1 X47.727 Y64.255 E48.22091
G1 F2700 E43.22091
;MESH:veneerTest1.stl
G0 F6000 X52.667 Y117.473
G0 X53.74 Y122.105
G0 X53.74 Y123.19
G0 X180.498 Y123.952
G0 X180.68 Y161.23
;TYPE:WALL-INNER
G1 F2700 E48.22091
G1 F1200 X54.32 Y161.23 E52.42366
G1 X54.32 Y123.77 E53.66959
G1 X180.68 Y123.77 E57.87234
G1 X180.68 Y161.23 E59.11826
G0 F6000 X181.08 Y161.63
G1 F1200 X53.92 Y161.63 E63.34762
G1 X53.92 Y123.37 E64.62015
G1 X181.08 Y123.37 E68.84951
G1 X181.08 Y161.63 E70.12204
G0 F6000 X181.48 Y162.03
;TYPE:WALL-OUTER
G1 F1200 X53.52 Y162.03 E74.37801
G1 X53.52 Y122.97 E75.67715
G1 X181.48 Y122.97 E79.93312
G1 X181.48 Y162.03 E81.23226
G0 F6000 X181.21 Y161.76
G0 X180.57 Y160.84
G0 X180.29 Y160.84
;TYPE:SKIN
G1 F1200 X54.71 Y160.84 E85.40907
G1 X54.71 Y124.16 E86.62905
G1 X180.29 Y124.16 E90.80586
G1 X180.29 Y160.84 E92.02584
G1 F2700 E87.02584
G0 F6000 X180.57 Y160.84
G0 X180.57 Y124.692
G0 X180.129 Y124.692
G1 F2700 E92.02584
G1 F1200 X179.757 Y124.319 E92.04336
G0 F6000 X179.191 Y124.319
G1 F1200 X180.129 Y125.258 E92.0875
G0 F6000 X180.129 Y125.823
G1 F1200 X178.625 Y124.319 E92.15825
G0 F6000 X178.06 Y124.319
G1 F1200 X180.129 Y126.389 E92.25559
G0 F6000 X180.129 Y126.955
G1 F1200 X177.494 Y124.319 E92.37956
G0 F6000 X176.928 Y124.319
G1 F1200 X180.129 Y127.521 E92.53015
G0 F6000 X180.129 Y128.086
G1 F1200 X176.363 Y124.319 E92.70731
G0 F6000 X175.797 Y124.319
G1 F1200 X180.129 Y128.652 E92.9111
G0 F6000 X180.129 Y129.218
G1 F1200 X175.231 Y124.319 E93.14151
G0 F6000 X174.665 Y124.319
G1 F1200 X180.129 Y129.783 E93.39852
G0 F6000 X180.129 Y130.349
G1 F1200 X174.1 Y124.319 E93.68213
G0 F6000 X173.534 Y124.319
G1 F1200 X180.129 Y130.915 E93.99236
G0 F6000 X180.129 Y131.48
G1 F1200 X172.968 Y124.319 E94.32919
G0 F6000 X172.403 Y124.319
G1 F1200 X180.129 Y132.046 E94.69262
G0 F6000 X180.129 Y132.612
G1 F1200 X171.837 Y124.319 E95.08267
G0 F6000 X171.271 Y124.319
G1 F1200 X180.129 Y133.177 E95.49933
G0 F6000 X180.129 Y133.743
G1 F1200 X170.706 Y124.319 E95.94258
G0 F6000 X170.14 Y124.319
G1 F1200 X180.129 Y134.309 E96.41246
G0 F6000 X180.129 Y134.874
G1 F1200 X169.574 Y124.319 E96.90893
G0 F6000 X169.009 Y124.319
G1 F1200 X180.129 Y135.44 E97.43201
G0 F6000 X180.129 Y136.006
G1 F1200 X168.443 Y124.319 E97.9817
G0 F6000 X167.877 Y124.319
G1 F1200 X180.129 Y136.572 E98.55802
G0 F6000 X180.129 Y137.137
G1 F1200 X167.312 Y124.319 E99.16092
G0 F6000 X166.746 Y124.319
G1 F1200 X180.129 Y137.703 E99.79044
G0 F6000 X180.129 Y138.269
G1 F1200 X166.18 Y124.319 E100.44658
G0 F6000 X165.615 Y124.319
G1 F1200 X180.129 Y138.834 E101.1293
G0 F6000 X180.129 Y139.4
G1 F1200 X165.049 Y124.319 E101.83864
G0 F6000 X164.483 Y124.319
G1 F1200 X180.129 Y139.966 E102.5746
G0 F6000 X180.129 Y140.531
