;FLAVOR:Marlin
;TIME:3040
;Filament used: 2.71247m
;Layer height: 0.16
;MINX:42.553
;MINY:85
;MINZ:0.2
;MAXX:192.445
;MAXY:150
;MAXZ:1.4
;Generated with Cura_SteamEngine 4.10.0
M140 S50
M105
M190 S50
M104 S200
M105
M109 S200
M82 ;absolute extrusion mode
; Ender 3 Custom Start G-code
G92 E0 ; Reset Extruder
G28 ; Home all axes
G1 Z2.0 F3000 ; Move Z Axis up little to prevent scratching of Heat Bed
G1 X0.1 Y20 Z0.3 F5000.0 ; Move to start position
G1 X0.1 Y200.0 Z0.3 F1500.0 E15 ; Draw the first line
G1 X0.4 Y200.0 Z0.3 F5000.0 ; Move to side a little
G1 X0.4 Y20 Z0.3 F1500.0 E30 ; Draw the second line
G92 E0 ; Reset Extruder
G1 Z2.0 F3000 ; Move Z Axis up little to prevent scratching of Heat Bed
G1 X5 Y20 Z0.3 F5000.0 ; Move over to prevent blob squish
G92 E0
G92 E0
G1 F2700 E-5
;LAYER_COUNT:8
;LAYER:0
M107
G0 F6000 X68.079 Y87.498 Z0.2
;TYPE:SKIRT
G1 F2700 E0
G1 F1200 X68.829 Y86.936 E0.03117
G1 X69.625 Y86.44 E0.06237
G1 X70.461 Y86.013 E0.09359
G1 X71.329 Y85.659 E0.12477
G1 X72.225 Y85.381 E0.15597
G1 X73.141 Y85.179 E0.18717
G1 X74.391 Y85.033 E0.22903
G1 X74.543 Y85.024 E0.23409
G1 X75.059 Y85.006 E0.25126
G1 X75.602 Y85 E0.26932
G1 X180.753 Y85 E3.76666
G1 X181.605 Y85.011 E3.795
G1 X182.542 Y85.065 E3.82622
G1 X183.47 Y85.198 E3.8574
G1 X184.384 Y85.409 E3.8886
G1 X185.276 Y85.698 E3.91978
G1 X186.141 Y86.062 E3.951
G1 X186.971 Y86.498 E3.98218
G1 X187.761 Y87.003 E4.01336
G1 X188.506 Y87.573 E4.04456
G1 X189.199 Y88.205 E4.07576
G1 X189.835 Y88.894 E4.10695
G1 X190.411 Y89.634 E4.13814
G1 X190.921 Y90.421 E4.16933
G1 X191.363 Y91.249 E4.20054
G1 X191.733 Y92.111 E4.23174
G1 X192.027 Y93.001 E4.26292
G1 X192.245 Y93.913 E4.29411
G1 X192.385 Y94.841 E4.32532
G1 X192.445 Y95.777 E4.35652
G1 X192.424 Y96.714 E4.38769
G1 X192.325 Y97.647 E4.4189
G1 X192.238 Y98.144 E4.43568
G1 X192.044 Y99.119 E4.46874
G1 X191.854 Y100.002 E4.49878
G1 X191.389 Y102.504 E4.58342
G1 X191.003 Y104.966 E4.66631
G1 X190.687 Y107.445 E4.74943
G1 X190.438 Y109.94 E4.83283
G1 X190.258 Y112.494 E4.91798
G1 X190.153 Y114.979 E5.00071
G1 X190.117 Y117.51 E5.0849
G1 X190.153 Y120.026 E5.16859
G1 X190.261 Y122.559 E5.25291
G1 X190.437 Y125.034 E5.33544
G1 X190.686 Y127.541 E5.41923
G1 X191.012 Y130.082 E5.50444
G1 X191.391 Y132.502 E5.58591
G1 X192.017 Y135.797 E5.69746
G1 X192.213 Y136.733 E5.72927
G1 X192.366 Y137.658 E5.76045
G1 X192.439 Y138.593 E5.79165
G1 X192.432 Y139.531 E5.82285
G1 X192.346 Y140.465 E5.85404
G1 X192.18 Y141.388 E5.88523
G1 X191.936 Y142.294 E5.91644
G1 X191.616 Y143.175 E5.94762
G1 X191.222 Y144.026 E5.97881
G1 X190.757 Y144.841 E6.01002
G1 X190.224 Y145.613 E6.04122
G1 X189.627 Y146.336 E6.0724
G1 X188.971 Y147.006 E6.10359
G1 X188.26 Y147.618 E6.13479
G1 X187.5 Y148.167 E6.16598
G1 X186.695 Y148.65 E6.1972
G1 X185.853 Y149.062 E6.22838
G1 X184.978 Y149.4 E6.25958
G1 X184.078 Y149.663 E6.29076
G1 X183.159 Y149.849 E6.32195
G1 X182.227 Y149.955 E6.35315
G1 X181.652 Y149.981 E6.37229
G1 X180.743 Y149.998 E6.40253
G1 X180.537 Y150 E6.40938
G1 X75.59 Y149.999 E9.89993
G1 X74.888 Y149.989 E9.92328
G1 X73.952 Y149.936 E9.95447
G1 X73.024 Y149.803 E9.98565
G1 X72.11 Y149.591 E10.01685
G1 X71.217 Y149.303 E10.04806
G1 X70.353 Y148.939 E10.07924
G1 X69.522 Y148.503 E10.11046
G1 X68.732 Y147.998 E10.14164
G1 X67.988 Y147.428 E10.17281
G1 X67.564 Y147.055 E10.1916
G1 X67.412 Y146.914 E10.19849
G1 X67.196 Y146.707 E10.20844
G1 X66.92 Y146.436 E10.22131
G1 X46.137 Y125.652 E11.1989
G1 X45.669 Y125.171 E11.22122
G1 X45.044 Y124.471 E11.25243
G1 X44.481 Y123.721 E11.28362
G1 X43.984 Y122.926 E11.31481
G1 X43.557 Y122.091 E11.346
G1 X43.202 Y121.223 E11.37719
G1 X42.923 Y120.328 E11.40837
G1 X42.72 Y119.412 E11.43958
G1 X42.597 Y118.482 E11.47078
G1 X42.553 Y117.545 E11.50198
G1 X42.589 Y116.608 E11.53317
G1 X42.705 Y115.677 E11.56437
G1 X42.9 Y114.76 E11.59555
G1 X43.172 Y113.862 E11.62676
G1 X43.519 Y112.991 E11.65794
G1 X43.94 Y112.153 E11.68914
G1 X44.43 Y111.354 E11.72031
G1 X44.987 Y110.599 E11.75152
G1 X45.563 Y109.94 E11.78063
G1 X45.774 Y109.717 E11.79084
G1 X45.986 Y109.499 E11.80095
G1 X66.898 Y88.589 E12.78454
G1 X67.379 Y88.122 E12.80684
G1 X68.079 Y87.498 E12.83803
G0 F6000 X68.345 Y87.797
G1 F1200 X69.083 Y87.247 E12.86864
G1 X69.866 Y86.763 E12.89926
G1 X70.689 Y86.349 E12.9299
G1 X71.544 Y86.008 E12.96051
G1 X72.425 Y85.742 E12.99112
G1 X73.326 Y85.554 E13.02174
G1 X74.414 Y85.433 E13.05815
G1 X74.566 Y85.424 E13.06321
G1 X75.063 Y85.406 E13.07975
G1 X75.602 Y85.4 E13.09768
G1 X180.753 Y85.4 E16.59502
G1 X181.6 Y85.411 E16.62319
G1 X182.519 Y85.464 E16.65381
G1 X183.43 Y85.597 E16.68443
G1 X184.326 Y85.808 E16.71504
G1 X185.2 Y86.097 E16.74566
G1 X186.046 Y86.46 E16.77628
G1 X186.858 Y86.895 E16.80692
G1 X187.628 Y87.399 E16.83753
G1 X188.352 Y87.968 E16.86815
G1 X189.024 Y88.597 E16.89877
G1 X189.639 Y89.283 E16.92941
G1 X190.191 Y90.019 E16.96001
G1 X190.678 Y90.8 E16.99062
G1 X191.096 Y91.621 E17.02127
G1 X191.44 Y92.475 E17.05189
G1 X191.709 Y93.355 E17.08249
G1 X191.901 Y94.255 E17.1131
G1 X192.014 Y95.169 E17.14373
G1 X192.047 Y96.089 E17.17435
G1 X192 Y97.009 E17.20499
G1 X191.846 Y98.066 E17.24052
G1 X191.653 Y99.035 E17.27338
G1 X191.455 Y99.957 E17.30475
G1 X191 Y102.4 E17.3874
G1 X190.61 Y104.891 E17.47126
G1 X190.286 Y107.426 E17.55626
G1 X190.038 Y109.925 E17.63978
G1 X189.86 Y112.449 E17.72394
G1 X189.753 Y114.992 E17.8086
G1 X189.717 Y117.51 E17.89235
G1 X189.753 Y120.049 E17.97681
G1 X189.861 Y122.568 E18.06067
G1 X190.038 Y125.069 E18.14406
G1 X190.289 Y127.595 E18.22849
G1 X190.614 Y130.123 E18.31326
G1 X190.999 Y132.578 E18.39591
G1 X191.619 Y135.843 E18.50645
G1 X191.822 Y136.815 E18.53948
G1 X191.971 Y137.723 E18.57008
G1 X192.04 Y138.641 E18.6007
G1 X192.03 Y139.562 E18.63133
G1 X191.94 Y140.478 E18.66195
G1 X191.771 Y141.383 E18.69257
G1 X191.523 Y142.27 E18.7232
G1 X191.2 Y143.132 E18.75382
G1 X190.803 Y143.963 E18.78445
G1 X190.336 Y144.756 E18.81506
G1 X189.802 Y145.506 E18.84568
G1 X189.204 Y146.206 E18.8763
G1 X188.548 Y146.852 E18.90692
G1 X187.838 Y147.439 E18.93756
G1 X187.081 Y147.961 E18.96815
G1 X186.28 Y148.416 E18.99879
G1 X185.443 Y148.8 E19.02941
G1 X184.577 Y149.11 E19.06001
G1 X183.686 Y149.344 E19.09065
G1 X182.779 Y149.499 E19.12125
G1 X181.644 Y149.581 E19.1591
G1 X180.537 Y149.6 E19.19592
G1 X75.596 Y149.599 E22.68628
G1 X74.894 Y149.589 E22.70963
G1 X73.975 Y149.536 E22.74024
G1 X73.064 Y149.403 E22.77086
G1 X72.168 Y149.192 E22.80148
G1 X71.293 Y148.904 E22.83212
G1 X70.447 Y148.541 E22.86274
G1 X69.636 Y148.106 E22.89335
G1 X68.865 Y147.602 E22.92398
G1 X67.836 Y146.761 E22.96819
G1 X67.684 Y146.62 E22.97508
G1 X67.476 Y146.422 E22.98463
G1 X67.281 Y146.231 E22.99371
G1 X46.424 Y125.373 E23.97478
G1 X45.956 Y124.892 E23.99711
G1 X45.343 Y124.205 E24.02773
G1 X44.792 Y123.467 E24.05836
G1 X44.307 Y122.684 E24.089
G1 X43.892 Y121.863 E24.11959
G1 X43.55 Y121.008 E24.15022
G1 X43.284 Y120.127 E24.18083
G1 X43.094 Y119.226 E24.21146
G1 X42.984 Y118.312 E24.24207
G1 X42.954 Y117.392 E24.27269
G1 X43.003 Y116.472 E24.30333
G1 X43.132 Y115.561 E24.33393
G1 X43.34 Y114.664 E24.36456
G1 X43.624 Y113.788 E24.39519
G1 X43.984 Y112.941 E24.4258
G1 X44.415 Y112.127 E24.45643
G1 X44.916 Y111.355 E24.48704
G1 X45.482 Y110.629 E24.51766
G1 X45.853 Y110.215 E24.53615
G1 X46.064 Y109.992 E24.54636
G1 X46.269 Y109.782 E24.55612
G1 X67.176 Y88.876 E25.5395
G1 X67.657 Y88.409 E25.5618
G1 X68.345 Y87.797 E25.59243
G0 F6000 X68.611 Y88.096
G1 F1200 X69.337 Y87.558 E25.62248
G1 X70.107 Y87.087 E25.6525
G1 X70.916 Y86.685 E25.68255
G1 X71.757 Y86.357 E25.71257
G1 X72.624 Y86.104 E25.74261
G1 X73.51 Y85.93 E25.77264
G1 X74.438 Y85.832 E25.80368
G1 X74.59 Y85.823 E25.80874
G1 X75.068 Y85.806 E25.82465
G1 X75.602 Y85.8 E25.84241
G1 X180.753 Y85.8 E29.33975
G1 X181.594 Y85.811 E29.36773
G1 X182.496 Y85.864 E29.39778
G1 X183.389 Y85.997 E29.42781
G1 X184.267 Y86.208 E29.45784
G1 X185.123 Y86.495 E29.48787
G1 X185.95 Y86.858 E29.51791
G1 X186.742 Y87.292 E29.54795
G1 X187.492 Y87.795 E29.57798
G1 X188.195 Y88.362 E29.60802
G1 X188.845 Y88.988 E29.63804
G1 X189.438 Y89.67 E29.66809
G1 X189.967 Y90.402 E29.69813
G1 X190.43 Y91.178 E29.72819
G1 X190.822 Y91.991 E29.75821
G1 X191.141 Y92.836 E29.78825
G1 X191.383 Y93.706 E29.81828
G1 X191.548 Y94.594 E29.84832
G1 X191.634 Y95.493 E29.87836
G1 X191.64 Y96.396 E29.9084
G1 X191.566 Y97.296 E29.93843
G1 X191.453 Y97.989 E29.96178
G1 X191.262 Y98.95 E29.99437
G1 X191.065 Y99.864 E30.02547
G1 X190.606 Y102.336 E30.10909
G1 X190.212 Y104.849 E30.1937
G1 X189.89 Y107.368 E30.27816
G1 X189.639 Y109.894 E30.36259
G1 X189.459 Y112.44 E30.44748
G1 X189.353 Y114.969 E30.53167
G1 X189.317 Y117.51 E30.61619
G1 X189.353 Y120.038 E30.70028
G1 X189.463 Y122.614 E30.78604
G1 X189.639 Y125.094 E30.86873
G1 X189.893 Y127.653 E30.95426
G1 X190.216 Y130.165 E31.0385
G1 X190.605 Y132.648 E31.12209
G1 X191.233 Y135.953 E31.23399
G1 X191.43 Y136.897 E31.26606
G1 X191.576 Y137.788 E31.29609
G1 X191.642 Y138.689 E31.32614
G1 X191.628 Y139.592 E31.35617
G1 X191.534 Y140.49 E31.38621
G1 X191.361 Y141.376 E31.41623
G1 X191.111 Y142.244 E31.44627
G1 X190.784 Y143.086 E31.47632
G1 X190.385 Y143.896 E31.50635
G1 X189.915 Y144.667 E31.53638
G1 X189.379 Y145.394 E31.56642
G1 X188.781 Y146.071 E31.59647
G1 X188.125 Y146.692 E31.62651
G1 X187.417 Y147.252 E31.65653
G1 X186.662 Y147.748 E31.68658
G1 X185.867 Y148.175 E31.71659
G1 X185.036 Y148.53 E31.74665
G1 X184.178 Y148.81 E31.77667
G1 X183.298 Y149.014 E31.80671
G1 X182.403 Y149.138 E31.83677
G1 X181.637 Y149.181 E31.86228
G1 X180.537 Y149.2 E31.89887
G1 X75.602 Y149.199 E35.38903
G1 X74.9 Y149.189 E35.41238
G1 X73.998 Y149.136 E35.44243
G1 X73.105 Y149.004 E35.47245
G1 X72.227 Y148.793 E35.50249
G1 X71.371 Y148.505 E35.53253
G1 X70.543 Y148.143 E35.56258
G1 X69.751 Y147.709 E35.59262
G1 X69.001 Y147.206 E35.62266
G1 X68.108 Y146.468 E35.66119
G1 X67.956 Y146.327 E35.66808
G1 X67.756 Y146.136 E35.67728
G1 X67.561 Y145.945 E35.68636
G1 X46.71 Y125.094 E36.66713
G1 X46.242 Y124.613 E36.68945
G1 X45.642 Y123.938 E36.71949
G1 X45.103 Y123.213 E36.74953
G1 X44.631 Y122.444 E36.77955
G1 X44.229 Y121.635 E36.80959
G1 X43.9 Y120.794 E36.83963
G1 X43.646 Y119.927 E36.86968
G1 X43.47 Y119.042 E36.89969
G1 X43.373 Y118.144 E36.92973
G1 X43.356 Y117.241 E36.95977
G1 X43.419 Y116.34 E36.98981
G1 X43.562 Y115.448 E37.01986
G1 X43.782 Y114.572 E37.0499
G1 X44.079 Y113.72 E37.07991
G1 X44.451 Y112.896 E37.10998
G1 X44.894 Y112.109 E37.14001
G1 X45.405 Y111.365 E37.17003
G1 X46.144 Y110.49 E37.20813
G1 X46.355 Y110.267 E37.21834
G1 X46.552 Y110.065 E37.22772
G1 X67.455 Y89.163 E38.21091
G1 X67.936 Y88.696 E38.23321
G1 X68.611 Y88.096 E38.26325
G1 F2700 E33.26325
;MESH:Veneer8.stl
G0 F6000 X74.446 Y95.654
G0 X75.211 Y96.418
G0 X55.21 Y117.5
G0 X75.454 Y138
;TYPE:WALL-INNER
G1 F2700 E38.26325
G1 F1200 X54.954 Y117.5 E39.22751
G1 X75.454 Y97 E40.19176
G1 X178.565 Y97 E43.62125
G1 X178.566 Y97 E43.62128
G1 X179.046 Y97 E43.63725
G1 X178.706 Y97.34 E43.64585
G1 X158.685 Y117.36 E44.58755
G1 X158.545 Y117.5 E44.59414
G1 X158.685 Y117.64 E44.59838
G1 X178.706 Y137.66 E45.54009
G1 X179.046 Y138 E45.55608
G1 X178.566 Y138 E45.56467
G1 X178.565 Y138 E45.5647
G1 X75.454 Y138 E48.99419
G0 F6000 X75.288 Y138.4
G1 F1200 X54.388 Y117.5 E49.97726
G1 X75.288 Y96.6 E50.96033
G1 X180.012 Y96.6 E54.44347
G1 X159.251 Y117.36 E55.41998
G1 X159.111 Y117.5 E55.42656
G1 X159.251 Y117.64 E55.43081
G1 X180.012 Y138.4 E56.40732
G1 X75.288 Y138.4 E59.89045
G0 F6000 X75.122 Y138.8
;TYPE:WALL-OUTER
G1 F1200 X53.822 Y117.5 E60.89234
G1 X75.122 Y96.2 E61.89422
G1 X180.978 Y96.2 E65.41501
G1 X159.677 Y117.5 E66.41692
G1 X180.978 Y138.8 E67.41883
G1 X75.122 Y138.8 E70.93962
G0 F6000 X75.29 Y138.394
G0 X75.614 Y137.61
;TYPE:SKIN
G1 F1200 X55.504 Y117.5 E71.88553
G1 X75.614 Y97.39 E72.83144
G1 X178.106 Y97.39 E76.24034
G1 X157.993 Y117.5 E77.18632
G1 X178.106 Y137.61 E78.1323
G1 X75.614 Y137.61 E81.5412
G0 F6000 X75.789 Y137.448
G1 F1200 X55.784 Y117.444 E82.48215
G0 F6000 X56.067 Y117.161
G1 F1200 X76.354 Y137.448 E83.43639
G0 F6000 X76.92 Y137.448
G1 F1200 X56.35 Y116.878 E84.40394
G0 F6000 X56.632 Y116.595
G1 F1200 X77.486 Y137.448 E85.38483
G0 F6000 X78.051 Y137.448
G1 F1200 X56.915 Y116.312 E86.379
G0 F6000 X57.198 Y116.029
G1 F1200 X78.617 Y137.448 E87.38648
G0 F6000 X79.183 Y137.448
G1 F1200 X57.481 Y115.747 E88.40725
G0 F6000 X57.764 Y115.464
G1 F1200 X79.748 Y137.448 E89.44131
G0 F6000 X80.314 Y137.448
G1 F1200 X58.047 Y115.181 E90.48869
G0 F6000 X58.329 Y114.898
G1 F1200 X80.88 Y137.448 E91.54939
G0 F6000 X81.445 Y137.448
G1 F1200 X58.612 Y114.615 E92.62339
G0 F6000 X58.895 Y114.332
G1 F1200 X82.011 Y137.448 E93.71069
G0 F6000 X82.577 Y137.448
G1 F1200 X59.178 Y114.049 E94.81131
G0 F6000 X59.461 Y113.767
G1 F1200 X83.143 Y137.448 E95.92521
G0 F6000 X83.708 Y137.448
G1 F1200 X59.744 Y113.484 E97.05241
G0 F6000 X60.027 Y113.201
G1 F1200 X84.274 Y137.448 E98.19291
G0 F6000 X84.84 Y137.448
G1 F1200 X60.309 Y112.918 E99.34675
G0 F6000 X60.592 Y112.635
G1 F1200 X85.405 Y137.448 E100.51388
G0 F6000 X85.971 Y137.448
G1 F1200 X60.875 Y112.352 E101.69432
G0 F6000 X61.158 Y112.07
G1 F1200 X86.537 Y137.448 E102.88805
G0 F6000 X87.102 Y137.448
G1 F1200 X61.441 Y111.787 E104.09506
G0 F6000 X61.724 Y111.504
G1 F1200 X87.668 Y137.448 E105.31539
G0 F6000 X88.234 Y137.448
G1 F1200 X62.006 Y111.221 E106.54905
G0 F6000 X62.289 Y110.938
G1 F1200 X88.799 Y137.448 E107.796
G0 F6000 X89.365 Y137.448
G1 F1200 X62.572 Y110.655 E109.05626
G0 F6000 X62.855 Y110.373
G1 F1200 X89.931 Y137.448 E110.32981
G0 F6000 X90.496 Y137.448
G1 F1200 X63.138 Y110.09 E111.61664
G0 F6000 X63.421 Y109.807
G1 F1200 X91.062 Y137.448 E112.91679
G0 F6000 X91.628 Y137.448
G1 F1200 X63.703 Y109.524 E114.23027
G0 F6000 X63.986 Y109.241
G1 F1200 X92.193 Y137.448 E115.55704
G0 F6000 X92.759 Y137.448
G1 F1200 X64.269 Y108.958 E116.89713
G0 F6000 X64.552 Y108.675
G1 F1200 X93.325 Y137.448 E118.25052
G0 F6000 X93.891 Y137.448
G1 F1200 X64.835 Y108.393 E119.6172
G0 F6000 X65.118 Y108.11
G1 F1200 X94.456 Y137.448 E120.99717
G0 F6000 X95.022 Y137.448
G1 F1200 X65.401 Y107.827 E122.39045
G0 F6000 X65.683 Y107.544
G1 F1200 X95.588 Y137.448 E123.79707
G0 F6000 X96.153 Y137.448
G1 F1200 X65.966 Y107.261 E125.21697
G0 F6000 X66.249 Y106.978
G1 F1200 X96.719 Y137.448 E126.65019
G0 F6000 X97.285 Y137.448
G1 F1200 X66.532 Y106.696 E128.09669
G0 F6000 X66.815 Y106.413
G1 F1200 X97.85 Y137.448 E129.55648
G0 F6000 X98.416 Y137.448
G1 F1200 X67.098 Y106.13 E131.02958
G0 F6000 X67.38 Y105.847
G1 F1200 X98.982 Y137.448 E132.51602
G0 F6000 X99.547 Y137.448
G1 F1200 X67.663 Y105.564 E134.01575
G0 F6000 X67.946 Y105.281
G1 F1200 X100.113 Y137.448 E135.52878
G0 F6000 X100.679 Y137.448
G1 F1200 X68.229 Y104.998 E137.05513
G0 F6000 X68.512 Y104.716
G1 F1200 X101.244 Y137.448 E138.59475
G0 F6000 X101.81 Y137.448
G1 F1200 X68.795 Y104.433 E140.14767
G0 F6000 X69.077 Y104.15
G1 F1200 X102.376 Y137.448 E141.71393
G0 F6000 X102.942 Y137.448
G1 F1200 X69.36 Y103.867 E143.2935
G0 F6000 X69.643 Y103.584
G1 F1200 X103.507 Y137.448 E144.88636
G0 F6000 X104.073 Y137.448
G1 F1200 X69.926 Y103.301 E146.49253
G0 F6000 X70.209 Y103.019
G1 F1200 X104.639 Y137.448 E148.11199
G0 F6000 X105.204 Y137.448
G1 F1200 X70.492 Y102.736 E149.74473
G0 F6000 X70.775 Y102.453
G1 F1200 X105.77 Y137.448 E151.39079
G0 F6000 X106.336 Y137.448
G1 F1200 X71.057 Y102.17 E153.05018
G0 F6000 X71.34 Y101.887
G1 F1200 X106.901 Y137.448 E154.72286
G0 F6000 X107.467 Y137.448
G1 F1200 X71.623 Y101.604 E156.40886
G0 F6000 X71.906 Y101.322
G1 F1200 X108.033 Y137.448 E158.10814
G0 F6000 X108.598 Y137.448
G1 F1200 X72.189 Y101.039 E159.8207
G0 F6000 X72.472 Y100.756
G1 F1200 X109.164 Y137.448 E161.54658
G0 F6000 X109.73 Y137.448
G1 F1200 X72.754 Y100.473 E163.2858
G0 F6000 X73.037 Y100.19
G1 F1200 X110.295 Y137.448 E165.0383
G0 F6000 X110.861 Y137.448
G1 F1200 X73.32 Y99.907 E166.80411
G0 F6000 X73.603 Y99.624
G1 F1200 X111.427 Y137.448 E168.58324
G0 F6000 X111.992 Y137.448
G1 F1200 X73.886 Y99.342 E170.37563
G0 F6000 X74.169 Y99.059
G1 F1200 X112.558 Y137.448 E172.18133
