;FLAVOR:Marlin
;TIME:26762
;Filament used: 24.1619m
;Layer height: 0.2
;MINX:27.51
;MINY:68.7
;MINZ:0.2
;MAXX:207.8
;MAXY:166.3
;MAXZ:30
;Generated with Cura_SteamEngine 4.10.0
M140 S50
M105
M190 S50
M104 S200
M105
M109 S200
M82 ;absolute extrusion mode
; Ender 3 Custom Start G-code
G92 E0 ; Reset Extruder
G28 ; Home all axes
G1 Z2.0 F3000 ; Move Z Axis up little to prevent scratching of Heat Bed
G1 X0.1 Y20 Z0.3 F5000.0 ; Move to start position
G1 X0.1 Y200.0 Z0.3 F1500.0 E15 ; Draw the first line
G1 X0.4 Y200.0 Z0.3 F5000.0 ; Move to side a little
G1 X0.4 Y20 Z0.3 F1500.0 E30 ; Draw the second line
G92 E0 ; Reset Extruder
G1 Z2.0 F3000 ; Move Z Axis up little to prevent scratching of Heat Bed
G1 X5 Y20 Z0.3 F5000.0 ; Move over to prevent blob squish
G92 E0
G92 E0
G1 F2700 E-5
;LAYER_COUNT:150
;LAYER:0
M107
G0 F6000 X49.656 Y76.426 Z0.2
;TYPE:SKIRT
G1 F2700 E0
G1 F1200 X50.064 Y76.167 E0.01607
G1 X52.28 Y74.855 E0.10173
G1 X52.719 Y74.614 E0.11838
G1 X55.016 Y73.446 E0.20409
G1 X55.453 Y73.241 E0.22015
G1 X57.817 Y72.218 E0.30582
G1 X58.277 Y72.035 E0.32229
G1 X60.701 Y71.164 E0.40796
G1 X61.163 Y71.015 E0.4241
G1 X63.635 Y70.297 E0.50972
G1 X64.109 Y70.175 E0.526
G1 X66.623 Y69.613 E0.61168
G1 X67.106 Y69.521 E0.62803
G1 X69.646 Y69.119 E0.71356
G1 X70.117 Y69.059 E0.72935
G1 X70.252 Y69.046 E0.73387
G1 X71.041 Y69.01 E0.76013
G1 X71.83 Y69.054 E0.78642
G1 X72.61 Y69.178 E0.81269
G1 X73.373 Y69.38 E0.83894
G1 X74.112 Y69.658 E0.8652
G1 X74.819 Y70.009 E0.89145
G1 X75.487 Y70.43 E0.91771
G1 X76.002 Y70.833 E0.93946
G1 X76.222 Y70.644 E0.94911
G1 X76.87 Y70.193 E0.97537
G1 X77.561 Y69.809 E1.00166
G1 X78.286 Y69.497 E1.02791
G1 X79.039 Y69.26 E1.05417
G1 X79.813 Y69.101 E1.08045
G1 X80.598 Y69.02 E1.1067
G1 X81.74 Y69.045 E1.14469
G1 X81.887 Y69.059 E1.1496
G1 X82.37 Y69.121 E1.1658
G1 X84.914 Y69.525 E1.25147
G1 X85.396 Y69.617 E1.26779
G1 X87.91 Y70.18 E1.35348
G1 X88.383 Y70.301 E1.36972
G1 X90.855 Y71.02 E1.45535
G1 X91.317 Y71.17 E1.4715
G1 X93.741 Y72.042 E1.55718
G1 X94.202 Y72.225 E1.57368
G1 X96.565 Y73.249 E1.65934
G1 X97.003 Y73.455 E1.67543
G1 X99.299 Y74.624 E1.76113
G1 X99.736 Y74.864 E1.77771
G1 X101.952 Y76.177 E1.86338
G1 X102.359 Y76.436 E1.87943
G1 X104.489 Y77.883 E1.96507
G1 X104.889 Y78.174 E1.98152
G1 X106.923 Y79.753 E2.06717
G1 X107.297 Y80.062 E2.0833
G1 X109.223 Y81.759 E2.16868
G1 X109.581 Y82.096 E2.18503
G1 X110.2 Y82.715 E2.21415
G1 X110.2 Y76.5 E2.42086
G1 X110.24 Y75.711 E2.44714
G1 X110.359 Y74.931 E2.47338
G1 X110.557 Y74.166 E2.49966
G1 X110.831 Y73.426 E2.52591
G1 X111.179 Y72.717 E2.55218
G1 X111.597 Y72.046 E2.57847
G1 X112.08 Y71.422 E2.60472
G1 X112.623 Y70.849 E2.63097
G1 X113.222 Y70.334 E2.65725
G1 X113.87 Y69.883 E2.6835
G1 X114.561 Y69.499 E2.7098
G1 X115.286 Y69.187 E2.73605
G1 X116.039 Y68.95 E2.76231
G1 X116.813 Y68.791 E2.78859
G1 X117.598 Y68.71 E2.81483
G1 X118 Y68.7 E2.82821
G1 X154 Y68.7 E4.02557
G1 X154.789 Y68.74 E4.05185
G1 X155.569 Y68.859 E4.07809
G1 X156.334 Y69.057 E4.10438
G1 X157.074 Y69.331 E4.13062
G1 X157.783 Y69.679 E4.15689
G1 X158.454 Y70.097 E4.18318
G1 X159.003 Y70.522 E4.20628
G1 X159.222 Y70.334 E4.21588
G1 X159.87 Y69.883 E4.24213
G1 X160.561 Y69.499 E4.26843
G1 X161.286 Y69.187 E4.29468
G1 X162.039 Y68.95 E4.32093
G1 X162.813 Y68.791 E4.34722
G1 X163.598 Y68.71 E4.37346
G1 X164 Y68.7 E4.38684
G1 X200 Y68.7 E5.5842
G1 X200.789 Y68.74 E5.61048
G1 X201.569 Y68.859 E5.63672
G1 X202.334 Y69.057 E5.663
G1 X203.074 Y69.331 E5.68925
G1 X203.783 Y69.679 E5.71552
G1 X204.454 Y70.097 E5.74181
G1 X205.078 Y70.58 E5.76806
G1 X205.651 Y71.123 E5.79431
G1 X206.166 Y71.722 E5.82059
G1 X206.617 Y72.37 E5.84685
G1 X207.001 Y73.061 E5.87314
G1 X207.313 Y73.786 E5.89939
G1 X207.55 Y74.539 E5.92565
G1 X207.709 Y75.313 E5.95193
G1 X207.79 Y76.098 E5.97818
G1 X207.8 Y76.5 E5.99155
G1 X207.8 Y112.5 E7.18892
G1 X207.76 Y113.289 E7.21519
G1 X207.641 Y114.069 E7.24144
G1 X207.443 Y114.834 E7.26772
G1 X207.169 Y115.574 E7.29396
G1 X206.821 Y116.283 E7.32023
G1 X206.403 Y116.954 E7.34653
G1 X205.978 Y117.503 E7.36962
G1 X206.166 Y117.722 E7.37922
G1 X206.617 Y118.37 E7.40548
G1 X207.001 Y119.061 E7.43177
G1 X207.313 Y119.786 E7.45802
G1 X207.55 Y120.539 E7.48428
G1 X207.709 Y121.313 E7.51056
G1 X207.79 Y122.098 E7.53681
G1 X207.8 Y122.5 E7.55018
G1 X207.8 Y158.5 E8.74755
G1 X207.76 Y159.289 E8.77382
G1 X207.641 Y160.069 E8.80006
G1 X207.443 Y160.834 E8.82635
G1 X207.169 Y161.574 E8.85259
G1 X206.821 Y162.283 E8.87886
G1 X206.403 Y162.954 E8.90515
G1 X205.92 Y163.578 E8.9314
G1 X205.377 Y164.151 E8.95766
G1 X204.778 Y164.666 E8.98393
G1 X204.13 Y165.117 E9.01019
G1 X203.439 Y165.501 E9.03648
G1 X202.714 Y165.813 E9.06273
G1 X201.961 Y166.05 E9.08899
G1 X201.187 Y166.209 E9.11527
G1 X200.402 Y166.29 E9.14152
G1 X200 Y166.3 E9.15489
G1 X164 Y166.3 E10.35226
G1 X163.211 Y166.26 E10.37853
G1 X162.431 Y166.141 E10.40478
G1 X161.666 Y165.943 E10.43106
G1 X160.926 Y165.669 E10.45731
G1 X160.217 Y165.321 E10.48357
G1 X159.546 Y164.903 E10.50987
G1 X158.997 Y164.478 E10.53296
G1 X158.778 Y164.666 E10.54256
G1 X158.13 Y165.117 E10.56882
G1 X157.439 Y165.501 E10.59511
G1 X156.714 Y165.813 E10.62136
G1 X155.961 Y166.05 E10.64762
G1 X155.187 Y166.209 E10.6739
G1 X154.402 Y166.29 E10.70015
G1 X154 Y166.3 E10.71352
G1 X118 Y166.3 E11.91089
G1 X117.211 Y166.26 E11.93716
G1 X116.431 Y166.141 E11.96341
G1 X115.666 Y165.943 E11.98969
G1 X114.926 Y165.669 E12.01593
G1 X114.217 Y165.321 E12.0422
G1 X113.546 Y164.903 E12.0685
G1 X112.922 Y164.42 E12.09474
G1 X112.349 Y163.877 E12.121
G1 X111.834 Y163.278 E12.14727
G1 X111.383 Y162.63 E12.17353
G1 X110.999 Y161.939 E12.19982
G1 X110.687 Y161.214 E12.22608
G1 X110.45 Y160.461 E12.25233
G1 X110.291 Y159.687 E12.27861
G1 X110.21 Y158.902 E12.30486
G1 X110.2 Y158.5 E12.31824
G1 X110.2 Y152.285 E12.52495
G1 X109.575 Y152.91 E12.55435
G1 X109.216 Y153.247 E12.57072
G1 X107.283 Y154.949 E12.65638
G1 X106.91 Y155.257 E12.67247
G1 X104.875 Y156.836 E12.75814
G1 X104.475 Y157.127 E12.77459
G1 X102.344 Y158.574 E12.86027
G1 X101.936 Y158.833 E12.87634
G1 X99.72 Y160.145 E12.96199
G1 X99.281 Y160.386 E12.97865
G1 X96.984 Y161.554 E13.06436
G1 X96.547 Y161.759 E13.08041
G1 X94.183 Y162.782 E13.16609
G1 X93.723 Y162.965 E13.18255
G1 X91.299 Y163.836 E13.26822
G1 X90.837 Y163.985 E13.28437
G1 X88.365 Y164.703 E13.36999
G1 X87.891 Y164.825 E13.38626
G1 X85.377 Y165.387 E13.47194
G1 X84.894 Y165.479 E13.4883
G1 X82.354 Y165.881 E13.57383
G1 X81.883 Y165.941 E13.58962
G1 X81.748 Y165.954 E13.59413
G1 X80.959 Y165.99 E13.6204
G1 X80.17 Y165.946 E13.64669
G1 X79.39 Y165.822 E13.67295
G1 X78.627 Y165.62 E13.69921
G1 X77.888 Y165.342 E13.72547
G1 X77.181 Y164.991 E13.75172
G1 X76.513 Y164.57 E13.77798
G1 X75.998 Y164.167 E13.79973
G1 X75.778 Y164.356 E13.80938
G1 X75.13 Y164.807 E13.83564
G1 X74.439 Y165.191 E13.86193
G1 X73.714 Y165.503 E13.88818
G1 X72.961 Y165.74 E13.91444
G1 X72.187 Y165.899 E13.94072
G1 X71.402 Y165.98 E13.96697
G1 X70.274 Y165.956 E14.00449
G1 X70.135 Y165.943 E14.00914
G1 X69.638 Y165.881 E14.0258
G1 X67.086 Y165.476 E14.11174
G1 X66.604 Y165.383 E14.12806
G1 X64.09 Y164.82 E14.21375
G1 X63.617 Y164.699 E14.22999
G1 X61.145 Y163.98 E14.31562
G1 X60.683 Y163.83 E14.33177
G1 X58.259 Y162.958 E14.41745
G1 X57.798 Y162.775 E14.43395
G1 X55.435 Y161.751 E14.51961
G1 X54.997 Y161.545 E14.5357
G1 X52.701 Y160.376 E14.6214
G1 X52.264 Y160.136 E14.63798
G1 X50.048 Y158.823 E14.72365
G1 X49.64 Y158.564 E14.73972
G1 X47.509 Y157.116 E14.82542
G1 X47.11 Y156.825 E14.84184
G1 X45.076 Y155.246 E14.92748
G1 X44.702 Y154.937 E14.94362
G1 X42.776 Y153.24 E15.029
G1 X42.418 Y152.903 E15.04535
G1 X40.596 Y151.081 E15.13105
G1 X40.258 Y150.722 E15.14745
G1 X38.556 Y148.79 E15.23309
G1 X38.247 Y148.416 E15.24922
G1 X36.668 Y146.381 E15.33489
G1 X36.378 Y145.982 E15.3513
G1 X34.931 Y143.852 E15.43695
G1 X34.672 Y143.444 E15.45302
G1 X33.359 Y141.227 E15.53872
G1 X33.118 Y140.79 E15.55532
G1 X31.95 Y138.495 E15.64097
G1 X31.744 Y138.055 E15.65712
G1 X30.721 Y135.691 E15.7428
G1 X30.539 Y135.233 E15.75919
G1 X29.667 Y132.809 E15.84487
G1 X29.517 Y132.345 E15.86109
G1 X28.799 Y129.873 E15.94671
G1 X28.678 Y129.402 E15.96288
G1 X28.115 Y126.888 E16.04857
G1 X28.022 Y126.402 E16.06503
G1 X27.619 Y123.854 E16.15083
G1 X27.559 Y123.383 E16.16662
G1 X27.546 Y123.248 E16.17113
G1 X27.51 Y122.459 E16.1974
G1 X27.554 Y121.67 E16.22368
G1 X27.678 Y120.89 E16.24995
G1 X27.88 Y120.127 E16.2762
G1 X28.158 Y119.388 E16.30246
G1 X28.509 Y118.681 E16.32872
G1 X28.93 Y118.013 E16.35498
G1 X29.333 Y117.498 E16.37673
G1 X29.144 Y117.278 E16.38637
G1 X28.693 Y116.63 E16.41263
G1 X28.309 Y115.939 E16.43893
G1 X27.997 Y115.214 E16.46518
G1 X27.76 Y114.461 E16.49143
G1 X27.601 Y113.687 E16.51772
G1 X27.52 Y112.902 E16.54396
G1 X27.544 Y111.768 E16.58169
G1 X27.557 Y111.63 E16.5863
G1 X27.619 Y111.142 E16.60266
G1 X28.022 Y108.597 E16.68836
G1 X28.115 Y108.112 E16.70479
G1 X28.678 Y105.598 E16.79047
G1 X28.799 Y105.127 E16.80665
G1 X29.517 Y102.655 E16.89227
G1 X29.667 Y102.191 E16.90848
G1 X30.539 Y99.767 E16.99416
G1 X30.721 Y99.309 E17.01056
G1 X31.744 Y96.945 E17.09623
G1 X31.95 Y96.505 E17.11239
G1 X33.118 Y94.21 E17.19804
G1 X33.359 Y93.773 E17.21464
G1 X34.672 Y91.556 E17.30034
G1 X34.931 Y91.148 E17.31641
G1 X36.378 Y89.018 E17.40205
G1 X36.668 Y88.619 E17.41846
G1 X38.247 Y86.584 E17.50413
G1 X38.556 Y86.21 E17.52027
G1 X40.258 Y84.278 E17.6059
G1 X40.597 Y83.917 E17.62237
G1 X42.425 Y82.09 E17.70833
G1 X42.784 Y81.753 E17.72471
G1 X44.717 Y80.051 E17.81037
G1 X45.09 Y79.743 E17.82646
G1 X47.125 Y78.164 E17.91213
G1 X47.525 Y77.873 E17.92858
G1 X49.656 Y76.426 E18.01426
G0 F6000 X49.881 Y76.757
G1 F1200 X50.268 Y76.511 E18.02951
G1 X52.484 Y75.199 E18.11516
G1 X52.9 Y74.971 E18.13094
G1 X55.197 Y73.803 E18.21665
G1 X55.612 Y73.608 E18.2319
G1 X57.976 Y72.585 E18.31757
G1 X58.413 Y72.412 E18.3332
G1 X60.837 Y71.541 E18.41887
G1 X61.275 Y71.399 E18.43419
G1 X63.747 Y70.681 E18.51981
G1 X64.197 Y70.565 E18.53526
G1 X66.711 Y70.003 E18.62094
G1 X67.168 Y69.916 E18.63641
G1 X69.708 Y69.514 E18.72195
G1 X70.156 Y69.457 E18.73697
G1 X70.291 Y69.444 E18.74148
G1 X71.059 Y69.41 E18.76705
G1 X71.827 Y69.456 E18.79264
G1 X72.586 Y69.582 E18.81823
G1 X73.327 Y69.786 E18.84379
G1 X74.044 Y70.065 E18.86938
G1 X74.728 Y70.417 E18.89496
G1 X75.371 Y70.839 E18.92054
G1 X75.967 Y71.325 E18.94612
G1 X76.016 Y71.34 E18.94783
G1 X76.611 Y70.852 E18.97342
G1 X77.253 Y70.429 E18.99899
G1 X77.936 Y70.074 E19.02459
G1 X78.651 Y69.793 E19.05015
G1 X79.393 Y69.587 E19.07576
G1 X80.151 Y69.459 E19.10133
G1 X80.919 Y69.41 E19.12692
G1 X81.702 Y69.443 E19.15299
G1 X81.849 Y69.457 E19.1579
G1 X82.308 Y69.516 E19.17329
G1 X84.852 Y69.92 E19.25897
G1 X85.308 Y70.007 E19.27441
G1 X87.822 Y70.57 E19.36009
G1 X88.272 Y70.685 E19.37554
G1 X90.744 Y71.404 E19.46117
G1 X91.182 Y71.547 E19.47649
G1 X93.606 Y72.419 E19.56217
G1 X94.043 Y72.592 E19.57781
G1 X96.406 Y73.616 E19.66346
G1 X96.822 Y73.812 E19.67876
G1 X99.118 Y74.981 E19.76445
G1 X99.532 Y75.209 E19.78017
G1 X101.748 Y76.522 E19.86584
G1 X102.134 Y76.767 E19.88105
G1 X104.264 Y78.214 E19.96669
G1 X104.644 Y78.49 E19.98231
G1 X106.678 Y80.069 E20.06796
G1 X107.032 Y80.362 E20.08324
G1 X108.958 Y82.059 E20.16862
G1 X109.299 Y82.378 E20.18415
G1 X110.6 Y83.679 E20.24534
G1 X110.6 Y76.5 E20.48412
G1 X110.64 Y75.732 E20.5097
G1 X110.759 Y74.972 E20.53528
G1 X110.957 Y74.229 E20.56086
G1 X111.231 Y73.51 E20.58645
G1 X111.578 Y72.824 E20.61202
G1 X111.994 Y72.177 E20.6376
G1 X112.475 Y71.577 E20.66318
G1 X113.016 Y71.03 E20.68877
G1 X113.611 Y70.542 E20.71436
G1 X114.253 Y70.119 E20.73993
G1 X114.936 Y69.764 E20.76553
G1 X115.651 Y69.483 E20.79109
G1 X116.393 Y69.277 E20.8167
G1 X117.151 Y69.149 E20.84227
G1 X118 Y69.1 E20.87055
G1 X154 Y69.1 E22.06792
G1 X154.768 Y69.14 E22.09349
G1 X155.528 Y69.259 E22.11908
G1 X156.271 Y69.457 E22.14466
G1 X156.99 Y69.731 E22.17025
G1 X157.676 Y70.078 E22.19582
G1 X158.323 Y70.494 E22.2214
G1 X158.923 Y70.975 E22.24698
G1 X158.998 Y71.049 E22.25048
G1 X159.016 Y71.03 E22.25135
G1 X159.611 Y70.542 E22.27695
G1 X160.253 Y70.119 E22.30252
G1 X160.936 Y69.764 E22.32812
G1 X161.651 Y69.483 E22.35367
G1 X162.393 Y69.277 E22.37928
G1 X163.151 Y69.149 E22.40485
G1 X164 Y69.1 E22.43314
G1 X200 Y69.1 E23.6305
G1 X200.768 Y69.14 E23.65608
G1 X201.528 Y69.259 E23.68167
G1 X202.271 Y69.457 E23.70724
G1 X202.99 Y69.731 E23.73283
G1 X203.676 Y70.078 E23.7584
G1 X204.323 Y70.494 E23.78398
G1 X204.923 Y70.975 E23.80956
G1 X205.47 Y71.516 E23.83515
G1 X205.958 Y72.111 E23.86074
G1 X206.381 Y72.753 E23.88632
G1 X206.736 Y73.436 E23.91192
G1 X207.017 Y74.151 E23.93747
G1 X207.223 Y74.893 E23.96308
G1 X207.351 Y75.651 E23.98865
G1 X207.4 Y76.5 E24.01693
G1 X207.4 Y112.5 E25.2143
G1 X207.36 Y113.268 E25.23988
G1 X207.241 Y114.028 E25.26546
G1 X207.043 Y114.771 E25.29104
G1 X206.769 Y115.49 E25.31663
G1 X206.422 Y116.176 E25.3422
G1 X206.006 Y116.823 E25.36778
G1 X205.525 Y117.423 E25.39336
G1 X205.451 Y117.498 E25.39686
G1 X205.47 Y117.516 E25.39774
G1 X205.958 Y118.111 E25.42333
G1 X206.381 Y118.753 E25.4489
G1 X206.736 Y119.436 E25.4745
G1 X207.017 Y120.151 E25.50005
G1 X207.223 Y120.893 E25.52567
G1 X207.351 Y121.651 E25.55123
G1 X207.4 Y122.5 E25.57952
G1 X207.4 Y158.5 E26.77688
G1 X207.36 Y159.268 E26.80246
G1 X207.241 Y160.028 E26.82805
G1 X207.043 Y160.771 E26.85362
G1 X206.769 Y161.49 E26.87922
G1 X206.422 Y162.176 E26.90478
G1 X206.006 Y162.823 E26.93037
G1 X205.525 Y163.423 E26.95595
G1 X204.984 Y163.97 E26.98153
G1 X204.389 Y164.458 E27.00713
G1 X203.747 Y164.881 E27.0327
G1 X203.064 Y165.236 E27.0583
G1 X202.349 Y165.517 E27.08385
G1 X201.607 Y165.723 E27.10947
G1 X200.849 Y165.851 E27.13503
G1 X200 Y165.9 E27.16332
G1 X164 Y165.9 E28.36068
G1 X163.232 Y165.86 E28.38626
G1 X162.472 Y165.741 E28.41185
G1 X161.729 Y165.543 E28.43742
G1 X161.01 Y165.269 E28.46301
G1 X160.324 Y164.922 E28.48858
G1 X159.677 Y164.506 E28.51417
G1 X159.077 Y164.025 E28.53974
G1 X159.002 Y163.951 E28.54325
G1 X158.984 Y163.97 E28.54412
G1 X158.389 Y164.458 E28.56971
G1 X157.747 Y164.881 E28.59528
G1 X157.064 Y165.236 E28.62089
G1 X156.349 Y165.517 E28.64644
G1 X155.607 Y165.723 E28.67205
G1 X154.849 Y165.851 E28.69762
G1 X154 Y165.9 E28.7259
G1 X118 Y165.9 E29.92327
G1 X117.232 Y165.86 E29.94885
G1 X116.472 Y165.741 E29.97443
G1 X115.729 Y165.543 E30.00001
G1 X115.01 Y165.269 E30.0256
G1 X114.324 Y164.922 E30.05117
G1 X113.677 Y164.506 E30.07675
G1 X113.077 Y164.025 E30.10233
G1 X112.53 Y163.484 E30.12792
G1 X112.042 Y162.889 E30.15351
G1 X111.619 Y162.247 E30.17908
G1 X111.264 Y161.564 E30.20468
G1 X110.983 Y160.849 E30.23024
G1 X110.777 Y160.107 E30.25585
G1 X110.649 Y159.349 E30.28142
G1 X110.6 Y158.5 E30.3097
G1 X110.6 Y151.32 E30.54851
G1 X109.292 Y152.627 E30.61001
G1 X108.951 Y152.947 E30.62556
G1 X107.018 Y154.649 E30.71123
G1 X106.664 Y154.941 E30.72649
G1 X104.629 Y156.52 E30.81216
G1 X104.25 Y156.796 E30.82775
G1 X102.119 Y158.243 E30.91343
G1 X101.732 Y158.489 E30.92868
G1 X99.516 Y159.801 E31.01433
G1 X99.1 Y160.029 E31.03011
G1 X96.803 Y161.197 E31.11582
G1 X96.388 Y161.392 E31.13107
G1 X94.024 Y162.415 E31.21674
G1 X93.587 Y162.588 E31.23237
G1 X91.163 Y163.459 E31.31804
G1 X90.725 Y163.601 E31.33336
G1 X88.253 Y164.319 E31.41897
G1 X87.803 Y164.435 E31.43443
G1 X85.289 Y164.997 E31.52011
G1 X84.832 Y165.084 E31.53558
G1 X82.292 Y165.486 E31.62112
G1 X81.844 Y165.543 E31.63614
G1 X81.709 Y165.556 E31.64065
G1 X80.941 Y165.59 E31.66622
G1 X80.173 Y165.544 E31.69181
G1 X79.414 Y165.418 E31.7174
G1 X78.673 Y165.214 E31.74296
G1 X77.956 Y164.935 E31.76855
G1 X77.272 Y164.583 E31.79413
G1 X76.629 Y164.161 E31.81971
G1 X76.033 Y163.675 E31.84529
G1 X75.984 Y163.66 E31.847
G1 X75.389 Y164.148 E31.87259
G1 X74.747 Y164.571 E31.89816
G1 X74.064 Y164.926 E31.92376
G1 X73.349 Y165.207 E31.94932
G1 X72.607 Y165.413 E31.97493
G1 X71.849 Y165.541 E32.0005
G1 X71.081 Y165.59 E32.02609
G1 X70.311 Y165.558 E32.05172
G1 X70.172 Y165.545 E32.05637
G1 X69.701 Y165.486 E32.07216
G1 X67.149 Y165.081 E32.1581
G1 X66.692 Y164.993 E32.17358
