;FLAVOR:Marlin
;TIME:676
;Filament used: 0.403251m
;Layer height: 0.2
;MINX:94.75
;MINY:94.75
;MINZ:0.2
;MAXX:140.25
;MAXY:140.25
;MAXZ:5.6
;Generated with Cura_SteamEngine 4.10.0
M140 S50
M105
M190 S50
M104 S200
M105
M109 S200
M82 ;absolute extrusion mode
; Ender 3 Custom Start G-code
G92 E0 ; Reset Extruder
G28 ; Home all axes
G1 Z2.0 F3000 ; Move Z Axis up little to prevent scratching of Heat Bed
G1 X0.1 Y20 Z0.3 F5000.0 ; Move to start position
G1 X0.1 Y200.0 Z0.3 F1500.0 E15 ; Draw the first line
G1 X0.4 Y200.0 Z0.3 F5000.0 ; Move to side a little
G1 X0.4 Y20 Z0.3 F1500.0 E30 ; Draw the second line
G92 E0 ; Reset Extruder
G1 Z2.0 F3000 ; Move Z Axis up little to prevent scratching of Heat Bed
G1 X5 Y20 Z0.3 F5000.0 ; Move over to prevent blob squish
G92 E0
G92 E0
G1 F2700 E-5
;LAYER_COUNT:29
;LAYER:0
M107
G0 F6000 X97.948 Y98.014 Z0.2
;TYPE:SKIRT
G1 F2700 E0
G1 F1200 X98.636 Y97.377 E0.03119
G1 X99.376 Y96.801 E0.06237
G1 X100.162 Y96.289 E0.09357
G1 X100.989 Y95.847 E0.12476
G1 X101.851 Y95.477 E0.15596
G1 X102.741 Y95.181 E0.18716
G1 X103.653 Y94.963 E0.21835
G1 X104.58 Y94.822 E0.24953
G1 X105.451 Y94.763 E0.27857
G1 X105.772 Y94.754 E0.28925
G1 X106.08 Y94.75 E0.29949
G1 X128.543 Y94.75 E1.04662
G1 X129.399 Y94.761 E1.07509
G1 X130.335 Y94.815 E1.10627
G1 X131.263 Y94.947 E1.13745
G1 X132.177 Y95.159 E1.16866
G1 X133.069 Y95.448 E1.19984
G1 X133.934 Y95.811 E1.23104
G1 X134.764 Y96.247 E1.26223
G1 X135.555 Y96.752 E1.29344
G1 X136.299 Y97.323 E1.32463
G1 X136.992 Y97.955 E1.35583
G1 X137.629 Y98.643 E1.38701
G1 X138.204 Y99.384 E1.41821
G1 X138.715 Y100.17 E1.44939
G1 X139.157 Y100.998 E1.48061
G1 X139.526 Y101.86 E1.51179
G1 X139.821 Y102.75 E1.54298
G1 X140.039 Y103.662 E1.57417
G1 X140.179 Y104.59 E1.60538
G1 X140.237 Y105.451 E1.63408
G1 X140.246 Y105.771 E1.64473
G1 X140.25 Y106.08 E1.65501
G1 X140.249 Y128.65 E2.40569
G1 X140.24 Y129.377 E2.42987
G1 X140.189 Y130.314 E2.46108
G1 X140.057 Y131.242 E2.49226
G1 X139.848 Y132.156 E2.52344
G1 X139.561 Y133.049 E2.55464
G1 X139.199 Y133.915 E2.58586
G1 X138.765 Y134.746 E2.61704
G1 X138.261 Y135.537 E2.64824
G1 X137.692 Y136.282 E2.67942
G1 X137.061 Y136.977 E2.71064
G1 X136.374 Y137.615 E2.74182
G1 X135.635 Y138.192 E2.77301
G1 X134.849 Y138.704 E2.8042
G1 X134.023 Y139.147 E2.83538
G1 X133.161 Y139.519 E2.86661
G1 X132.272 Y139.815 E2.89777
G1 X131.36 Y140.035 E2.92897
G1 X130.433 Y140.176 E2.96016
G1 X129.549 Y140.237 E2.98963
G1 X129.228 Y140.246 E3.00031
G1 X128.92 Y140.25 E3.01056
G1 X106.315 Y140.249 E3.7624
G1 X105.617 Y140.24 E3.78562
G1 X104.681 Y140.188 E3.8168
G1 X103.752 Y140.056 E3.84801
G1 X102.838 Y139.846 E3.8792
G1 X101.945 Y139.559 E3.9104
G1 X101.08 Y139.196 E3.9416
G1 X100.249 Y138.762 E3.97278
G1 X99.458 Y138.258 E4.00398
G1 X98.713 Y137.688 E4.03518
G1 X98.019 Y137.057 E4.06637
G1 X97.382 Y136.37 E4.09753
G1 X96.805 Y135.63 E4.12874
G1 X96.293 Y134.844 E4.15994
G1 X95.85 Y134.017 E4.19115
G1 X95.479 Y133.156 E4.22233
G1 X95.183 Y132.266 E4.25352
G1 X94.964 Y131.354 E4.28472
G1 X94.823 Y130.427 E4.31591
G1 X94.763 Y129.538 E4.34554
G1 X94.754 Y129.205 E4.35662
G1 X94.75 Y128.908 E4.3665
G1 X94.751 Y106.275 E5.11928
G1 X94.76 Y105.61 E5.1414
G1 X94.813 Y104.674 E5.17258
G1 X94.945 Y103.745 E5.20379
G1 X95.156 Y102.831 E5.23499
G1 X95.444 Y101.939 E5.26616
G1 X95.807 Y101.074 E5.29736
G1 X96.242 Y100.243 E5.32856
G1 X96.746 Y99.453 E5.35973
G1 X97.316 Y98.708 E5.39093
G1 X97.948 Y98.014 E5.42215
G0 F6000 X98.339 Y98.189
G1 F1200 X99.024 Y97.573 E5.45279
G1 X99.76 Y97.02 E5.48341
G1 X100.541 Y96.532 E5.51404
G1 X101.361 Y96.114 E5.54465
G1 X102.215 Y95.769 E5.57528
G1 X103.095 Y95.499 E5.6059
G1 X103.995 Y95.307 E5.63651
G1 X104.909 Y95.193 E5.66714
G1 X105.462 Y95.163 E5.68556
G1 X105.783 Y95.154 E5.69624
G1 X106.08 Y95.15 E5.70612
G1 X128.543 Y95.15 E6.45325
G1 X129.393 Y95.161 E6.48152
G1 X130.312 Y95.214 E6.51214
G1 X131.223 Y95.347 E6.54276
G1 X132.119 Y95.558 E6.57337
G1 X132.993 Y95.846 E6.60398
G1 X133.84 Y96.209 E6.63463
G1 X134.651 Y96.644 E6.66524
G1 X135.421 Y97.148 E6.69585
G1 X136.145 Y97.717 E6.72647
G1 X136.817 Y98.347 E6.75711
G1 X137.432 Y99.032 E6.78773
G1 X137.985 Y99.768 E6.81835
G1 X138.472 Y100.549 E6.84896
G1 X138.889 Y101.37 E6.87959
G1 X139.234 Y102.224 E6.91022
G1 X139.503 Y103.104 E6.94083
G1 X139.695 Y104.005 E6.97147
G1 X139.808 Y104.918 E7.00207
G1 X139.837 Y105.462 E7.02019
G1 X139.846 Y105.782 E7.03083
G1 X139.85 Y106.08 E7.04075
G1 X139.849 Y128.645 E7.79126
G1 X139.84 Y129.372 E7.81544
G1 X139.789 Y130.291 E7.84606
G1 X139.658 Y131.203 E7.8767
G1 X139.448 Y132.099 E7.90731
G1 X139.162 Y132.974 E7.93793
G1 X138.801 Y133.821 E7.96855
G1 X138.367 Y134.633 E7.99917
G1 X137.865 Y135.405 E8.0298
G1 X137.297 Y136.13 E8.06043
G1 X136.669 Y136.803 E8.09105
G1 X135.985 Y137.419 E8.12167
G1 X135.25 Y137.973 E8.15228
G1 X134.47 Y138.462 E8.1829
G1 X133.65 Y138.881 E8.21353
G1 X132.797 Y139.227 E8.24414
G1 X131.917 Y139.498 E8.27477
G1 X131.017 Y139.691 E8.30538
G1 X130.103 Y139.806 E8.33602
G1 X129.538 Y139.837 E8.35484
G1 X129.217 Y139.846 E8.36552
G1 X128.92 Y139.85 E8.3754
G1 X106.32 Y139.849 E9.12708
G1 X105.622 Y139.84 E9.1503
G1 X104.703 Y139.788 E9.18091
G1 X103.792 Y139.657 E9.21152
G1 X102.896 Y139.447 E9.24213
G1 X102.021 Y139.16 E9.27276
G1 X101.174 Y138.798 E9.3034
G1 X100.362 Y138.364 E9.33402
G1 X99.591 Y137.862 E9.36462
G1 X98.866 Y137.294 E9.39525
G1 X98.193 Y136.665 E9.42589
G1 X97.578 Y135.981 E9.45649
G1 X97.024 Y135.246 E9.4871
G1 X96.536 Y134.465 E9.51773
G1 X96.117 Y133.645 E9.54836
G1 X95.771 Y132.792 E9.57897
G1 X95.501 Y131.912 E9.60959
G1 X95.308 Y131.011 E9.64023
G1 X95.194 Y130.098 E9.67084
G1 X95.163 Y129.527 E9.68986
G1 X95.154 Y129.194 E9.70094
G1 X95.15 Y128.908 E9.71045
G1 X95.151 Y106.281 E10.46303
G1 X95.16 Y105.616 E10.48515
G1 X95.212 Y104.696 E10.51579
G1 X95.344 Y103.785 E10.54641
G1 X95.555 Y102.889 E10.57703
G1 X95.842 Y102.014 E10.60766
G1 X96.205 Y101.168 E10.63827
G1 X96.639 Y100.356 E10.6689
G1 X97.142 Y99.585 E10.69952
G1 X97.711 Y98.861 E10.73014
G1 X98.339 Y98.189 E10.76073
G0 F6000 X98.731 Y98.367
G1 F1200 X99.412 Y97.774 E10.79077
G1 X100.144 Y97.244 E10.82083
G1 X100.919 Y96.781 E10.85085
G1 X101.732 Y96.388 E10.88089
G1 X102.577 Y96.068 E10.91094
G1 X103.446 Y95.825 E10.94095
G1 X104.334 Y95.659 E10.971
G1 X105.473 Y95.563 E11.00902
G1 X105.794 Y95.554 E11.0197
G1 X106.08 Y95.55 E11.02921
G1 X128.543 Y95.55 E11.77633
G1 X129.387 Y95.561 E11.80441
G1 X130.289 Y95.614 E11.83446
G1 X131.182 Y95.746 E11.86448
G1 X132.06 Y95.957 E11.89452
G1 X132.916 Y96.245 E11.92455
G1 X133.743 Y96.607 E11.95458
G1 X134.535 Y97.042 E11.98463
G1 X135.286 Y97.544 E12.01468
G1 X135.989 Y98.111 E12.04472
G1 X136.639 Y98.738 E12.07476
G1 X137.231 Y99.42 E12.10479
G1 X137.761 Y100.151 E12.13482
G1 X138.223 Y100.927 E12.16486
G1 X138.616 Y101.74 E12.1949
G1 X138.934 Y102.585 E12.22493
G1 X139.177 Y103.455 E12.25497
G1 X139.342 Y104.343 E12.28501
G1 X139.437 Y105.473 E12.32273
G1 X139.446 Y105.793 E12.33337
G1 X139.45 Y106.08 E12.34292
G1 X139.449 Y128.64 E13.09327
G1 X139.44 Y129.367 E13.11745
G1 X139.389 Y130.269 E13.1475
G1 X139.258 Y131.163 E13.17755
G1 X139.049 Y132.041 E13.20757
G1 X138.763 Y132.898 E13.23762
G1 X138.402 Y133.726 E13.26766
G1 X137.97 Y134.518 E13.29767
G1 X137.469 Y135.27 E13.32772
G1 X136.903 Y135.974 E13.35777
G1 X136.278 Y136.625 E13.38778
G1 X135.597 Y137.219 E13.41784
G1 X134.866 Y137.75 E13.44789
G1 X134.092 Y138.214 E13.4779
G1 X133.279 Y138.608 E13.50795
G1 X132.435 Y138.928 E13.53797
G1 X131.565 Y139.173 E13.56804
G1 X130.678 Y139.339 E13.59805
G1 X129.527 Y139.437 E13.63647
G1 X129.206 Y139.446 E13.64715
G1 X128.92 Y139.45 E13.65666
G1 X106.325 Y139.449 E14.40818
G1 X105.627 Y139.44 E14.43139
G1 X104.726 Y139.389 E14.46141
G1 X103.832 Y139.257 E14.49147
G1 X102.954 Y139.048 E14.52149
G1 X102.097 Y138.761 E14.55155
G1 X101.27 Y138.4 E14.58156
G1 X100.477 Y137.967 E14.61161
G1 X99.726 Y137.466 E14.64164
G1 X99.022 Y136.9 E14.67168
G1 X98.371 Y136.274 E14.70172
G1 X97.778 Y135.593 E14.73175
G1 X97.248 Y134.862 E14.76178
G1 X96.784 Y134.087 E14.79183
G1 X96.39 Y133.274 E14.82188
G1 X96.07 Y132.43 E14.8519
G1 X95.826 Y131.56 E14.88195
G1 X95.66 Y130.672 E14.912
G1 X95.563 Y129.517 E14.95055
G1 X95.554 Y129.184 E14.96163
G1 X95.55 Y128.908 E14.97081
G1 X95.551 Y106.286 E15.72322
G1 X95.56 Y105.621 E15.74534
G1 X95.612 Y104.719 E15.77539
G1 X95.744 Y103.826 E15.80541
G1 X95.954 Y102.948 E15.83544
G1 X96.241 Y102.091 E15.8655
G1 X96.603 Y101.264 E15.89552
G1 X97.036 Y100.472 E15.92555
G1 X97.538 Y99.721 E15.95559
G1 X98.105 Y99.017 E15.98566
G1 X98.731 Y98.367 E16.01567
G1 F2700 E11.01567
;MESH:Veneer4test.stl
G0 F6000 X106.17 Y105.085
G0 X106.17 Y106.17
G0 X128.468 Y106.532
G0 X128.65 Y128.65
;TYPE:WALL-INNER
G1 F2700 E16.01567
G1 F1200 X106.35 Y128.65 E16.75737
G1 X106.35 Y106.35 E17.49907
G1 X128.65 Y106.35 E18.24077
G1 X128.65 Y128.65 E18.98248
G0 F6000 X129.05 Y129.05
;TYPE:WALL-OUTER
G1 F1200 X105.95 Y129.05 E19.75078
G1 X105.95 Y105.95 E20.51909
G1 X129.05 Y105.95 E21.2874
G1 X129.05 Y129.05 E22.05571
G0 F6000 X128.78 Y128.78
G0 X128.54 Y128.26
G0 X128.26 Y128.26
;TYPE:SKIN
G1 F1200 X106.74 Y128.26 E22.77147
G1 X106.74 Y106.74 E23.48723
G1 X128.26 Y106.74 E24.20299
G1 X128.26 Y128.26 E24.91874
G0 F6000 X128.54 Y128.26
G0 X128.54 Y107.169
G0 X128.099 Y107.169
G1 F1200 X127.83 Y106.9 E24.9314
G0 F6000 X127.265 Y106.9
G1 F1200 X128.099 Y107.734 E24.97063
G0 F6000 X128.099 Y108.3
G1 F1200 X126.699 Y106.9 E25.03648
G0 F6000 X126.133 Y106.9
G1 F1200 X128.099 Y108.866 E25.12895
G0 F6000 X128.099 Y109.431
G1 F1200 X125.568 Y106.9 E25.248
G0 F6000 X125.002 Y106.9
G1 F1200 X128.099 Y109.997 E25.39368
G0 F6000 X128.099 Y110.563
G1 F1200 X124.436 Y106.9 E25.56597
G0 F6000 X123.87 Y106.9
G1 F1200 X128.099 Y111.128 E25.76487
G0 F6000 X128.099 Y111.694
G1 F1200 X123.305 Y106.9 E25.99036
G0 F6000 X122.739 Y106.9
G1 F1200 X128.099 Y112.26 E26.24248
G0 F6000 X128.099 Y112.825
G1 F1200 X122.173 Y106.9 E26.5212
G0 F6000 X121.608 Y106.9
G1 F1200 X128.099 Y113.391 E26.82652
G0 F6000 X128.099 Y113.957
G1 F1200 X121.042 Y106.9 E27.15845
G0 F6000 X120.476 Y106.9
G1 F1200 X128.099 Y114.523 E27.51702
G0 F6000 X128.099 Y115.088
G1 F1200 X119.911 Y106.9 E27.90216
G0 F6000 X119.345 Y106.9
G1 F1200 X128.099 Y115.654 E28.31392
G0 F6000 X128.099 Y116.22
G1 F1200 X118.779 Y106.9 E28.7523
G0 F6000 X118.214 Y106.9
G1 F1200 X128.099 Y116.785 E29.21726
G0 F6000 X128.099 Y117.351
G1 F1200 X117.648 Y106.9 E29.70884
G0 F6000 X117.082 Y106.9
G1 F1200 X128.099 Y117.917 E30.22705
G0 F6000 X128.099 Y118.482
G1 F1200 X116.517 Y106.9 E30.77183
G0 F6000 X115.951 Y106.9
G1 F1200 X128.099 Y119.048 E31.34324
G0 F6000 X128.099 Y119.614
G1 F1200 X115.385 Y106.9 E31.94126
G0 F6000 X114.819 Y106.9
G1 F1200 X128.099 Y120.179 E32.56589
G0 F6000 X128.099 Y120.745
G1 F1200 X114.254 Y106.9 E33.21712
G0 F6000 X113.688 Y106.9
G1 F1200 X128.099 Y121.311 E33.89497
G0 F6000 X128.099 Y121.876
G1 F1200 X113.122 Y106.9 E34.59942
G0 F6000 X112.557 Y106.9
G1 F1200 X128.099 Y122.442 E35.33046
G0 F6000 X128.099 Y123.008
G1 F1200 X111.991 Y106.9 E36.08813
G0 F6000 X111.425 Y106.9
G1 F1200 X128.099 Y123.573 E36.8724
G0 F6000 X128.099 Y124.139
G1 F1200 X110.86 Y106.9 E37.68327
G0 F6000 X110.294 Y106.9
G1 F1200 X128.099 Y124.705 E38.52077
G0 F6000 X128.099 Y125.271
G1 F1200 X109.728 Y106.9 E39.38488
G0 F6000 X109.163 Y106.9
G1 F1200 X128.099 Y125.836 E40.27557
G0 F6000 X128.099 Y126.402
G1 F1200 X108.597 Y106.9 E41.19289
G0 F6000 X108.031 Y106.9
G1 F1200 X128.099 Y126.968 E42.13683
G0 F6000 X128.099 Y127.533
G1 F1200 X107.466 Y106.9 E43.10734
G0 F6000 X106.899 Y106.899
G1 F1200 X128.099 Y128.099 E44.10452
G0 F6000 X127.533 Y128.099
G1 F1200 X106.899 Y107.465 E45.07508
G0 F6000 X106.899 Y108.031
G1 F1200 X126.968 Y128.099 E46.01904
G0 F6000 X126.402 Y128.099
G1 F1200 X106.899 Y108.596 E46.9364
G0 F6000 X106.899 Y109.162
G1 F1200 X125.836 Y128.099 E47.82714
G0 F6000 X125.271 Y128.099
G1 F1200 X106.899 Y109.728 E48.69128
G0 F6000 X106.899 Y110.293
G1 F1200 X124.705 Y128.099 E49.52882
G0 F6000 X124.139 Y128.099
G1 F1200 X106.899 Y110.859 E50.33974
G0 F6000 X106.899 Y111.425
G1 F1200 X123.573 Y128.099 E51.12403
G0 F6000 X123.008 Y128.099
G1 F1200 X106.899 Y111.99 E51.88175
G0 F6000 X106.899 Y112.556
G1 F1200 X122.442 Y128.099 E52.61284
G0 F6000 X121.876 Y128.099
G1 F1200 X106.899 Y113.122 E53.31732
G0 F6000 X106.899 Y113.687
G1 F1200 X121.311 Y128.099 E53.99521
G0 F6000 X120.745 Y128.099
G1 F1200 X106.899 Y114.253 E54.64649
G0 F6000 X106.899 Y114.819
G1 F1200 X120.179 Y128.099 E55.27114
G0 F6000 X119.614 Y128.099
G1 F1200 X106.899 Y115.384 E55.86921
G0 F6000 X106.899 Y115.95
G1 F1200 X119.048 Y128.099 E56.44066
G0 F6000 X118.482 Y128.099
G1 F1200 X106.899 Y116.516 E56.98549
G0 F6000 X106.899 Y117.082
G1 F1200 X117.917 Y128.099 E57.50372
G0 F6000 X117.351 Y128.099
G1 F1200 X106.899 Y117.647 E57.99535
G0 F6000 X106.899 Y118.213
G1 F1200 X116.785 Y128.099 E58.46036
G0 F6000 X116.22 Y128.099
G1 F1200 X106.899 Y118.779 E58.89877
G0 F6000 X106.899 Y119.344
G1 F1200 X115.654 Y128.099 E59.31057
G0 F6000 X115.088 Y128.099
G1 F1200 X106.899 Y119.91 E59.69576
G0 F6000 X106.899 Y120.476
G1 F1200 X114.523 Y128.099 E60.05435
G0 F6000 X113.957 Y128.099
G1 F1200 X106.899 Y121.041 E60.38633
G0 F6000 X106.899 Y121.607
G1 F1200 X113.391 Y128.099 E60.6917
G0 F6000 X112.825 Y128.099
G1 F1200 X106.899 Y122.173 E60.97044
G0 F6000 X106.899 Y122.738
G1 F1200 X112.26 Y128.099 E61.2226
G0 F6000 X111.694 Y128.099
G1 F1200 X106.899 Y123.304 E61.44814
G0 F6000 X106.899 Y123.87
G1 F1200 X111.128 Y128.099 E61.64706
G0 F6000 X110.563 Y128.099
G1 F1200 X106.899 Y124.435 E61.81941
G0 F6000 X106.899 Y125.001
G1 F1200 X109.997 Y128.099 E61.96513
G0 F6000 X109.431 Y128.099
G1 F1200 X106.899 Y125.567 E62.08423
G0 F6000 X106.899 Y126.133
G1 F1200 X108.866 Y128.099 E62.17672
G0 F6000 X108.3 Y128.099
G1 F1200 X106.899 Y126.698 E62.24262
G0 F6000 X106.899 Y127.264
G1 F1200 X107.734 Y128.099 E62.2819
G0 F6000 X107.169 Y128.099
G1 F1200 X106.899 Y127.83 E62.29457
G0 F6000 X106.55 Y127.83
;MESH:NONMESH
G0 F300 X106.55 Y127.83 Z0.4
G0 F6000 X106.46 Y127.83
G0 X106.532 Y128.468
G0 X128.65 Y128.65
;TIME_ELAPSED:106.244392
;LAYER:1
M106 S85
;TYPE:WALL-INNER
;MESH:Veneer4test.stl
G1 F1575 X106.35 Y128.65 E63.03628
G1 X106.35 Y106.35 E63.77798
G1 X128.65 Y106.35 E64.51968
G1 X128.65 Y128.65 E65.26138
G0 F7875 X129.05 Y129.05
;TYPE:WALL-OUTER
G1 F1575 X105.95 Y129.05 E66.02969
G1 X105.95 Y105.95 E66.798
G1 X129.05 Y105.95 E67.56631
G1 X129.05 Y129.05 E68.33461
G0 F7875 X128.78 Y128.78
G0 X128.54 Y128.26
G0 X128.26 Y128.26
;TYPE:SKIN
G1 F1575 X106.74 Y128.26 E69.05037
G1 X106.74 Y106.74 E69.76613
G1 X128.26 Y106.74 E70.48189
G1 X128.26 Y128.26 E71.19765
G0 F7875 X127.59 Y128.099
G1 F1575 X128.099 Y127.59 E71.22159
G0 F7875 X128.099 Y127.024
G1 F1575 X127.024 Y128.099 E71.27215
G0 F7875 X126.458 Y128.099
G1 F1575 X128.099 Y126.458 E71.34934
G0 F7875 X128.099 Y125.893
G1 F1575 X125.893 Y128.099 E71.4531
G0 F7875 X125.327 Y128.099
G1 F1575 X128.099 Y125.327 E71.58349
G0 F7875 X128.099 Y124.761
G1 F1575 X124.761 Y128.099 E71.7405
G0 F7875 X124.196 Y128.099
G1 F1575 X128.099 Y124.196 E71.92409
G0 F7875 X128.099 Y123.63
G1 F1575 X123.63 Y128.099 E72.13429
G0 F7875 X123.064 Y128.099
G1 F1575 X128.099 Y123.064 E72.37112
G0 F7875 X128.099 Y122.499
G1 F1575 X122.499 Y128.099 E72.63453
G0 F7875 X121.933 Y128.099
G1 F1575 X128.099 Y121.933 E72.92456
G0 F7875 X128.099 Y121.367
G1 F1575 X121.367 Y128.099 E73.24121
G0 F7875 X120.802 Y128.099
G1 F1575 X128.099 Y120.802 E73.58444
G0 F7875 X128.099 Y120.236
G1 F1575 X120.236 Y128.099 E73.95429
G0 F7875 X119.67 Y128.099
G1 F1575 X128.099 Y119.67 E74.35077
G0 F7875 X128.099 Y119.105
G1 F1575 X119.105 Y128.099 E74.77382
G0 F7875 X118.539 Y128.099
G1 F1575 X128.099 Y118.539 E75.22349
G0 F7875 X128.099 Y117.973
G1 F1575 X117.973 Y128.099 E75.69979
G0 F7875 X117.408 Y128.099
G1 F1575 X128.099 Y117.408 E76.20266
G0 F7875 X128.099 Y116.842
G1 F1575 X116.842 Y128.099 E76.73215
G0 F7875 X116.276 Y128.099
G1 F1575 X128.099 Y116.276 E77.28827
