;FLAVOR:Marlin
;TIME:9118
;Filament used: 8.07121m
;Layer height: 0.16
;MINX:42.4
;MINY:58.204
;MINZ:0.2
;MAXX:192.6
;MAXY:212.204
;MAXZ:1.4
;Generated with Cura_SteamEngine 4.10.0
M140 S50
M105
M190 S50
M104 S200
M105
M109 S200
M82 ;absolute extrusion mode
; Ender 3 Custom Start G-code
G92 E0 ; Reset Extruder
G28 ; Home all axes
G1 Z2.0 F3000 ; Move Z Axis up little to prevent scratching of Heat Bed
G1 X0.1 Y20 Z0.3 F5000.0 ; Move to start position
G1 X0.1 Y200.0 Z0.3 F1500.0 E15 ; Draw the first line
G1 X0.4 Y200.0 Z0.3 F5000.0 ; Move to side a little
G1 X0.4 Y20 Z0.3 F1500.0 E30 ; Draw the second line
G92 E0 ; Reset Extruder
G1 Z2.0 F3000 ; Move Z Axis up little to prevent scratching of Heat Bed
G1 X5 Y20 Z0.3 F5000.0 ; Move over to prevent blob squish
G92 E0
G92 E0
G1 F2700 E-5
;LAYER_COUNT:8
;LAYER:0
M107
G0 F6000 X67.059 Y61.786 Z0.2
;TYPE:SKIRT
G1 F2700 E0
G1 F1200 X67.545 Y61.315 E0.02251
G1 X68.245 Y60.691 E0.0537
G1 X68.997 Y60.13 E0.0849
G1 X69.793 Y59.635 E0.11608
G1 X70.629 Y59.209 E0.14729
G1 X71.498 Y58.856 E0.17849
G1 X72.393 Y58.578 E0.20966
G1 X73.31 Y58.378 E0.24087
G1 X74.239 Y58.256 E0.27204
G1 X74.829 Y58.22 E0.2917
G1 X75.214 Y58.21 E0.30451
G1 X75.757 Y58.204 E0.32257
G1 X180.908 Y58.204 E3.8199
G1 X181.76 Y58.215 E3.84824
G1 X182.697 Y58.269 E3.87946
G1 X183.625 Y58.402 E3.91064
G1 X184.539 Y58.613 E3.94184
G1 X185.431 Y58.902 E3.97303
G1 X186.296 Y59.266 E4.00424
G1 X187.126 Y59.702 E4.03542
G1 X187.916 Y60.207 E4.06661
G1 X188.661 Y60.777 E4.09781
G1 X189.354 Y61.409 E4.129
G1 X189.99 Y62.098 E4.16019
G1 X190.566 Y62.838 E4.19138
G1 X191.076 Y63.625 E4.22257
G1 X191.518 Y64.453 E4.25379
G1 X191.888 Y65.315 E4.28499
G1 X192.182 Y66.205 E4.31616
G1 X192.4 Y67.117 E4.34735
G1 X192.54 Y68.045 E4.37857
G1 X192.6 Y68.981 E4.40976
G1 X192.579 Y69.918 E4.44093
G1 X192.48 Y70.851 E4.47214
G1 X192.393 Y71.348 E4.48892
G1 X192.199 Y72.323 E4.52199
G1 X192.009 Y73.206 E4.55203
G1 X191.544 Y75.708 E4.63667
G1 X191.158 Y78.17 E4.71955
G1 X190.842 Y80.649 E4.80267
G1 X190.591 Y83.164 E4.88674
G1 X190.413 Y85.698 E4.97123
G1 X190.308 Y88.183 E5.05395
G1 X190.272 Y90.714 E5.13814
G1 X190.308 Y93.23 E5.22183
G1 X190.416 Y95.763 E5.30616
G1 X190.592 Y98.238 E5.38868
G1 X190.841 Y100.745 E5.47248
G1 X191.167 Y103.286 E5.55768
G1 X191.545 Y105.7 E5.63895
G1 X192.17 Y108.985 E5.75017
G1 X192.373 Y109.961 E5.78333
G1 X192.525 Y110.887 E5.81454
G1 X192.597 Y111.822 E5.84573
G1 X192.59 Y112.76 E5.87693
G1 X192.544 Y113.356 E5.89681
G1 X192.484 Y113.926 E5.91587
G1 X192.277 Y115.648 E5.97356
G1 X192.047 Y118.162 E6.05753
G1 X191.889 Y120.677 E6.14134
G1 X191.801 Y123.173 E6.22441
G1 X191.785 Y125.727 E6.30936
G1 X191.84 Y128.223 E6.39239
G1 X191.965 Y130.73 E6.47588
G1 X192.17 Y133.339 E6.56292
G1 X192.247 Y134.164 E6.59048
G1 X192.295 Y135.1 E6.62166
G1 X192.237 Y136.313 E6.66205
G1 X192.204 Y136.633 E6.67275
G1 X191.974 Y139.159 E6.75711
G1 X191.814 Y141.687 E6.84136
G1 X191.728 Y144.175 E6.92416
G1 X191.712 Y146.733 E7.00924
G1 X191.766 Y149.221 E7.09201
G1 X191.893 Y151.74 E7.1759
G1 X192.091 Y154.257 E7.25987
G1 X192.297 Y156.245 E7.32635
G1 X192.379 Y156.971 E7.35065
G1 X192.445 Y157.906 E7.38183
G1 X192.431 Y158.844 E7.41303
G1 X192.337 Y159.777 E7.44422
G1 X192.236 Y160.361 E7.46393
G1 X192.04 Y161.339 E7.4971
G1 X191.857 Y162.191 E7.52609
G1 X191.389 Y164.708 E7.61124
G1 X191.003 Y167.17 E7.69412
G1 X190.687 Y169.649 E7.77724
G1 X190.436 Y172.164 E7.86131
G1 X190.258 Y174.698 E7.9458
G1 X190.153 Y177.183 E8.02852
G1 X190.117 Y179.714 E8.11271
G1 X190.153 Y182.23 E8.1964
G1 X190.261 Y184.763 E8.28073
G1 X190.437 Y187.238 E8.36325
G1 X190.686 Y189.745 E8.44705
G1 X191.012 Y192.286 E8.53225
G1 X191.391 Y194.706 E8.61373
G1 X192.017 Y198.001 E8.72528
G1 X192.213 Y198.937 E8.75708
G1 X192.366 Y199.862 E8.78827
G1 X192.439 Y200.797 E8.81946
G1 X192.432 Y201.735 E8.85066
G1 X192.346 Y202.669 E8.88186
G1 X192.18 Y203.592 E8.91305
G1 X191.936 Y204.498 E8.94425
G1 X191.616 Y205.379 E8.97543
G1 X191.222 Y206.23 E9.00662
G1 X190.757 Y207.045 E9.03783
G1 X190.224 Y207.817 E9.06903
G1 X189.627 Y208.54 E9.10022
G1 X188.971 Y209.21 E9.1314
G1 X188.26 Y209.822 E9.16261
G1 X187.5 Y210.371 E9.19379
G1 X186.695 Y210.854 E9.22501
G1 X185.853 Y211.266 E9.25619
G1 X184.978 Y211.604 E9.28739
G1 X184.078 Y211.867 E9.31858
G1 X183.159 Y212.053 E9.34976
G1 X182.227 Y212.159 E9.38096
G1 X181.652 Y212.185 E9.4001
G1 X180.743 Y212.202 E9.43034
G1 X180.537 Y212.204 E9.43719
G1 X75.59 Y212.203 E12.92775
G1 X74.888 Y212.193 E12.9511
G1 X73.952 Y212.14 E12.98228
G1 X73.024 Y212.007 E13.01346
G1 X72.11 Y211.795 E13.04467
G1 X71.217 Y211.507 E13.07587
G1 X70.353 Y211.143 E13.10706
G1 X69.522 Y210.707 E13.13827
G1 X68.732 Y210.202 E13.16945
G1 X67.988 Y209.632 E13.20063
G1 X67.564 Y209.259 E13.21941
G1 X67.412 Y209.118 E13.22631
G1 X67.196 Y208.911 E13.23626
G1 X66.92 Y208.64 E13.24912
G1 X46.13 Y187.849 E14.22704
G1 X45.66 Y187.365 E14.24948
G1 X45.035 Y186.665 E14.28069
G1 X44.473 Y185.914 E14.31189
G1 X43.977 Y185.119 E14.34306
G1 X43.55 Y184.283 E14.37428
G1 X43.197 Y183.415 E14.40545
G1 X42.918 Y182.519 E14.43666
G1 X42.717 Y181.603 E14.46785
G1 X42.594 Y180.673 E14.49905
G1 X42.551 Y179.737 E14.53022
G1 X42.611 Y178.558 E14.56948
G1 X42.636 Y178.316 E14.57757
G1 X42.871 Y175.742 E14.66354
G1 X43.031 Y173.213 E14.74782
G1 X43.117 Y170.726 E14.83059
G1 X43.133 Y168.166 E14.91574
G1 X43.079 Y165.678 E14.99851
G1 X42.952 Y163.161 E15.08233
G1 X42.754 Y160.64 E15.16644
G1 X42.547 Y158.643 E15.23321
G1 X42.467 Y157.952 E15.25635
G1 X42.4 Y157.017 E15.28753
G1 X42.412 Y156.079 E15.31873
G1 X42.505 Y155.146 E15.34991
G1 X42.608 Y154.54 E15.37036
G1 X42.805 Y153.561 E15.40357
G1 X42.988 Y152.709 E15.43256
G1 X43.456 Y150.192 E15.51771
G1 X43.842 Y147.73 E15.60059
G1 X44.158 Y145.251 E15.68371
G1 X44.409 Y142.736 E15.76778
G1 X44.587 Y140.202 E15.85227
G1 X44.692 Y137.717 E15.93499
G1 X44.728 Y135.186 E16.01918
G1 X44.692 Y132.67 E16.10287
G1 X44.584 Y130.137 E16.1872
G1 X44.408 Y127.661 E16.26976
G1 X44.159 Y125.155 E16.35352
G1 X43.833 Y122.618 E16.43859
G1 X43.453 Y120.19 E16.52033
G1 X42.837 Y116.947 E16.63012
G1 X42.627 Y115.941 E16.6643
G1 X42.475 Y115.015 E16.69551
G1 X42.403 Y114.08 E16.7267
G1 X42.41 Y113.142 E16.7579
G1 X42.456 Y112.544 E16.77785
G1 X42.516 Y111.974 E16.79691
G1 X42.723 Y110.252 E16.8546
G1 X42.953 Y107.738 E16.93857
G1 X43.111 Y105.223 E17.02238
G1 X43.199 Y102.727 E17.10545
G1 X43.215 Y100.173 E17.1904
G1 X43.16 Y97.677 E17.27343
G1 X43.035 Y95.17 E17.35692
G1 X42.83 Y92.559 E17.44403
G1 X42.752 Y91.708 E17.47245
G1 X42.706 Y90.771 E17.50366
G1 X42.741 Y89.834 E17.53484
G1 X42.855 Y88.903 E17.56604
G1 X43.048 Y87.985 E17.59724
G1 X43.319 Y87.087 E17.62844
G1 X43.665 Y86.216 E17.65961
G1 X44.084 Y85.377 E17.6908
G1 X44.573 Y84.576 E17.72201
G1 X45.128 Y83.821 E17.75318
G1 X45.683 Y83.181 E17.78136
G1 X45.895 Y82.955 E17.79166
G1 X46.14 Y82.703 E17.80335
G1 X67.059 Y61.786 E18.78727
G0 F6000 X67.337 Y62.073
G1 F1200 X67.823 Y61.602 E18.80978
G1 X68.511 Y60.991 E18.84039
G1 X69.25 Y60.441 E18.87102
G1 X70.034 Y59.958 E18.90165
G1 X70.856 Y59.545 E18.93225
G1 X71.712 Y59.204 E18.96289
G1 X72.594 Y58.939 E18.99353
G1 X73.495 Y58.752 E19.02413
G1 X74.842 Y58.62 E19.06915
G1 X75.218 Y58.61 E19.08166
G1 X75.757 Y58.604 E19.09959
G1 X180.908 Y58.604 E22.59692
G1 X181.755 Y58.615 E22.6251
G1 X182.674 Y58.668 E22.65571
G1 X183.585 Y58.801 E22.68633
G1 X184.481 Y59.012 E22.71695
G1 X185.355 Y59.301 E22.74757
G1 X186.201 Y59.664 E22.77819
G1 X187.013 Y60.099 E22.80883
G1 X187.783 Y60.603 E22.83943
G1 X188.507 Y61.172 E22.87006
G1 X189.179 Y61.801 E22.90068
G1 X189.794 Y62.487 E22.93132
G1 X190.346 Y63.223 E22.96192
G1 X190.833 Y64.004 E22.99253
G1 X191.251 Y64.825 E23.02317
G1 X191.595 Y65.679 E23.05379
G1 X191.864 Y66.559 E23.0844
G1 X192.056 Y67.459 E23.11501
G1 X192.169 Y68.373 E23.14564
G1 X192.202 Y69.293 E23.17626
G1 X192.155 Y70.213 E23.2069
G1 X192.001 Y71.27 E23.24242
G1 X191.808 Y72.239 E23.27529
G1 X191.61 Y73.161 E23.30665
G1 X191.155 Y75.604 E23.3893
G1 X190.765 Y78.095 E23.47316
G1 X190.441 Y80.63 E23.55816
G1 X190.193 Y83.129 E23.64169
G1 X190.015 Y85.653 E23.72585
G1 X189.908 Y88.196 E23.8105
G1 X189.872 Y90.714 E23.89426
G1 X189.908 Y93.253 E23.97872
G1 X190.016 Y95.772 E24.06257
G1 X190.193 Y98.273 E24.14597
G1 X190.444 Y100.799 E24.2304
G1 X190.769 Y103.327 E24.31517
G1 X191.153 Y105.776 E24.39762
G1 X191.782 Y109.085 E24.50965
G1 X191.981 Y110.043 E24.54219
G1 X192.13 Y110.951 E24.57279
G1 X192.199 Y111.87 E24.60345
G1 X192.188 Y112.79 E24.63405
G1 X192.146 Y113.314 E24.65153
G1 X192.068 Y114.039 E24.67578
G1 X191.881 Y115.597 E24.72798
G1 X191.648 Y118.137 E24.81281
G1 X191.488 Y120.674 E24.89736
G1 X191.401 Y123.156 E24.97996
G1 X191.385 Y125.733 E25.06568
G1 X191.439 Y128.215 E25.14825
G1 X191.567 Y130.78 E25.23367
G1 X191.769 Y133.339 E25.31904
G1 X191.849 Y134.201 E25.34784
G1 X191.895 Y135.12 E25.37844
G1 X191.839 Y136.272 E25.4168
G1 X191.812 Y136.534 E25.42556
G1 X191.575 Y139.13 E25.51226
G1 X191.416 Y141.649 E25.59621
G1 X191.328 Y144.193 E25.68088
G1 X191.312 Y146.739 E25.76556
G1 X191.366 Y149.215 E25.84793
G1 X191.496 Y151.791 E25.93372
G1 X191.692 Y154.289 E26.01706
G1 X191.889 Y156.195 E26.08079
G1 X191.982 Y157.016 E26.10827
G1 X192.045 Y157.934 E26.13887
G1 X192.029 Y158.855 E26.16951
G1 X191.933 Y159.77 E26.20011
G1 X191.844 Y160.283 E26.21743
G1 X191.649 Y161.255 E26.2504
G1 X191.457 Y162.146 E26.28072
G1 X191 Y164.604 E26.36387
G1 X190.61 Y167.095 E26.44773
G1 X190.286 Y169.63 E26.53273
G1 X190.038 Y172.129 E26.61626
G1 X189.86 Y174.653 E26.70041
G1 X189.753 Y177.196 E26.78507
G1 X189.717 Y179.714 E26.86883
G1 X189.753 Y182.253 E26.95328
G1 X189.861 Y184.772 E27.03714
G1 X190.038 Y187.273 E27.12053
G1 X190.289 Y189.799 E27.20496
G1 X190.614 Y192.327 E27.28974
G1 X190.999 Y194.782 E27.37239
G1 X191.619 Y198.047 E27.48292
G1 X191.822 Y199.019 E27.51595
G1 X191.971 Y199.927 E27.54655
G1 X192.04 Y200.845 E27.57717
G1 X192.03 Y201.766 E27.60781
G1 X191.94 Y202.682 E27.63842
G1 X191.771 Y203.587 E27.66904
G1 X191.523 Y204.474 E27.69967
G1 X191.2 Y205.336 E27.73029
G1 X190.803 Y206.167 E27.76092
G1 X190.336 Y206.96 E27.79153
G1 X189.802 Y207.71 E27.82215
G1 X189.204 Y208.41 E27.85277
G1 X188.548 Y209.056 E27.8834
G1 X187.838 Y209.643 E27.91404
G1 X187.081 Y210.165 E27.94462
G1 X186.28 Y210.62 E27.97526
G1 X185.443 Y211.004 E28.00589
G1 X184.577 Y211.314 E28.03648
G1 X183.686 Y211.548 E28.06712
G1 X182.779 Y211.703 E28.09773
G1 X181.644 Y211.785 E28.13557
G1 X180.537 Y211.804 E28.1724
G1 X75.596 Y211.803 E31.66275
G1 X74.894 Y211.793 E31.6861
G1 X73.975 Y211.74 E31.71672
G1 X73.064 Y211.607 E31.74734
G1 X72.168 Y211.396 E31.77796
G1 X71.293 Y211.108 E31.80859
G1 X70.447 Y210.745 E31.83921
G1 X69.636 Y210.31 E31.86982
G1 X68.865 Y209.806 E31.90046
G1 X67.836 Y208.965 E31.94466
G1 X67.684 Y208.824 E31.95156
G1 X67.476 Y208.626 E31.96111
G1 X67.203 Y208.358 E31.97383
G1 X46.416 Y187.571 E32.95159
G1 X45.946 Y187.087 E32.97403
G1 X45.334 Y186.399 E33.00465
G1 X44.784 Y185.661 E33.03527
G1 X44.3 Y184.877 E33.06591
G1 X43.886 Y184.055 E33.09652
G1 X43.545 Y183.2 E33.12714
G1 X43.279 Y182.319 E33.15775
G1 X43.091 Y181.418 E33.18836
G1 X42.981 Y180.503 E33.21901
G1 X42.952 Y179.583 E33.24963
G1 X43.008 Y178.6 E33.28237
G1 X43.04 Y178.294 E33.29261
G1 X43.27 Y175.771 E33.37687
G1 X43.429 Y173.251 E33.46085
G1 X43.517 Y170.707 E33.54552
G1 X43.533 Y168.16 E33.63023
G1 X43.479 Y165.685 E33.71257
G1 X43.349 Y163.108 E33.79839
G1 X43.153 Y160.611 E33.8817
G1 X42.958 Y158.724 E33.94479
G1 X42.864 Y157.907 E33.97215
G1 X42.799 Y156.988 E34.00279
G1 X42.814 Y156.068 E34.03339
G1 X42.908 Y155.152 E34.06402
G1 X43 Y154.619 E34.08201
G1 X43.196 Y153.645 E34.11505
G1 X43.388 Y152.754 E34.14537
G1 X43.845 Y150.296 E34.22852
G1 X44.235 Y147.805 E34.31238
G1 X44.559 Y145.27 E34.39738
G1 X44.807 Y142.771 E34.48091
G1 X44.985 Y140.247 E34.56507
G1 X45.092 Y137.704 E34.64972
G1 X45.128 Y135.186 E34.73348
G1 X45.092 Y132.647 E34.81793
G1 X44.984 Y130.125 E34.90189
G1 X44.807 Y127.632 E34.98502
G1 X44.555 Y125.097 E35.06975
G1 X44.232 Y122.577 E35.15425
G1 X43.846 Y120.114 E35.23717
G1 X43.225 Y116.848 E35.34774
G1 X43.019 Y115.859 E35.38134
G1 X42.87 Y114.95 E35.41198
G1 X42.801 Y114.032 E35.4426
G1 X42.812 Y113.112 E35.4732
G1 X42.854 Y112.586 E35.49075
G1 X42.932 Y111.861 E35.515
G1 X43.119 Y110.303 E35.5672
G1 X43.352 Y107.763 E35.65203
G1 X43.512 Y105.226 E35.73658
G1 X43.599 Y102.744 E35.81918
G1 X43.615 Y100.167 E35.9049
G1 X43.561 Y97.685 E35.98747
G1 X43.433 Y95.12 E36.07289
G1 X43.232 Y92.571 E36.15793
G1 X43.15 Y91.672 E36.18795
G1 X43.106 Y90.752 E36.21859
G1 X43.142 Y89.832 E36.24921
G1 X43.258 Y88.919 E36.27982
G1 X43.452 Y88.019 E36.31044
G1 X43.724 Y87.139 E36.34108
G1 X44.072 Y86.287 E36.37169
G1 X44.492 Y85.467 E36.40233
G1 X44.981 Y84.688 E36.43292
G1 X45.536 Y83.953 E36.46355
G1 X45.975 Y83.455 E36.48564
G1 X46.187 Y83.229 E36.49594
G1 X46.423 Y82.986 E36.50721
G1 X67.337 Y62.073 E37.49092
G0 F6000 X67.615 Y62.36
G1 F1200 X68.101 Y61.889 E37.51343
G1 X68.777 Y61.29 E37.54347
G1 X69.503 Y60.753 E37.5735
G1 X70.274 Y60.282 E37.60355
G1 X71.083 Y59.882 E37.63357
G1 X71.925 Y59.554 E37.66362
G1 X72.792 Y59.302 E37.69365
G1 X73.678 Y59.128 E37.72368
G1 X74.856 Y59.02 E37.76303
G1 X75.223 Y59.01 E37.77524
G1 X75.757 Y59.004 E37.793
G1 X180.908 Y59.004 E41.29034
G1 X181.749 Y59.015 E41.31831
G1 X182.651 Y59.068 E41.34836
G1 X183.544 Y59.201 E41.37839
G1 X184.422 Y59.412 E41.40843
G1 X185.278 Y59.699 E41.43846
G1 X186.105 Y60.062 E41.46849
G1 X186.897 Y60.496 E41.49853
G1 X187.647 Y60.999 E41.52857
G1 X188.35 Y61.566 E41.55861
G1 X189 Y62.192 E41.58862
G1 X189.593 Y62.874 E41.61868
G1 X190.122 Y63.606 E41.64872
G1 X190.585 Y64.382 E41.67877
G1 X190.977 Y65.195 E41.70879
G1 X191.296 Y66.04 E41.73883
G1 X191.538 Y66.91 E41.76887
G1 X191.703 Y67.798 E41.79891
G1 X191.789 Y68.697 E41.82895
G1 X191.795 Y69.6 E41.85898
G1 X191.721 Y70.5 E41.88902
G1 X191.608 Y71.193 E41.91237
G1 X191.417 Y72.154 E41.94496
G1 X191.22 Y73.068 E41.97606
G1 X190.761 Y75.54 E42.05968
G1 X190.367 Y78.053 E42.14429
G1 X190.045 Y80.572 E42.22875
G1 X189.794 Y83.098 E42.31318
G1 X189.614 Y85.644 E42.39807
G1 X189.508 Y88.173 E42.48226
G1 X189.472 Y90.714 E42.56678
G1 X189.508 Y93.242 E42.65087
G1 X189.618 Y95.818 E42.73663
G1 X189.794 Y98.302 E42.81945
G1 X190.048 Y100.857 E42.90485
G1 X190.371 Y103.369 E42.98909
G1 X190.76 Y105.852 E43.07268
G1 X191.381 Y109.119 E43.18329
G1 X191.59 Y110.124 E43.21743
G1 X191.735 Y111.016 E43.24749
G1 X191.8 Y111.917 E43.27753
G1 X191.785 Y112.82 E43.30757
G1 X191.748 Y113.272 E43.32265
G1 X191.671 Y113.991 E43.3467
G1 X191.48 Y115.583 E43.40003
G1 X191.252 Y118.073 E43.4832
G1 X191.09 Y120.636 E43.56861
G1 X191.001 Y123.175 E43.65311
G1 X190.985 Y125.704 E43.73723
G1 X191.042 Y128.281 E43.82296
G1 X191.165 Y130.763 E43.90562
G1 X191.373 Y133.403 E43.99369
G1 X191.451 Y134.238 E44.02159
G1 X191.495 Y135.14 E44.05162
G1 X191.441 Y136.231 E44.08795
G1 X191.42 Y136.432 E44.09468
G1 X191.176 Y139.105 E44.18395
G1 X191.016 Y141.646 E44.26863
G1 X190.928 Y144.177 E44.35286
G1 X190.912 Y146.71 E44.43711
G1 X190.968 Y149.279 E44.52258
G1 X191.094 Y151.771 E44.60557
G1 X191.298 Y154.362 E44.69201
G1 X191.5 Y156.317 E44.75738
G1 X191.584 Y157.061 E44.78229
G1 X191.646 Y157.962 E44.81232
G1 X191.628 Y158.865 E44.84236
G1 X191.452 Y160.205 E44.88732
G1 X191.258 Y161.171 E44.92009
G1 X191.067 Y162.06 E44.95033
G1 X190.606 Y164.54 E45.03423
G1 X190.212 Y167.053 E45.11883
G1 X189.89 Y169.572 E45.20329
G1 X189.639 Y172.098 E45.28772
G1 X189.459 Y174.644 E45.37262
G1 X189.353 Y177.173 E45.4568
G1 X189.317 Y179.714 E45.54133
G1 X189.353 Y182.242 E45.62542
G1 X189.463 Y184.818 E45.71117
G1 X189.639 Y187.302 E45.794
G1 X189.893 Y189.857 E45.8794
G1 X190.216 Y192.369 E45.96363
G1 X190.605 Y194.852 E46.04723
G1 X191.233 Y198.157 E46.15912
G1 X191.43 Y199.101 E46.19119
G1 X191.576 Y199.992 E46.22122
G1 X191.642 Y200.893 E46.25127
G1 X191.628 Y201.796 E46.28131
G1 X191.534 Y202.694 E46.31134
