;FLAVOR:Marlin
;TIME:13760
;Filament used: 7.82932m
;Layer height: 0.16
;MINX:4.9
;MINY:69.65
;MINZ:0.2
;MAXX:230.1
;MAXY:160.8
;MAXZ:5.56
;Generated with Cura_SteamEngine 4.10.0
M140 S50
M105
M190 S50
M104 S200
M105
M109 S200
M82 ;absolute extrusion mode
; Ender 3 Custom Start G-code
G92 E0 ; Reset Extruder
G28 ; Home all axes
G1 Z2.0 F3000 ; Move Z Axis up little to prevent scratching of Heat Bed
G1 X0.1 Y20 Z0.3 F5000.0 ; Move to start position
G1 X0.1 Y200.0 Z0.3 F1500.0 E15 ; Draw the first line
G1 X0.4 Y200.0 Z0.3 F5000.0 ; Move to side a little
G1 X0.4 Y20 Z0.3 F1500.0 E30 ; Draw the second line
G92 E0 ; Reset Extruder
G1 Z2.0 F3000 ; Move Z Axis up little to prevent scratching of Heat Bed
G1 X5 Y20 Z0.3 F5000.0 ; Move over to prevent blob squish
G92 E0
G92 E0
G1 F2700 E-5
;LAYER_COUNT:37
;LAYER:0
M107
G0 F6000 X59.011 Y72.099 Z0.2
;TYPE:SKIRT
G1 F2700 E0
G1 F1200 X59.766 Y71.541 E0.03123
G1 X60.565 Y71.051 E0.0624
G1 X61.403 Y70.629 E0.09361
G1 X62.274 Y70.281 E0.1248
G1 X63.171 Y70.009 E0.15598
G1 X64.088 Y69.813 E0.18717
G1 X65.019 Y69.697 E0.21837
G1 X65.581 Y69.665 E0.23709
G1 X65.907 Y69.655 E0.24794
G1 X66.244 Y69.65 E0.25915
G1 X167.307 Y69.65 E3.62052
G1 X168.166 Y69.661 E3.64909
G1 X169.102 Y69.714 E3.68027
G1 X170.03 Y69.847 E3.71146
G1 X170.944 Y70.059 E3.74266
G1 X171.837 Y70.347 E3.77387
G1 X172.701 Y70.711 E3.80505
G1 X173.532 Y71.147 E3.83627
G1 X174.322 Y71.652 E3.86745
G1 X175.417 Y72.529 E3.91411
G1 X175.659 Y72.754 E3.9251
G1 X177.505 Y74.521 E4.01009
G1 X179.398 Y76.232 E4.09496
G1 X181.296 Y77.853 E4.17798
G1 X183.256 Y79.434 E4.26174
G1 X185.265 Y80.962 E4.34569
G1 X187.308 Y82.427 E4.4293
G1 X189.396 Y83.836 E4.51308
G1 X191.548 Y85.202 E4.59786
G1 X193.68 Y86.471 E4.68038
G1 X195.882 Y87.7 E4.76425
G1 X198.116 Y88.865 E4.84805
G1 X200.362 Y89.957 E4.93112
G1 X202.699 Y91.01 E5.01637
G1 X204.999 Y91.972 E5.09929
G1 X207.357 Y92.882 E5.18336
G1 X209.722 Y93.713 E5.26673
G1 X212.117 Y94.483 E5.35041
G1 X214.568 Y95.197 E5.43531
G1 X215.457 Y95.498 E5.46653
G1 X216.316 Y95.873 E5.49771
G1 X217.141 Y96.32 E5.52891
G1 X217.924 Y96.835 E5.56009
G1 X218.661 Y97.416 E5.5913
G1 X219.346 Y98.057 E5.6225
G1 X219.973 Y98.754 E5.65368
G1 X220.539 Y99.502 E5.68488
G1 X221.039 Y100.295 E5.71606
G1 X221.469 Y101.129 E5.74727
G1 X221.827 Y101.995 E5.77844
G1 X222.11 Y102.89 E5.80966
G1 X222.332 Y103.894 E5.84386
G1 X222.452 Y104.59 E5.86735
G1 X222.915 Y107.067 E5.95116
G1 X223.456 Y109.568 E6.03627
G1 X224.053 Y111.993 E6.11933
G1 X224.728 Y114.434 E6.20357
G1 X225.46 Y116.819 E6.28655
G1 X226.278 Y119.235 E6.37138
G1 X227.139 Y121.561 E6.45388
G1 X228.093 Y123.93 E6.53882
G1 X229.172 Y126.404 E6.62859
G1 X229.51 Y127.279 E6.65979
G1 X229.773 Y128.18 E6.69101
G1 X229.957 Y129.099 E6.72218
G1 X230.085 Y130.467 E6.76788
G1 X230.095 Y130.794 E6.77876
G1 X230.1 Y131.13 E6.78994
G1 X230.099 Y149.2 E7.39095
G1 X230.09 Y149.927 E7.41513
G1 X230.039 Y150.864 E7.44634
G1 X229.907 Y151.792 E7.47751
G1 X229.698 Y152.706 E7.5087
G1 X229.411 Y153.599 E7.5399
G1 X229.049 Y154.465 E7.57112
G1 X228.615 Y155.296 E7.6023
G1 X228.111 Y156.087 E7.63349
G1 X227.542 Y156.832 E7.66467
G1 X226.911 Y157.527 E7.69589
G1 X226.224 Y158.165 E7.72708
G1 X225.485 Y158.742 E7.75826
G1 X224.699 Y159.254 E7.78946
G1 X223.873 Y159.697 E7.82063
G1 X223.011 Y160.069 E7.85186
G1 X222.122 Y160.365 E7.88302
G1 X221.21 Y160.585 E7.91423
G1 X220.283 Y160.726 E7.94541
G1 X219.399 Y160.787 E7.97489
G1 X219.078 Y160.796 E7.98557
G1 X218.77 Y160.8 E7.99581
G1 X16.465 Y160.799 E14.7245
G1 X15.767 Y160.79 E14.74772
G1 X14.831 Y160.738 E14.7789
G1 X13.902 Y160.606 E14.81011
G1 X12.988 Y160.396 E14.8413
G1 X12.095 Y160.109 E14.8725
G1 X11.23 Y159.746 E14.9037
G1 X10.399 Y159.312 E14.93488
G1 X9.608 Y158.808 E14.96608
G1 X8.863 Y158.238 E14.99728
G1 X8.169 Y157.607 E15.02847
G1 X7.532 Y156.92 E15.05963
G1 X6.955 Y156.18 E15.09084
G1 X6.443 Y155.394 E15.12204
G1 X6 Y154.567 E15.15325
G1 X5.629 Y153.706 E15.18443
G1 X5.333 Y152.816 E15.21563
G1 X5.114 Y151.904 E15.24682
G1 X4.973 Y150.977 E15.27801
G1 X4.913 Y150.088 E15.30764
G1 X4.904 Y149.755 E15.31872
G1 X4.9 Y149.458 E15.3286
G1 X4.901 Y131.336 E15.93134
G1 X4.912 Y130.627 E15.95493
G1 X4.967 Y129.691 E15.98611
G1 X5.101 Y128.763 E16.0173
G1 X5.314 Y127.849 E16.04851
G1 X5.603 Y126.957 E16.0797
G1 X5.825 Y126.407 E16.09943
G1 X6.327 Y125.254 E16.14125
G1 X6.474 Y124.927 E16.15318
G1 X7.439 Y122.617 E16.23644
G1 X8.352 Y120.249 E16.32085
G1 X9.191 Y117.863 E16.40498
G1 X9.951 Y115.495 E16.48769
G1 X10.654 Y113.071 E16.57164
G1 X11.285 Y110.642 E16.65511
G1 X11.856 Y108.162 E16.73975
G1 X12.352 Y105.689 E16.82364
G1 X12.553 Y104.512 E16.86335
G1 X12.696 Y103.744 E16.88934
G1 X12.907 Y102.831 E16.9205
G1 X13.195 Y101.938 E16.95171
G1 X13.557 Y101.073 E16.9829
G1 X13.993 Y100.242 E17.01411
G1 X14.497 Y99.452 E17.04528
G1 X15.067 Y98.707 E17.07648
G1 X15.698 Y98.013 E17.10768
G1 X16.387 Y97.376 E17.13889
G1 X17.126 Y96.8 E17.17005
G1 X17.913 Y96.289 E17.20126
G1 X18.74 Y95.846 E17.23246
G1 X19.601 Y95.476 E17.26363
G1 X20.093 Y95.302 E17.28099
G1 X20.437 Y95.192 E17.293
G1 X22.658 Y94.511 E17.37027
G1 X25.04 Y93.705 E17.4539
G1 X27.404 Y92.83 E17.53774
G1 X29.746 Y91.887 E17.62172
G1 X32.041 Y90.887 E17.70498
G1 X34.315 Y89.818 E17.78855
G1 X36.58 Y88.675 E17.87294
G1 X38.785 Y87.483 E17.95631
G1 X40.947 Y86.233 E18.03937
G1 X43.12 Y84.894 E18.12426
G1 X45.224 Y83.514 E18.20795
G1 X47.28 Y82.08 E18.29132
G1 X49.289 Y80.593 E18.37446
G1 X51.28 Y79.03 E18.45864
G1 X53.23 Y77.408 E18.54301
G1 X55.11 Y75.752 E18.62633
G1 X56.939 Y74.049 E18.70945
G1 X57.635 Y73.362 E18.74198
G1 X58.307 Y72.718 E18.77294
G1 X59.011 Y72.099 E18.80412
G0 F6000 X59.276 Y72.399
G1 F1200 X60.017 Y71.854 E18.83471
G1 X60.804 Y71.375 E18.86535
G1 X61.629 Y70.967 E18.89597
G1 X62.486 Y70.631 E18.92658
G1 X63.369 Y70.371 E18.9572
G1 X64.272 Y70.189 E18.98784
G1 X65.593 Y70.065 E19.03197
G1 X65.919 Y70.055 E19.04281
G1 X66.244 Y70.05 E19.05362
G1 X167.307 Y70.05 E22.41499
G1 X168.16 Y70.061 E22.44337
G1 X169.079 Y70.114 E22.47398
G1 X169.99 Y70.247 E22.5046
G1 X170.886 Y70.458 E22.53522
G1 X171.761 Y70.746 E22.56586
G1 X172.607 Y71.109 E22.59648
G1 X173.418 Y71.544 E22.62709
G1 X174.189 Y72.048 E22.65772
G1 X175.148 Y72.825 E22.69878
G1 X175.383 Y73.043 E22.70944
G1 X177.261 Y74.84 E22.79589
G1 X179.098 Y76.502 E22.87828
G1 X181.048 Y78.166 E22.96354
G1 X183.025 Y79.761 E23.04803
G1 X185.035 Y81.29 E23.13203
G1 X187.08 Y82.756 E23.21572
G1 X189.179 Y84.173 E23.29995
G1 X191.294 Y85.515 E23.38326
G1 X193.502 Y86.83 E23.46874
G1 X195.681 Y88.046 E23.55173
G1 X197.963 Y89.236 E23.63733
G1 X200.201 Y90.324 E23.7201
G1 X202.528 Y91.373 E23.80499
G1 X204.837 Y92.338 E23.88823
G1 X207.246 Y93.267 E23.9741
G1 X209.571 Y94.085 E24.05608
G1 X211.998 Y94.865 E24.14087
G1 X214.456 Y95.581 E24.22602
G1 X215.328 Y95.877 E24.25665
G1 X216.171 Y96.247 E24.28727
G1 X216.979 Y96.689 E24.3179
G1 X217.745 Y97.2 E24.34853
G1 X218.464 Y97.775 E24.37915
G1 X219.131 Y98.41 E24.40978
G1 X219.739 Y99.1 E24.44037
G1 X220.286 Y99.841 E24.471
G1 X220.766 Y100.627 E24.50163
G1 X221.176 Y101.451 E24.53224
G1 X221.514 Y102.308 E24.56288
G1 X221.775 Y103.19 E24.59348
G1 X221.938 Y103.962 E24.61972
G1 X222.057 Y104.654 E24.64307
G1 X222.524 Y107.153 E24.72763
G1 X223.07 Y109.676 E24.81349
G1 X223.664 Y112.089 E24.89614
G1 X224.339 Y114.53 E24.98037
G1 X225.085 Y116.96 E25.06492
G1 X225.892 Y119.342 E25.14857
G1 X226.774 Y121.724 E25.23305
G1 X227.714 Y124.061 E25.31683
G1 X228.806 Y126.564 E25.40766
G1 X229.137 Y127.423 E25.43828
G1 X229.392 Y128.308 E25.46891
G1 X229.57 Y129.211 E25.49952
G1 X229.685 Y130.479 E25.54187
G1 X229.695 Y130.806 E25.55275
G1 X229.7 Y131.13 E25.56353
G1 X229.699 Y149.195 E26.16437
G1 X229.69 Y149.922 E26.18855
G1 X229.639 Y150.841 E26.21917
G1 X229.508 Y151.753 E26.24981
G1 X229.298 Y152.649 E26.28042
G1 X229.012 Y153.524 E26.31104
G1 X228.651 Y154.371 E26.34166
G1 X228.217 Y155.183 E26.37228
G1 X227.715 Y155.955 E26.40291
G1 X227.147 Y156.68 E26.43354
G1 X226.519 Y157.353 E26.46416
G1 X225.835 Y157.969 E26.49478
G1 X225.1 Y158.523 E26.52539
G1 X224.32 Y159.012 E26.55601
G1 X223.5 Y159.431 E26.58664
G1 X222.647 Y159.777 E26.61725
G1 X221.767 Y160.048 E26.64788
G1 X220.867 Y160.241 E26.67849
G1 X219.953 Y160.356 E26.70913
G1 X219.388 Y160.387 E26.72795
G1 X219.067 Y160.396 E26.73863
G1 X218.77 Y160.4 E26.74851
G1 X16.47 Y160.399 E33.47704
G1 X15.772 Y160.39 E33.50025
G1 X14.853 Y160.338 E33.53087
G1 X13.942 Y160.207 E33.56148
G1 X13.046 Y159.997 E33.59209
G1 X12.171 Y159.71 E33.62272
G1 X11.324 Y159.348 E33.65335
G1 X10.512 Y158.914 E33.68398
G1 X9.741 Y158.412 E33.71458
G1 X9.016 Y157.844 E33.74521
G1 X8.343 Y157.215 E33.77585
G1 X7.728 Y156.531 E33.80644
G1 X7.174 Y155.796 E33.83706
G1 X6.686 Y155.015 E33.86769
G1 X6.267 Y154.195 E33.89831
G1 X5.921 Y153.342 E33.92893
G1 X5.651 Y152.462 E33.95954
G1 X5.458 Y151.561 E33.99019
G1 X5.344 Y150.648 E34.02079
G1 X5.313 Y150.077 E34.03981
G1 X5.304 Y149.744 E34.05089
G1 X5.3 Y149.458 E34.06041
G1 X5.301 Y131.343 E34.66291
G1 X5.312 Y130.634 E34.6865
G1 X5.367 Y129.715 E34.71712
G1 X5.5 Y128.804 E34.74774
G1 X5.713 Y127.908 E34.77837
G1 X6.002 Y127.034 E34.80899
G1 X6.192 Y126.567 E34.82576
G1 X6.753 Y125.281 E34.87242
G1 X6.844 Y125.08 E34.87976
G1 X7.81 Y122.766 E34.96316
G1 X8.738 Y120.36 E35.04893
G1 X9.551 Y118.046 E35.13051
G1 X10.339 Y115.59 E35.2163
G1 X11.042 Y113.169 E35.30015
G1 X11.676 Y110.727 E35.38406
G1 X12.242 Y108.266 E35.46805
G1 X12.745 Y105.762 E35.553
G1 X12.946 Y104.586 E35.59268
G1 X13.089 Y103.818 E35.61866
G1 X13.297 Y102.921 E35.64929
G1 X13.581 Y102.045 E35.67992
G1 X13.941 Y101.198 E35.71053
G1 X14.373 Y100.385 E35.74115
G1 X14.874 Y99.612 E35.77178
G1 X15.44 Y98.886 E35.8024
G1 X16.066 Y98.211 E35.83302
G1 X16.749 Y97.594 E35.86364
G1 X17.483 Y97.038 E35.89426
G1 X18.262 Y96.548 E35.92487
G1 X19.081 Y96.127 E35.9555
G1 X20.217 Y95.682 E35.99608
G1 X20.554 Y95.574 E36.00785
G1 X22.798 Y94.886 E36.08591
G1 X25.159 Y94.087 E36.16881
G1 X27.555 Y93.2 E36.25379
G1 X29.889 Y92.261 E36.33747
G1 X32.222 Y91.244 E36.42212
G1 X34.501 Y90.173 E36.50587
G1 X36.757 Y89.034 E36.58992
G1 X38.969 Y87.838 E36.67356
G1 X41.177 Y86.562 E36.75838
G1 X43.327 Y85.237 E36.84238
G1 X45.442 Y83.85 E36.9265
G1 X47.501 Y82.413 E37.01001
G1 X49.55 Y80.897 E37.09479
G1 X51.537 Y79.337 E37.17881
G1 X53.467 Y77.732 E37.2623
G1 X55.363 Y76.061 E37.34636
G1 X57.244 Y74.31 E37.43183
G1 X57.912 Y73.651 E37.46304
G1 X58.584 Y73.007 E37.494
G1 X59.276 Y72.399 E37.52463
G0 F6000 X59.54 Y72.7
G1 F1200 X60.269 Y72.167 E37.55467
G1 X61.042 Y71.701 E37.58469
G1 X61.854 Y71.305 E37.61474
G1 X62.697 Y70.982 E37.64477
G1 X63.566 Y70.735 E37.67481
G1 X64.453 Y70.566 E37.70485
G1 X65.605 Y70.465 E37.74331
G1 X65.931 Y70.455 E37.75416
G1 X66.244 Y70.45 E37.76457
G1 X167.307 Y70.45 E41.12594
G1 X168.154 Y70.461 E41.15411
G1 X169.056 Y70.514 E41.18416
G1 X169.949 Y70.646 E41.21419
G1 X170.827 Y70.857 E41.24422
G1 X171.683 Y71.145 E41.27426
G1 X172.511 Y71.507 E41.30432
G1 X173.303 Y71.941 E41.33435
G1 X174.053 Y72.444 E41.36439
G1 X174.879 Y73.12 E41.39989
G1 X175.106 Y73.332 E41.41022
G1 X176.962 Y75.108 E41.49566
G1 X178.854 Y76.819 E41.5805
G1 X180.821 Y78.498 E41.66652
G1 X182.76 Y80.062 E41.74938
G1 X184.782 Y81.601 E41.83389
G1 X186.845 Y83.08 E41.91832
G1 X188.971 Y84.515 E42.00363
G1 X191.096 Y85.864 E42.08735
G1 X193.281 Y87.165 E42.17193
G1 X195.507 Y88.407 E42.25671
G1 X197.782 Y89.593 E42.34204
G1 X200.027 Y90.684 E42.42506
G1 X202.359 Y91.735 E42.51014
G1 X204.687 Y92.709 E42.59407
G1 X207.096 Y93.638 E42.67994
G1 X209.475 Y94.475 E42.76382
G1 X211.859 Y95.24 E42.8471
G1 X214.345 Y95.965 E42.93323
G1 X215.2 Y96.256 E42.96327
G1 X216.025 Y96.621 E42.99327
G1 X216.816 Y97.058 E43.02333
G1 X217.565 Y97.563 E43.05337
G1 X218.266 Y98.133 E43.08343
G1 X218.913 Y98.762 E43.11344
G1 X219.503 Y99.446 E43.14348
G1 X220.03 Y100.179 E43.17351
G1 X220.49 Y100.956 E43.20354
G1 X220.88 Y101.771 E43.23359
G1 X221.195 Y102.617 E43.26362
G1 X221.435 Y103.488 E43.29367
G1 X221.544 Y104.03 E43.31205
G1 X221.664 Y104.73 E43.33568
G1 X222.134 Y107.24 E43.42061
G1 X222.677 Y109.751 E43.50606
G1 X223.277 Y112.187 E43.5895
G1 X223.964 Y114.672 E43.67525
G1 X224.699 Y117.068 E43.75861
G1 X225.514 Y119.473 E43.84307
G1 X226.41 Y121.895 E43.92896
G1 X227.34 Y124.204 E44.01175
G1 X228.439 Y126.724 E44.10319
G1 X228.763 Y127.567 E44.13323
G1 X229.011 Y128.436 E44.16329
G1 X229.182 Y129.322 E44.1933
G1 X229.285 Y130.491 E44.23233
G1 X229.295 Y130.818 E44.24321
G1 X229.3 Y131.13 E44.25359
G1 X229.299 Y149.19 E44.85427
G1 X229.29 Y149.917 E44.87845
G1 X229.239 Y150.819 E44.9085
G1 X229.108 Y151.713 E44.93855
G1 X228.899 Y152.591 E44.96857
G1 X228.613 Y153.448 E44.99862
G1 X228.252 Y154.276 E45.02866
G1 X227.82 Y155.068 E45.05867
G1 X227.319 Y155.82 E45.08872
G1 X226.753 Y156.524 E45.11876
G1 X226.128 Y157.175 E45.14878
G1 X225.447 Y157.769 E45.17884
G1 X224.716 Y158.3 E45.20889
G1 X223.942 Y158.764 E45.2389
G1 X223.129 Y159.158 E45.26895
G1 X222.285 Y159.478 E45.29897
G1 X221.415 Y159.723 E45.32903
G1 X220.528 Y159.889 E45.35905
G1 X219.377 Y159.987 E45.39747
G1 X219.056 Y159.996 E45.40815
G1 X218.77 Y160 E45.41766
G1 X16.475 Y159.999 E52.14602
G1 X15.777 Y159.99 E52.16924
G1 X14.876 Y159.939 E52.19925
G1 X13.982 Y159.807 E52.22931
G1 X13.104 Y159.598 E52.25933
G1 X12.247 Y159.311 E52.28939
G1 X11.42 Y158.95 E52.3194
G1 X10.627 Y158.517 E52.34945
G1 X9.876 Y158.016 E52.37948
G1 X9.172 Y157.45 E52.40952
G1 X8.521 Y156.824 E52.43956
G1 X7.928 Y156.143 E52.4696
G1 X7.398 Y155.412 E52.49963
G1 X6.934 Y154.637 E52.52967
G1 X6.54 Y153.824 E52.55972
G1 X6.22 Y152.98 E52.58974
G1 X5.976 Y152.11 E52.61979
G1 X5.81 Y151.222 E52.64984
G1 X5.713 Y150.067 E52.68839
G1 X5.704 Y149.734 E52.69947
G1 X5.7 Y149.458 E52.70865
G1 X5.701 Y131.349 E53.31096
G1 X5.712 Y130.64 E53.33454
G1 X5.766 Y129.738 E53.3646
G1 X5.9 Y128.845 E53.39463
G1 X6.112 Y127.967 E53.42467
G1 X6.559 Y126.726 E53.46855
G1 X7.118 Y125.445 E53.51503
G1 X7.206 Y125.249 E53.52218
G1 X8.192 Y122.89 E53.60722
G1 X9.102 Y120.528 E53.6914
G1 X9.941 Y118.142 E53.77553
G1 X10.718 Y115.72 E53.86013
G1 X11.425 Y113.285 E53.94446
G1 X12.067 Y110.811 E54.02947
G1 X12.632 Y108.355 E54.11329
G1 X13.136 Y105.843 E54.19851
G1 X13.339 Y104.659 E54.23846
G1 X13.482 Y103.891 E54.26444
G1 X13.687 Y103.011 E54.2945
G1 X13.968 Y102.153 E54.32452
G1 X14.325 Y101.323 E54.35458
G1 X14.753 Y100.528 E54.38461
G1 X15.25 Y99.774 E54.41464
G1 X15.811 Y99.067 E54.44466
G1 X16.433 Y98.412 E54.4747
G1 X17.111 Y97.815 E54.50475
G1 X17.839 Y97.28 E54.5348
G1 X18.611 Y96.812 E54.56483
G1 X19.421 Y96.413 E54.59486
G1 X20.342 Y96.063 E54.62763
G1 X20.671 Y95.957 E54.63912
G1 X22.906 Y95.271 E54.71688
G1 X25.289 Y94.465 E54.80055
G1 X27.707 Y93.57 E54.88631
G1 X30.037 Y92.632 E54.96985
G1 X32.386 Y91.608 E55.05508
G1 X34.672 Y90.534 E55.13908
G1 X36.949 Y89.385 E55.22391
G1 X39.18 Y88.179 E55.30826
G1 X41.355 Y86.922 E55.39182
G1 X43.535 Y85.578 E55.477
G1 X45.685 Y84.168 E55.56251
G1 X47.745 Y82.73 E55.64607
G1 X49.768 Y81.234 E55.72975
G1 X51.777 Y79.657 E55.8147
G1 X53.741 Y78.024 E55.89965
G1 X55.655 Y76.337 E55.98451
G1 X57.498 Y74.621 E56.06827
G1 X58.076 Y74.049 E56.09531
G1 X58.861 Y73.296 E56.13149
G1 X59.54 Y72.7 E56.16154
G1 F2700 E51.16154
;MESH:Veneer4a.stl
G0 F6000 X65.251 Y80.945
G0 X66.334 Y81.234
G0 X166.832 Y81.832
G0 X167.62 Y96.848
G0 X167.014 Y103.15
;TYPE:WALL-INNER
G1 F2700 E56.16154
G1 F1200 X66.914 Y103.15 E59.49088
G1 X66.914 Y81.65 E60.20598
G1 X167.014 Y81.65 E63.53531
G1 X167.014 Y95.418 E63.99324
G1 X167.778 Y96.741 E64.04405
G1 X167.95 Y97.039 E64.0555
G1 X167.606 Y97.039 E64.06199
G1 X167.605 Y97.039 E64.06202
G1 X167.014 Y97.039 E64.08168
G1 X167.014 Y103.15 E64.28493
G0 F6000 X167.414 Y103.55
G1 F1200 X66.514 Y103.55 E67.64088
G1 X66.514 Y81.8 E68.36429
G1 X66.215 Y81.8 E68.37423
G1 X66.289 Y81.671 E68.37473
G1 X66.514 Y81.282 E68.38968
G1 X66.514 Y81.25 E68.39074
G1 X167.414 Y81.25 E71.74669
G1 X167.414 Y95.311 E72.21436
G1 X168.471 Y97.141 E72.28465
