;FLAVOR:Marlin
;TIME:3079
;Filament used: 2.23669m
;Layer height: 0.16
;MINX:59.16
;MINY:83.955
;MINZ:0.2
;MAXX:175.84
;MAXY:151.045
;MAXZ:1.4
;Generated with Cura_SteamEngine 4.10.0
M140 S50
M105
M190 S50
M104 S200
M105
M109 S200
M82 ;absolute extrusion mode
; Ender 3 Custom Start G-code
G92 E0 ; Reset Extruder
G28 ; Home all axes
G1 Z2.0 F3000 ; Move Z Axis up little to prevent scratching of Heat Bed
G1 X0.1 Y20 Z0.3 F5000.0 ; Move to start position
G1 X0.1 Y200.0 Z0.3 F1500.0 E15 ; Draw the first line
G1 X0.4 Y200.0 Z0.3 F5000.0 ; Move to side a little
G1 X0.4 Y20 Z0.3 F1500.0 E30 ; Draw the second line
G92 E0 ; Reset Extruder
G1 Z2.0 F3000 ; Move Z Axis up little to prevent scratching of Heat Bed
G1 X5 Y20 Z0.3 F5000.0 ; Move over to prevent blob squish
G92 E0
G92 E0
G1 F2700 E-5
;LAYER_COUNT:8
;LAYER:0
M107
G0 F6000 X63.786 Y86.006 Z0.2
;TYPE:SKIRT
G1 F2700 E0
G1 F1200 X64.572 Y85.494 E0.0312
G1 X65.399 Y85.052 E0.06239
G1 X66.261 Y84.682 E0.09359
G1 X67.151 Y84.386 E0.12478
G1 X68.063 Y84.168 E0.15597
G1 X68.99 Y84.027 E0.18716
G1 X69.861 Y83.968 E0.21619
G1 X70.182 Y83.959 E0.22687
G1 X70.49 Y83.955 E0.23712
G1 X164.133 Y83.955 E3.3517
G1 X164.989 Y83.966 E3.38017
G1 X165.925 Y84.02 E3.41135
G1 X166.853 Y84.152 E3.44253
G1 X167.767 Y84.364 E3.47374
G1 X168.659 Y84.653 E3.50492
G1 X169.524 Y85.016 E3.53612
G1 X170.354 Y85.452 E3.56731
G1 X171.145 Y85.957 E3.59852
G1 X171.889 Y86.528 E3.62971
G1 X172.582 Y87.16 E3.66091
G1 X173.219 Y87.848 E3.69209
G1 X173.794 Y88.589 E3.72329
G1 X174.305 Y89.375 E3.75447
G1 X174.747 Y90.203 E3.78569
G1 X175.116 Y91.065 E3.81688
G1 X175.411 Y91.955 E3.84806
G1 X175.629 Y92.867 E3.87925
G1 X175.769 Y93.795 E3.91046
G1 X175.827 Y94.656 E3.93917
G1 X175.836 Y94.976 E3.94981
G1 X175.84 Y95.285 E3.96009
G1 X175.84 Y102.881 E4.21273
G1 X175.836 Y103.991 E4.24965
G1 X175.84 Y104.524 E4.26738
G1 X175.84 Y112.181 E4.52205
G1 X175.836 Y113.291 E4.55897
G1 X175.84 Y113.824 E4.5767
G1 X175.84 Y121.481 E4.83137
G1 X175.836 Y122.591 E4.86829
G1 X175.84 Y123.124 E4.88602
G1 X175.84 Y130.781 E5.14069
G1 X175.836 Y131.891 E5.17761
G1 X175.84 Y132.424 E5.19534
G1 X175.839 Y139.445 E5.42886
G1 X175.83 Y140.172 E5.45304
G1 X175.779 Y141.109 E5.48425
G1 X175.647 Y142.037 E5.51543
G1 X175.438 Y142.951 E5.54661
G1 X175.151 Y143.844 E5.57781
G1 X174.789 Y144.71 E5.60903
G1 X174.355 Y145.541 E5.64021
G1 X173.851 Y146.332 E5.67141
G1 X173.282 Y147.077 E5.70259
G1 X172.651 Y147.772 E5.73381
G1 X171.964 Y148.41 E5.76499
G1 X171.225 Y148.987 E5.79618
G1 X170.439 Y149.499 E5.82738
G1 X169.613 Y149.942 E5.85855
G1 X168.751 Y150.314 E5.88978
G1 X167.862 Y150.61 E5.92094
G1 X166.95 Y150.83 E5.95214
G1 X166.023 Y150.971 E5.98333
G1 X165.139 Y151.032 E6.0128
G1 X164.818 Y151.041 E6.02348
G1 X164.51 Y151.045 E6.03373
G1 X70.725 Y151.044 E9.15303
G1 X70.027 Y151.035 E9.17625
G1 X69.091 Y150.983 E9.20743
G1 X68.162 Y150.851 E9.23864
G1 X67.248 Y150.641 E9.26983
G1 X66.355 Y150.354 E9.30103
G1 X65.49 Y149.991 E9.33223
G1 X64.659 Y149.557 E9.36341
G1 X63.868 Y149.053 E9.3946
G1 X63.123 Y148.483 E9.4258
G1 X62.429 Y147.852 E9.457
G1 X61.792 Y147.165 E9.48816
G1 X61.215 Y146.425 E9.51937
G1 X60.703 Y145.639 E9.55057
G1 X60.26 Y144.812 E9.58177
G1 X59.889 Y143.951 E9.61296
G1 X59.593 Y143.061 E9.64415
G1 X59.374 Y142.149 E9.67535
G1 X59.233 Y141.222 E9.70653
G1 X59.173 Y140.333 E9.73617
G1 X59.164 Y140 E9.74725
G1 X59.16 Y139.703 E9.75713
G1 X59.16 Y132.119 E10.00937
G1 X59.164 Y131.009 E10.04629
G1 X59.16 Y130.476 E10.06402
G1 X59.16 Y122.819 E10.31869
G1 X59.164 Y121.709 E10.35561
G1 X59.16 Y121.176 E10.37334
G1 X59.16 Y113.519 E10.62801
G1 X59.164 Y112.409 E10.66493
G1 X59.16 Y111.876 E10.68266
G1 X59.16 Y104.219 E10.93733
G1 X59.164 Y103.109 E10.97425
G1 X59.16 Y102.576 E10.99198
G1 X59.161 Y95.48 E11.22799
G1 X59.17 Y94.815 E11.25011
G1 X59.223 Y93.879 E11.2813
G1 X59.355 Y92.95 E11.31251
G1 X59.566 Y92.036 E11.3437
G1 X59.854 Y91.144 E11.37488
G1 X60.217 Y90.279 E11.40608
G1 X60.652 Y89.448 E11.43728
G1 X61.156 Y88.658 E11.46845
G1 X61.726 Y87.913 E11.49964
G1 X62.358 Y87.219 E11.53086
G1 X63.046 Y86.582 E11.56205
G1 X63.786 Y86.006 E11.59324
G0 F6000 X64.17 Y86.225
G1 F1200 X64.951 Y85.737 E11.62387
G1 X65.771 Y85.319 E11.65448
G1 X66.625 Y84.974 E11.68512
G1 X67.505 Y84.704 E11.71573
G1 X68.405 Y84.512 E11.74634
G1 X69.319 Y84.398 E11.77697
G1 X69.872 Y84.368 E11.79539
G1 X70.193 Y84.359 E11.80608
G1 X70.49 Y84.355 E11.81595
G1 X164.133 Y84.355 E14.93053
G1 X164.983 Y84.366 E14.95881
G1 X165.902 Y84.419 E14.98942
G1 X166.813 Y84.552 E15.02004
G1 X167.709 Y84.763 E15.05066
G1 X168.583 Y85.051 E15.08127
G1 X169.43 Y85.414 E15.11192
G1 X170.241 Y85.849 E15.14253
G1 X171.011 Y86.353 E15.17314
G1 X171.735 Y86.922 E15.20376
G1 X172.407 Y87.552 E15.2344
G1 X173.022 Y88.237 E15.26502
G1 X173.575 Y88.973 E15.29564
G1 X174.062 Y89.754 E15.32625
G1 X174.479 Y90.575 E15.35688
G1 X174.824 Y91.429 E15.38751
G1 X175.093 Y92.309 E15.41812
G1 X175.285 Y93.21 E15.44876
G1 X175.398 Y94.123 E15.47936
G1 X175.427 Y94.667 E15.49747
G1 X175.436 Y94.987 E15.50812
G1 X175.44 Y95.285 E15.51803
G1 X175.44 Y102.879 E15.77061
G1 X175.436 Y103.994 E15.8077
G1 X175.44 Y104.527 E15.82543
G1 X175.44 Y112.179 E16.07993
G1 X175.436 Y113.294 E16.11702
G1 X175.44 Y113.827 E16.13475
G1 X175.44 Y121.479 E16.38925
G1 X175.436 Y122.594 E16.42634
G1 X175.44 Y123.127 E16.44407
G1 X175.44 Y130.779 E16.69857
G1 X175.436 Y131.894 E16.73566
G1 X175.44 Y132.427 E16.75339
G1 X175.439 Y139.44 E16.98664
G1 X175.43 Y140.167 E17.01082
G1 X175.379 Y141.086 E17.04143
G1 X175.248 Y141.998 E17.07208
G1 X175.038 Y142.894 E17.10269
G1 X174.752 Y143.769 E17.1333
G1 X174.391 Y144.616 E17.16393
G1 X173.957 Y145.428 E17.19455
G1 X173.455 Y146.2 E17.22518
G1 X172.887 Y146.925 E17.25581
G1 X172.259 Y147.598 E17.28643
G1 X171.575 Y148.214 E17.31704
G1 X170.84 Y148.768 E17.34766
G1 X170.06 Y149.257 E17.37828
G1 X169.24 Y149.676 E17.4089
G1 X168.387 Y150.022 E17.43952
G1 X167.507 Y150.293 E17.47014
G1 X166.607 Y150.486 E17.50076
G1 X165.693 Y150.601 E17.5314
G1 X165.128 Y150.632 E17.55022
G1 X164.807 Y150.641 E17.5609
G1 X164.51 Y150.645 E17.57078
G1 X70.73 Y150.644 E20.68991
G1 X70.032 Y150.635 E20.71313
G1 X69.113 Y150.583 E20.74375
G1 X68.202 Y150.452 E20.77436
G1 X67.306 Y150.242 E20.80497
G1 X66.431 Y149.955 E20.83559
G1 X65.584 Y149.593 E20.86623
G1 X64.772 Y149.159 E20.89685
G1 X64.001 Y148.657 E20.92745
G1 X63.276 Y148.089 E20.95809
G1 X62.603 Y147.46 E20.98873
G1 X61.988 Y146.776 E21.01932
G1 X61.434 Y146.041 E21.04993
G1 X60.946 Y145.26 E21.08056
G1 X60.527 Y144.44 E21.11119
G1 X60.181 Y143.587 E21.14181
G1 X59.911 Y142.707 E21.17242
G1 X59.718 Y141.806 E21.20307
G1 X59.604 Y140.893 E21.23367
G1 X59.573 Y140.322 E21.25269
G1 X59.564 Y139.989 E21.26377
G1 X59.56 Y139.703 E21.27328
G1 X59.56 Y132.121 E21.52546
G1 X59.564 Y131.006 E21.56255
G1 X59.56 Y130.473 E21.58027
G1 X59.56 Y122.821 E21.83478
G1 X59.564 Y121.706 E21.87187
G1 X59.56 Y121.173 E21.88959
G1 X59.56 Y113.521 E22.1441
G1 X59.564 Y112.406 E22.18119
G1 X59.56 Y111.873 E22.19891
G1 X59.56 Y104.221 E22.45342
G1 X59.564 Y103.106 E22.49051
G1 X59.56 Y102.573 E22.50823
G1 X59.561 Y95.486 E22.74395
G1 X59.57 Y94.821 E22.76607
G1 X59.622 Y93.901 E22.79672
G1 X59.754 Y92.99 E22.82733
G1 X59.965 Y92.094 E22.85795
G1 X60.252 Y91.219 E22.88858
G1 X60.615 Y90.373 E22.9192
G1 X61.049 Y89.561 E22.94982
G1 X61.552 Y88.79 E22.98044
G1 X62.121 Y88.066 E23.01107
G1 X62.749 Y87.394 E23.04166
G1 X63.434 Y86.778 E23.0723
G1 X64.17 Y86.225 E23.10292
G0 F6000 X64.554 Y86.449
G1 F1200 X65.329 Y85.986 E23.13294
G1 X66.142 Y85.593 E23.16298
G1 X66.987 Y85.273 E23.19303
G1 X67.856 Y85.03 E23.22304
G1 X68.744 Y84.864 E23.25309
G1 X69.883 Y84.768 E23.29111
G1 X70.204 Y84.759 E23.30179
G1 X70.49 Y84.755 E23.3113
G1 X164.133 Y84.755 E26.42588
G1 X164.977 Y84.766 E26.45395
G1 X165.879 Y84.819 E26.484
G1 X166.772 Y84.951 E26.51403
G1 X167.65 Y85.162 E26.54406
G1 X168.506 Y85.45 E26.5741
G1 X169.333 Y85.812 E26.60413
G1 X170.125 Y86.247 E26.63418
G1 X170.876 Y86.749 E26.66423
G1 X171.579 Y87.316 E26.69427
G1 X172.229 Y87.943 E26.7243
G1 X172.821 Y88.625 E26.75434
G1 X173.351 Y89.356 E26.78437
G1 X173.813 Y90.132 E26.81441
G1 X174.206 Y90.945 E26.84444
G1 X174.524 Y91.79 E26.87447
G1 X174.767 Y92.66 E26.90452
G1 X174.932 Y93.548 E26.93456
G1 X175.027 Y94.678 E26.97227
G1 X175.036 Y94.998 E26.98292
G1 X175.04 Y95.285 E26.99247
G1 X175.04 Y102.878 E27.24501
G1 X175.036 Y103.997 E27.28223
G1 X175.04 Y104.53 E27.29996
G1 X175.04 Y112.178 E27.55433
G1 X175.036 Y113.297 E27.59155
G1 X175.04 Y113.83 E27.60928
G1 X175.04 Y121.478 E27.86365
G1 X175.036 Y122.597 E27.90087
G1 X175.04 Y123.13 E27.9186
G1 X175.04 Y130.778 E28.17297
G1 X175.036 Y131.897 E28.21019
G1 X175.04 Y132.43 E28.22792
G1 X175.039 Y139.435 E28.46091
G1 X175.03 Y140.162 E28.48509
G1 X174.979 Y141.064 E28.51514
G1 X174.848 Y141.958 E28.54519
G1 X174.639 Y142.836 E28.57521
G1 X174.353 Y143.693 E28.60526
G1 X173.992 Y144.521 E28.6353
G1 X173.56 Y145.313 E28.6653
G1 X173.059 Y146.065 E28.69536
G1 X172.493 Y146.769 E28.7254
G1 X171.868 Y147.42 E28.75542
G1 X171.187 Y148.014 E28.78547
G1 X170.456 Y148.545 E28.81553
G1 X169.682 Y149.009 E28.84554
G1 X168.869 Y149.403 E28.87559
G1 X168.025 Y149.723 E28.90561
G1 X167.155 Y149.968 E28.93567
G1 X166.268 Y150.134 E28.96569
G1 X165.117 Y150.232 E29.00411
G1 X164.796 Y150.241 E29.01479
G1 X164.51 Y150.245 E29.0243
G1 X70.735 Y150.244 E32.14327
G1 X70.037 Y150.235 E32.16649
G1 X69.136 Y150.184 E32.1965
G1 X68.242 Y150.052 E32.22656
G1 X67.364 Y149.843 E32.25658
G1 X66.507 Y149.556 E32.28664
G1 X65.68 Y149.195 E32.31665
G1 X64.887 Y148.762 E32.3467
G1 X64.136 Y148.261 E32.37673
G1 X63.432 Y147.695 E32.40677
G1 X62.781 Y147.069 E32.43681
G1 X62.188 Y146.388 E32.46685
G1 X61.658 Y145.657 E32.49688
G1 X61.194 Y144.882 E32.52692
G1 X60.8 Y144.069 E32.55697
G1 X60.48 Y143.225 E32.58699
G1 X60.236 Y142.355 E32.61704
G1 X60.07 Y141.467 E32.64709
G1 X59.973 Y140.312 E32.68564
G1 X59.964 Y139.979 E32.69672
G1 X59.96 Y139.703 E32.7059
G1 X59.96 Y132.122 E32.95805
G1 X59.964 Y131.003 E32.99526
G1 X59.96 Y130.47 E33.01299
G1 X59.96 Y122.822 E33.26737
G1 X59.964 Y121.703 E33.30458
G1 X59.96 Y121.17 E33.32231
G1 X59.96 Y113.522 E33.57669
G1 X59.964 Y112.403 E33.6139
G1 X59.96 Y111.87 E33.63163
G1 X59.96 Y104.222 E33.88601
G1 X59.964 Y103.103 E33.92322
G1 X59.96 Y102.57 E33.94095
G1 X59.961 Y95.491 E34.1764
G1 X59.97 Y94.826 E34.19852
G1 X60.022 Y93.924 E34.22857
G1 X60.154 Y93.031 E34.25859
G1 X60.364 Y92.153 E34.28862
G1 X60.651 Y91.296 E34.31868
G1 X61.013 Y90.469 E34.34871
G1 X61.446 Y89.677 E34.37873
G1 X61.948 Y88.926 E34.40877
G1 X62.515 Y88.222 E34.43884
G1 X63.141 Y87.572 E34.46885
G1 X63.822 Y86.979 E34.49889
G1 X64.554 Y86.449 E34.52895
G1 F2700 E29.52895
;MESH:Veneer4toptrim.stl(3)
G0 F6000 X70.58 Y94.29
G0 X70.58 Y95.375
G0 X163.658 Y96.137
G0 X163.84 Y101.845
;TYPE:WALL-INNER
G1 F2700 E34.52895
G1 F1200 X71.16 Y101.845 E37.61149
G1 X71.16 Y95.955 E37.8074
G1 X163.84 Y95.955 E40.88995
G1 X163.84 Y101.845 E41.08585
G0 F6000 X164.24 Y102.245
G1 F1200 X70.76 Y102.245 E44.19501
G1 X70.76 Y95.555 E44.41752
G1 X164.24 Y95.555 E47.52667
G1 X164.24 Y102.245 E47.74918
G0 F6000 X164.64 Y102.645
;TYPE:WALL-OUTER
G1 F1200 X70.36 Y102.645 E50.88495
G1 X70.36 Y95.155 E51.13407
G1 X164.64 Y95.155 E54.26983
G1 X164.64 Y102.645 E54.51895
G0 F6000 X164.37 Y102.375
G0 X163.73 Y101.455
G0 X163.45 Y101.455
;TYPE:SKIN
G1 F1200 X71.55 Y101.455 E57.57556
G1 X71.55 Y96.345 E57.74552
G1 X163.45 Y96.345 E60.80212
G1 X163.45 Y101.455 E60.97208
G0 F6000 X163.73 Y101.455
G0 X163.73 Y97.104
G0 X163.289 Y97.104
G1 F1200 X162.689 Y96.504 E61.00031
G0 F6000 X162.124 Y96.504
G1 F1200 X163.289 Y97.669 E61.0551
G0 F6000 X163.289 Y98.235
G1 F1200 X161.558 Y96.504 E61.13652
G0 F6000 X160.992 Y96.504
G1 F1200 X163.289 Y98.801 E61.24457
G0 F6000 X163.289 Y99.366
G1 F1200 X160.426 Y96.504 E61.37921
G0 F6000 X159.861 Y96.504
G1 F1200 X163.289 Y99.932 E61.54045
G0 F6000 X163.289 Y100.498
G1 F1200 X159.295 Y96.504 E61.72832
G0 F6000 X158.729 Y96.504
G1 F1200 X163.289 Y101.063 E61.94278
G0 F6000 X162.954 Y101.294
G1 F1200 X158.164 Y96.504 E62.16809
G0 F6000 X157.598 Y96.504
G1 F1200 X162.388 Y101.294 E62.3934
G0 F6000 X161.822 Y101.294
G1 F1200 X157.032 Y96.504 E62.61871
G0 F6000 X156.467 Y96.504
G1 F1200 X161.257 Y101.294 E62.84401
G0 F6000 X160.691 Y101.294
G1 F1200 X155.901 Y96.504 E63.06932
G0 F6000 X155.335 Y96.504
G1 F1200 X160.125 Y101.294 E63.29463
G0 F6000 X159.56 Y101.294
G1 F1200 X154.77 Y96.504 E63.51993
G0 F6000 X154.204 Y96.504
G1 F1200 X158.994 Y101.294 E63.74524
G0 F6000 X158.428 Y101.294
G1 F1200 X153.638 Y96.504 E63.97055
G0 F6000 X153.073 Y96.504
G1 F1200 X157.863 Y101.294 E64.19585
G0 F6000 X157.297 Y101.294
G1 F1200 X152.507 Y96.504 E64.42116
G0 F6000 X151.941 Y96.504
G1 F1200 X156.731 Y101.294 E64.64647
G0 F6000 X156.165 Y101.294
G1 F1200 X151.376 Y96.504 E64.87175
G0 F6000 X150.81 Y96.504
G1 F1200 X155.6 Y101.294 E65.09706
G0 F6000 X155.034 Y101.294
G1 F1200 X150.244 Y96.504 E65.32236
G0 F6000 X149.678 Y96.504
G1 F1200 X154.468 Y101.294 E65.54767
G0 F6000 X153.903 Y101.294
G1 F1200 X149.113 Y96.504 E65.77298
G0 F6000 X148.547 Y96.504
G1 F1200 X153.337 Y101.294 E65.99829
G0 F6000 X152.771 Y101.294
G1 F1200 X147.981 Y96.504 E66.22359
G0 F6000 X147.416 Y96.504
G1 F1200 X152.206 Y101.294 E66.4489
G0 F6000 X151.64 Y101.294
G1 F1200 X146.85 Y96.504 E66.67421
G0 F6000 X146.284 Y96.504
G1 F1200 X151.074 Y101.294 E66.89951
G0 F6000 X150.509 Y101.294
G1 F1200 X145.719 Y96.504 E67.12482
G0 F6000 X145.153 Y96.504
G1 F1200 X149.943 Y101.294 E67.35013
G0 F6000 X149.377 Y101.294
G1 F1200 X144.587 Y96.504 E67.57543
G0 F6000 X144.022 Y96.504
G1 F1200 X148.812 Y101.294 E67.80074
G0 F6000 X148.246 Y101.294
G1 F1200 X143.456 Y96.504 E68.02605
G0 F6000 X142.89 Y96.504
G1 F1200 X147.68 Y101.294 E68.25135
G0 F6000 X147.114 Y101.294
G1 F1200 X142.325 Y96.504 E68.47664
G0 F6000 X141.759 Y96.504
G1 F1200 X146.549 Y101.294 E68.70194
G0 F6000 X145.983 Y101.294
G1 F1200 X141.193 Y96.504 E68.92725
G0 F6000 X140.627 Y96.504
G1 F1200 X145.417 Y101.294 E69.15256
G0 F6000 X144.852 Y101.294
G1 F1200 X140.062 Y96.504 E69.37787
G0 F6000 X139.496 Y96.504
G1 F1200 X144.286 Y101.294 E69.60317
G0 F6000 X143.72 Y101.294
G1 F1200 X138.93 Y96.504 E69.82848
G0 F6000 X138.365 Y96.504
G1 F1200 X143.155 Y101.294 E70.05379
G0 F6000 X142.589 Y101.294
G1 F1200 X137.799 Y96.504 E70.27909
G0 F6000 X137.233 Y96.504
G1 F1200 X142.023 Y101.294 E70.5044
G0 F6000 X141.458 Y101.294
G1 F1200 X136.668 Y96.504 E70.72971
G0 F6000 X136.102 Y96.504
G1 F1200 X140.892 Y101.294 E70.95501
G0 F6000 X140.326 Y101.294
G1 F1200 X135.536 Y96.504 E71.18032
G0 F6000 X134.971 Y96.504
G1 F1200 X139.761 Y101.294 E71.40563
G0 F6000 X139.195 Y101.294
G1 F1200 X134.405 Y96.504 E71.63093
G0 F6000 X133.839 Y96.504
G1 F1200 X138.629 Y101.294 E71.85624
G0 F6000 X138.064 Y101.294
G1 F1200 X133.274 Y96.504 E72.08155
G0 F6000 X132.708 Y96.504
G1 F1200 X137.498 Y101.294 E72.30686
G0 F6000 X136.932 Y101.294
G1 F1200 X132.142 Y96.504 E72.53216
G0 F6000 X131.577 Y96.504
G1 F1200 X136.366 Y101.294 E72.75745
G0 F6000 X135.801 Y101.294
G1 F1200 X131.011 Y96.504 E72.98275
G0 F6000 X130.445 Y96.504
G1 F1200 X135.235 Y101.294 E73.20806
G0 F6000 X134.669 Y101.294
G1 F1200 X129.879 Y96.504 E73.43337
G0 F6000 X129.314 Y96.504
G1 F1200 X134.104 Y101.294 E73.65867
G0 F6000 X133.538 Y101.294
G1 F1200 X128.748 Y96.504 E73.88398
G0 F6000 X128.182 Y96.504
G1 F1200 X132.972 Y101.294 E74.10929
G0 F6000 X132.407 Y101.294
G1 F1200 X127.617 Y96.504 E74.33459
G0 F6000 X127.051 Y96.504
G1 F1200 X131.841 Y101.294 E74.5599
G0 F6000 X131.275 Y101.294
G1 F1200 X126.485 Y96.504 E74.78521
G0 F6000 X125.92 Y96.504
G1 F1200 X130.71 Y101.294 E75.01051
G0 F6000 X130.144 Y101.294
G1 F1200 X125.354 Y96.504 E75.23582
G0 F6000 X124.788 Y96.504
G1 F1200 X129.578 Y101.294 E75.46113
G0 F6000 X129.013 Y101.294
G1 F1200 X124.223 Y96.504 E75.68644
G0 F6000 X123.657 Y96.504
G1 F1200 X128.447 Y101.294 E75.91174
G0 F6000 X127.881 Y101.294
G1 F1200 X123.091 Y96.504 E76.13705
