;FLAVOR:Marlin
;TIME:1953
;Filament used: 1.18367m
;Layer height: 0.16
;MINX:76.365
;MINY:67.762
;MINZ:0.2
;MAXX:158.65
;MAXY:125.062
;MAXZ:3.8
;Generated with Cura_SteamEngine 4.10.0
M140 S50
M105
M190 S50
M104 S200
M105
M109 S200
M82 ;absolute extrusion mode
; Ender 3 Custom Start G-code
G92 E0 ; Reset Extruder
G28 ; Home all axes
G1 Z2.0 F3000 ; Move Z Axis up little to prevent scratching of Heat Bed
G1 X0.1 Y20 Z0.3 F5000.0 ; Move to start position
G1 X0.1 Y200.0 Z0.3 F1500.0 E15 ; Draw the first line
G1 X0.4 Y200.0 Z0.3 F5000.0 ; Move to side a little
G1 X0.4 Y20 Z0.3 F1500.0 E30 ; Draw the second line
G92 E0 ; Reset Extruder
G1 Z2.0 F3000 ; Move Z Axis up little to prevent scratching of Heat Bed
G1 X5 Y20 Z0.3 F5000.0 ; Move over to prevent blob squish
G92 E0
G92 E0
G1 F2700 E-5
;LAYER_COUNT:22
;LAYER:0
M107
G0 F6000 X83.705 Y71.979 Z0.2
;TYPE:SKIRT
G1 F2700 E0
G1 F1200 X84.315 Y71.267 E0.03118
G1 X84.984 Y70.609 E0.06239
G1 X85.706 Y70.01 E0.0936
G1 X86.476 Y69.476 E0.12476
G1 X87.289 Y69.008 E0.15596
G1 X88.139 Y68.612 E0.18715
G1 X89.02 Y68.29 E0.21835
G1 X89.925 Y68.043 E0.24955
G1 X90.848 Y67.875 E0.28075
G1 X92.051 Y67.775 E0.3209
G1 X92.373 Y67.766 E0.33162
G1 X92.68 Y67.762 E0.34183
G1 X146.943 Y67.762 E2.14662
G1 X147.799 Y67.773 E2.1751
G1 X148.735 Y67.827 E2.20628
G1 X149.663 Y67.959 E2.23746
G1 X150.577 Y68.171 E2.26866
G1 X151.469 Y68.46 E2.29985
G1 X152.334 Y68.823 E2.33105
G1 X153.164 Y69.259 E2.36223
G1 X153.955 Y69.764 E2.39345
G1 X154.699 Y70.335 E2.42464
G1 X155.392 Y70.967 E2.45584
G1 X156.029 Y71.655 E2.48702
G1 X156.604 Y72.396 E2.51822
G1 X157.115 Y73.182 E2.5494
G1 X157.557 Y74.01 E2.58062
G1 X157.926 Y74.872 E2.6118
G1 X158.221 Y75.762 E2.64299
G1 X158.439 Y76.674 E2.67418
G1 X158.579 Y77.602 E2.70539
G1 X158.637 Y78.463 E2.73409
G1 X158.646 Y78.783 E2.74474
G1 X158.65 Y79.092 E2.75502
G1 X158.649 Y81.112 E2.8222
G1 X158.639 Y81.813 E2.84552
G1 X158.63 Y82.119 E2.8557
G1 X158.602 Y82.786 E2.87791
G1 X158.528 Y85.43 E2.96588
G1 X158.528 Y87.926 E3.0489
G1 X158.601 Y90.525 E3.13538
G1 X158.63 Y91.192 E3.15758
G1 X158.639 Y91.508 E3.1681
G1 X158.65 Y92.374 E3.1969
G1 X158.649 Y94.012 E3.25138
G1 X158.639 Y94.713 E3.2747
G1 X158.586 Y95.649 E3.30588
G1 X158.396 Y96.86 E3.34665
G1 X158.106 Y98.212 E3.39264
G1 X157.604 Y100.718 E3.47765
G1 X157.177 Y103.219 E3.56203
G1 X156.826 Y105.686 E3.64491
G1 X156.54 Y108.206 E3.72927
G1 X156.327 Y110.729 E3.81348
G1 X156.186 Y113.233 E3.8969
G1 X156.133 Y114.477 E3.93831
G1 X156.089 Y115.096 E3.95895
G1 X155.961 Y116.025 E3.99014
G1 X155.754 Y116.94 E4.02134
G1 X155.469 Y117.833 E4.05252
G1 X155.109 Y118.699 E4.08371
G1 X154.677 Y119.532 E4.11492
G1 X154.176 Y120.325 E4.14612
G1 X153.609 Y121.072 E4.17731
G1 X152.98 Y121.768 E4.20851
G1 X152.295 Y122.407 E4.23967
G1 X151.557 Y122.987 E4.27089
G1 X150.773 Y123.501 E4.30207
G1 X149.947 Y123.946 E4.33328
G1 X149.087 Y124.32 E4.36447
G1 X148.198 Y124.619 E4.39566
G1 X147.287 Y124.841 E4.42685
G1 X146.36 Y124.985 E4.45805
G1 X145.449 Y125.049 E4.48843
G1 X145.13 Y125.058 E4.49904
G1 X144.82 Y125.062 E4.50935
G1 X90.415 Y125.061 E6.31887
G1 X89.717 Y125.052 E6.34209
G1 X88.781 Y125 E6.37327
G1 X87.852 Y124.868 E6.40448
G1 X86.938 Y124.658 E6.43567
G1 X86.045 Y124.371 E6.46687
G1 X85.18 Y124.008 E6.49807
G1 X84.349 Y123.574 E6.52925
G1 X83.558 Y123.07 E6.56044
G1 X82.813 Y122.5 E6.59164
G1 X82.119 Y121.869 E6.62284
G1 X81.482 Y121.182 E6.654
G1 X80.905 Y120.442 E6.68521
G1 X80.393 Y119.656 E6.71641
G1 X79.95 Y118.829 E6.74761
G1 X79.579 Y117.968 E6.7788
G1 X79.283 Y117.078 E6.80999
G1 X79.064 Y116.166 E6.84119
G1 X78.923 Y115.239 E6.87238
G1 X78.863 Y114.35 E6.90201
G1 X78.854 Y114.017 E6.91309
G1 X78.85 Y113.72 E6.92297
G1 X78.851 Y111.742 E6.98876
G1 X78.865 Y110.767 E7.02119
G1 X78.865 Y108.191 E7.10687
G1 X78.794 Y105.667 E7.19085
G1 X78.651 Y103.125 E7.27553
G1 X78.44 Y100.647 E7.35825
G1 X78.159 Y98.164 E7.44136
G1 X77.797 Y95.617 E7.52692
G1 X77.379 Y93.173 E7.60939
G1 X77.031 Y91.396 E7.66962
G1 X76.845 Y90.495 E7.70022
G1 X76.78 Y90.151 E7.71186
G1 X76.621 Y89.232 E7.74288
G1 X76.572 Y88.926 E7.75319
G1 X76.473 Y88.239 E7.77628
G1 X76.379 Y87.306 E7.80746
G1 X76.365 Y86.368 E7.83867
G1 X76.471 Y85.12 E7.88032
G1 X76.582 Y84.34 E7.90653
G1 X76.633 Y84.017 E7.9174
G1 X76.765 Y83.253 E7.94319
G1 X76.964 Y82.337 E7.97437
G1 X77.24 Y81.44 E8.00558
G1 X77.737 Y80.265 E8.04802
G1 X78.14 Y79.447 E8.07835
G1 X78.272 Y79.186 E8.08807
G1 X78.554 Y78.65 E8.10822
G1 X78.75 Y78.294 E8.12173
G1 X79.248 Y77.499 E8.15294
G1 X79.982 Y76.546 E8.19294
G1 X80.141 Y76.361 E8.20106
G1 X81.808 Y74.372 E8.28737
G1 X82.899 Y73.006 E8.34552
G1 X83.705 Y71.979 E8.38894
G0 F6000 X84.02 Y72.226
G1 F1200 X84.619 Y71.527 E8.41956
G1 X85.277 Y70.883 E8.45018
G1 X85.988 Y70.298 E8.4808
G1 X86.747 Y69.778 E8.51141
G1 X87.549 Y69.325 E8.54204
G1 X88.387 Y68.943 E8.57267
G1 X89.254 Y68.636 E8.60326
G1 X90.146 Y68.404 E8.63392
G1 X91.054 Y68.252 E8.66454
G1 X92.062 Y68.175 E8.69816
G1 X92.384 Y68.166 E8.70888
G1 X92.68 Y68.162 E8.71872
G1 X146.943 Y68.162 E10.52352
G1 X147.793 Y68.173 E10.55179
G1 X148.712 Y68.226 E10.58241
G1 X149.623 Y68.359 E10.61303
G1 X150.519 Y68.57 E10.64365
G1 X151.393 Y68.858 E10.67425
G1 X152.24 Y69.221 E10.7049
G1 X153.051 Y69.656 E10.73551
G1 X153.821 Y70.16 E10.76612
G1 X154.545 Y70.729 E10.79675
G1 X155.217 Y71.359 E10.82738
G1 X155.832 Y72.044 E10.858
G1 X156.385 Y72.78 E10.88862
G1 X156.872 Y73.561 E10.91923
G1 X157.289 Y74.382 E10.94986
G1 X157.634 Y75.236 E10.98049
G1 X157.903 Y76.116 E11.0111
G1 X158.095 Y77.017 E11.04174
G1 X158.208 Y77.93 E11.07234
G1 X158.237 Y78.474 E11.09046
G1 X158.246 Y78.794 E11.10111
G1 X158.25 Y79.092 E11.11102
G1 X158.249 Y81.106 E11.178
G1 X158.239 Y81.807 E11.20132
G1 X158.231 Y82.102 E11.21114
G1 X158.2 Y82.828 E11.23531
G1 X158.128 Y85.419 E11.32152
G1 X158.128 Y87.938 E11.4053
G1 X158.202 Y90.551 E11.49224
G1 X158.23 Y91.209 E11.51415
G1 X158.239 Y91.513 E11.52426
G1 X158.25 Y92.374 E11.5529
G1 X158.249 Y94.006 E11.60718
G1 X158.239 Y94.707 E11.6305
G1 X158.186 Y95.626 E11.66112
G1 X158.005 Y96.776 E11.69984
G1 X157.715 Y98.128 E11.74583
G1 X157.211 Y100.643 E11.83114
G1 X156.781 Y103.166 E11.91627
G1 X156.427 Y105.651 E11.99975
G1 X156.142 Y108.163 E12.08384
G1 X155.93 Y110.67 E12.16752
G1 X155.784 Y113.267 E12.25403
G1 X155.733 Y114.46 E12.29375
G1 X155.691 Y115.058 E12.31368
G1 X155.564 Y115.97 E12.34431
G1 X155.359 Y116.867 E12.37491
G1 X155.076 Y117.743 E12.40553
G1 X154.718 Y118.592 E12.43618
G1 X154.288 Y119.406 E12.4668
G1 X153.789 Y120.179 E12.4974
G1 X153.225 Y120.907 E12.52803
G1 X152.6 Y121.583 E12.55865
G1 X151.918 Y122.202 E12.58928
G1 X151.186 Y122.759 E12.61988
G1 X150.407 Y123.251 E12.65052
G1 X149.589 Y123.674 E12.68115
G1 X148.738 Y124.023 E12.71174
G1 X147.859 Y124.298 E12.74238
G1 X146.96 Y124.495 E12.77299
G1 X146.047 Y124.614 E12.80361
G1 X145.438 Y124.649 E12.8239
G1 X145.119 Y124.658 E12.83451
G1 X144.82 Y124.662 E12.84446
G1 X90.42 Y124.661 E14.65381
G1 X89.722 Y124.652 E14.67703
G1 X88.803 Y124.6 E14.70764
G1 X87.892 Y124.469 E14.73825
G1 X86.996 Y124.259 E14.76886
G1 X86.121 Y123.972 E14.79949
G1 X85.274 Y123.61 E14.83013
G1 X84.462 Y123.176 E14.86075
G1 X83.691 Y122.674 E14.89135
G1 X82.966 Y122.106 E14.92198
G1 X82.293 Y121.477 E14.95262
G1 X81.678 Y120.793 E14.98321
G1 X81.124 Y120.058 E15.01383
G1 X80.636 Y119.277 E15.04446
G1 X80.217 Y118.457 E15.07508
G1 X79.871 Y117.604 E15.1057
G1 X79.601 Y116.724 E15.13632
G1 X79.408 Y115.823 E15.16696
G1 X79.294 Y114.91 E15.19757
G1 X79.263 Y114.339 E15.21659
G1 X79.254 Y114.006 E15.22767
G1 X79.25 Y113.72 E15.23718
G1 X79.251 Y111.748 E15.30277
G1 X79.265 Y110.773 E15.3352
G1 X79.265 Y108.18 E15.42144
G1 X79.194 Y105.632 E15.50622
G1 X79.053 Y103.138 E15.58931
G1 X78.838 Y100.604 E15.67389
G1 X78.554 Y98.099 E15.75774
G1 X78.194 Y95.565 E15.84287
G1 X77.767 Y93.067 E15.92716
G1 X77.444 Y91.419 E15.98301
G1 X77.237 Y90.414 E16.01714
G1 X77.174 Y90.083 E16.02835
G1 X77.015 Y89.164 E16.05937
G1 X76.968 Y88.869 E16.0693
G1 X76.869 Y88.182 E16.09239
G1 X76.778 Y87.266 E16.123
G1 X76.766 Y86.345 E16.15364
G1 X76.867 Y85.177 E16.19263
G1 X76.978 Y84.397 E16.21884
G1 X77.027 Y84.085 E16.22934
G1 X77.159 Y83.321 E16.25513
G1 X77.355 Y82.422 E16.28573
G1 X77.628 Y81.543 E16.31635
G1 X78.095 Y80.441 E16.35615
G1 X78.498 Y79.623 E16.38648
G1 X78.626 Y79.373 E16.39582
G1 X78.908 Y78.837 E16.41597
G1 X79.098 Y78.492 E16.42907
G1 X79.587 Y77.712 E16.45969
G1 X80.285 Y76.808 E16.49767
G1 X80.408 Y76.666 E16.50392
G1 X82.141 Y74.596 E16.59371
G1 X83.212 Y73.256 E16.65077
G1 X84.02 Y72.226 E16.69431
G0 F6000 X84.335 Y72.473
G1 F1200 X84.923 Y71.788 E16.72434
G1 X85.57 Y71.158 E16.75437
G1 X86.27 Y70.587 E16.78442
G1 X87.018 Y70.081 E16.81445
G1 X87.807 Y69.642 E16.84448
G1 X88.633 Y69.276 E16.87453
G1 X89.487 Y68.983 E16.90456
G1 X90.364 Y68.768 E16.9346
G1 X91.257 Y68.631 E16.96464
G1 X92.073 Y68.575 E16.99185
G1 X92.395 Y68.566 E17.00256
G1 X92.68 Y68.562 E17.01204
G1 X146.943 Y68.562 E18.81684
G1 X147.787 Y68.573 E18.84491
G1 X148.689 Y68.626 E18.87496
G1 X149.582 Y68.758 E18.90499
G1 X150.46 Y68.969 E18.93502
G1 X151.316 Y69.257 E18.96506
G1 X152.143 Y69.619 E18.99509
G1 X152.935 Y70.054 E19.02514
G1 X153.686 Y70.556 E19.05518
G1 X154.389 Y71.123 E19.08522
G1 X155.039 Y71.75 E19.11526
G1 X155.631 Y72.432 E19.1453
G1 X156.161 Y73.163 E19.17533
G1 X156.623 Y73.939 E19.20537
G1 X157.016 Y74.752 E19.2354
G1 X157.334 Y75.597 E19.26543
G1 X157.577 Y76.467 E19.29548
G1 X157.742 Y77.355 E19.32552
G1 X157.837 Y78.485 E19.36323
G1 X157.846 Y78.805 E19.37388
G1 X157.85 Y79.092 E19.38343
G1 X157.849 Y81.1 E19.45021
G1 X157.839 Y81.801 E19.47353
G1 X157.831 Y82.086 E19.48301
G1 X157.801 Y82.802 E19.50685
G1 X157.728 Y85.408 E19.59356
G1 X157.728 Y87.949 E19.67807
G1 X157.8 Y90.511 E19.76332
G1 X157.831 Y91.226 E19.78712
G1 X157.839 Y91.519 E19.79687
G1 X157.85 Y92.374 E19.82531
G1 X157.849 Y94 E19.87939
G1 X157.839 Y94.701 E19.90271
G1 X157.786 Y95.603 E19.93276
G1 X157.614 Y96.693 E19.96946
G1 X157.324 Y98.045 E20.01545
G1 X156.818 Y100.569 E20.10107
G1 X156.384 Y103.114 E20.18694
G1 X156.033 Y105.587 E20.27002
G1 X155.745 Y108.118 E20.35474
G1 X155.531 Y110.653 E20.43936
G1 X155.386 Y113.226 E20.52507
G1 X155.334 Y114.443 E20.56559
G1 X155.293 Y115.02 E20.58483
G1 X155.168 Y115.914 E20.61485
G1 X154.964 Y116.794 E20.64489
G1 X154.683 Y117.652 E20.67492
G1 X154.327 Y118.483 E20.70499
G1 X153.899 Y119.278 E20.73502
G1 X153.403 Y120.032 E20.76504
G1 X152.841 Y120.74 E20.79511
G1 X152.22 Y121.395 E20.82513
G1 X151.543 Y121.992 E20.85515
G1 X150.815 Y122.528 E20.88522
G1 X150.043 Y122.997 E20.91526
G1 X149.233 Y123.395 E20.94528
G1 X148.391 Y123.721 E20.97531
G1 X147.523 Y123.971 E21.00535
G1 X146.636 Y124.143 E21.0354
G1 X145.427 Y124.249 E21.07577
G1 X145.108 Y124.258 E21.08638
G1 X144.82 Y124.262 E21.09596
G1 X90.425 Y124.261 E22.90515
G1 X89.727 Y124.252 E22.92836
G1 X88.826 Y124.201 E22.95838
G1 X87.932 Y124.069 E22.98844
G1 X87.054 Y123.86 E23.01845
G1 X86.197 Y123.573 E23.04851
G1 X85.37 Y123.212 E23.07853
G1 X84.577 Y122.779 E23.10858
G1 X83.826 Y122.278 E23.1386
G1 X83.122 Y121.712 E23.16865
G1 X82.471 Y121.086 E23.19869
G1 X81.878 Y120.405 E23.22872
G1 X81.348 Y119.674 E23.25875
G1 X80.884 Y118.899 E23.2888
G1 X80.49 Y118.086 E23.31884
G1 X80.17 Y117.242 E23.34887
G1 X79.926 Y116.372 E23.37892
G1 X79.76 Y115.484 E23.40897
G1 X79.663 Y114.329 E23.44752
G1 X79.654 Y113.996 E23.4586
G1 X79.65 Y113.72 E23.46778
G1 X79.651 Y111.754 E23.53317
G1 X79.665 Y110.779 E23.5656
G1 X79.665 Y108.169 E23.65241
G1 X79.594 Y105.635 E23.73672
G1 X79.45 Y103.081 E23.8218
G1 X79.236 Y100.562 E23.90589
G1 X78.949 Y98.03 E23.99064
G1 X78.596 Y95.546 E24.07409
G1 X78.162 Y93.009 E24.1597
G1 X77.816 Y91.242 E24.21958
G1 X77.629 Y90.334 E24.25042
G1 X77.568 Y90.015 E24.26122
G1 X77.409 Y89.096 E24.29224
G1 X77.364 Y88.812 E24.3018
G1 X77.265 Y88.125 E24.32489
G1 X77.176 Y87.226 E24.35494
G1 X77.167 Y86.323 E24.38497
G1 X77.263 Y85.233 E24.42136
G1 X77.374 Y84.453 E24.44757
G1 X77.421 Y84.153 E24.45767
G1 X77.553 Y83.389 E24.48346
G1 X77.746 Y82.507 E24.51349
G1 X78.016 Y81.645 E24.54353
G1 X78.454 Y80.618 E24.58066
G1 X78.857 Y79.8 E24.61099
G1 X78.98 Y79.559 E24.61999
G1 X79.262 Y79.023 E24.64014
G1 X79.446 Y78.689 E24.65282
G1 X79.926 Y77.924 E24.68286
G1 X80.588 Y77.069 E24.71882
G1 X80.734 Y76.9 E24.72625
G1 X82.435 Y74.869 E24.81436
G1 X83.524 Y73.506 E24.87239
G1 X84.335 Y72.473 E24.91607
G1 F2700 E19.91607
;MESH:Veneer2topsides.stl
G0 F6000 X89.183 Y81.988
G0 X89.676 Y82.953
G0 X88.722 Y85.482
G0 X88.535 Y86.662
G0 X88.722 Y87.842
G0 X89.264 Y88.905
G0 X90.108 Y89.749
G0 X91.063 Y90.236
G0 X93.35 Y90.807
;TYPE:WALL-INNER
G1 F2700 E24.91607
G1 F1200 X91.116 Y90.455 E24.99129
G1 X90.007 Y89.889 E25.0327
G1 X89.124 Y89.006 E25.07424
G1 X88.558 Y87.896 E25.11568
G1 X88.363 Y86.662 E25.15723
G1 X88.558 Y85.428 E25.19878
G1 X89.124 Y84.318 E25.24022
G1 X90.006 Y83.436 E25.28171
G1 X91.116 Y82.87 E25.32315
G1 X93.35 Y82.517 E25.39838
G1 X93.35 Y79.762 E25.49001
G1 X146.65 Y79.762 E27.26277
G1 X146.65 Y80.808 E27.29756
G1 X145.792 Y80.944 E27.32646
G1 X144.116 Y81.797 E27.38901
G1 X142.785 Y83.128 E27.45161
G1 X141.932 Y84.804 E27.51416
G1 X141.638 Y86.662 E27.57673
G1 X141.932 Y88.52 E27.63929
G1 X142.785 Y90.196 E27.70184
G1 X144.116 Y91.527 E27.76445
G1 X145.792 Y92.381 E27.82701
G1 X146.65 Y92.517 E27.8559
G1 X146.65 Y93.562 E27.89066
G1 X93.35 Y93.562 E29.66343
G1 X93.35 Y90.807 E29.75506
G0 F6000 X92.95 Y91.149
G1 F1200 X90.991 Y90.84 E29.82102
G1 X89.768 Y90.216 E29.86669
G1 X88.797 Y89.245 E29.91236
G1 X88.173 Y88.021 E29.95805
G1 X87.958 Y86.662 E30.00382
G1 X88.173 Y85.303 E30.04958
G1 X88.797 Y84.079 E30.09528
G1 X89.767 Y83.109 E30.1409
G1 X90.991 Y82.485 E30.1866
G1 X92.95 Y82.175 E30.25256
G1 X92.95 Y79.362 E30.34612
G1 X147.05 Y79.362 E32.1455
G1 X147.05 Y81.149 E32.20493
G1 X145.917 Y81.329 E32.24309
G1 X144.354 Y82.125 E32.30143
G1 X143.113 Y83.366 E32.3598
G1 X142.317 Y84.929 E32.41814
G1 X142.043 Y86.662 E32.4765
G1 X142.317 Y88.395 E32.53485
G1 X143.113 Y89.958 E32.59319
G1 X144.354 Y91.199 E32.65156
G1 X145.917 Y91.996 E32.70992
G1 X147.05 Y92.175 E32.74807
G1 X147.05 Y93.962 E32.80751
G1 X92.95 Y93.962 E34.60688
G1 X92.95 Y91.149 E34.70044
G0 F6000 X92.55 Y91.491
;TYPE:WALL-OUTER
G1 F1200 X90.866 Y91.225 E34.75714
G1 X89.529 Y90.543 E34.80706
G1 X88.47 Y89.484 E34.85688
G1 X87.788 Y88.146 E34.90683
G1 X87.553 Y86.662 E34.9568
G1 X87.788 Y85.178 E35.00677
G1 X88.47 Y83.84 E35.05672
G1 X89.528 Y82.782 E35.10649
G1 X90.866 Y82.1 E35.15644
G1 X92.55 Y81.833 E35.21315
G1 X92.55 Y78.962 E35.30864
G1 X147.45 Y78.962 E37.13462
G1 X147.45 Y81.491 E37.21873
G1 X146.042 Y81.714 E37.26615
G1 X144.592 Y82.453 E37.32028
G1 X143.441 Y83.604 E37.37442
G1 X142.702 Y85.054 E37.42854
G1 X142.448 Y86.662 E37.48269
G1 X142.702 Y88.27 E37.53684
G1 X143.441 Y89.72 E37.59096
G1 X144.592 Y90.871 E37.6451
G1 X146.042 Y91.611 E37.69925
G1 X147.45 Y91.833 E37.74666
G1 X147.45 Y94.362 E37.83077
G1 X92.55 Y94.362 E39.65675
G1 X92.55 Y91.491 E39.75224
G0 F6000 X92.597 Y91.196
G0 X93.484 Y90.691
G0 X93.74 Y90.474
;TYPE:SKIN
G1 F1200 X91.234 Y90.078 E39.83663
G1 X90.238 Y89.57 E39.87382
G1 X89.443 Y88.775 E39.91121
G1 X88.935 Y87.778 E39.94843
G1 X88.759 Y86.662 E39.986
G1 X88.935 Y85.546 E40.02358
G1 X89.443 Y84.549 E40.0608
G1 X90.237 Y83.755 E40.09814
G1 X91.234 Y83.247 E40.13536
G1 X93.74 Y82.85 E40.21975
G1 X93.74 Y80.152 E40.30949
G1 X146.26 Y80.152 E42.05631
G1 X146.26 Y80.474 E42.06702
G1 X145.67 Y80.568 E42.08689
G1 X143.884 Y81.477 E42.15354
G1 X142.465 Y82.896 E42.22029
G1 X141.556 Y84.682 E42.28694
G1 X141.244 Y86.662 E42.35361
G1 X141.556 Y88.642 E42.42028
G1 X142.465 Y90.428 E42.48693
G1 X143.884 Y91.847 E42.55368
G1 X145.67 Y92.757 E42.62035
G1 X146.26 Y92.851 E42.64022
G1 X146.26 Y93.172 E42.65089
G1 X93.74 Y93.172 E44.39772
G1 X93.74 Y90.474 E44.48745
G0 F6000 X93.484 Y90.691
G0 X93.532 Y93.38
G0 X94.142 Y93.452
G0 X94.142 Y93.011
G1 F1200 X93.898 Y92.767 E44.49893
G0 F6000 X93.898 Y92.201
