;FLAVOR:Marlin
;TIME:20585
;Filament used: 13.3733m
;Layer height: 0.16
;MINX:37.716
;MINY:38.887
;MINZ:0.2
;MAXX:196.9
;MAXY:196.068
;MAXZ:6.6
;Generated with Cura_SteamEngine 4.10.0
M140 S50
M105
M190 S50
M104 S200
M105
M109 S200
M82 ;absolute extrusion mode
; Ender 3 Custom Start G-code
G92 E0 ; Reset Extruder
G28 ; Home all axes
G1 Z2.0 F3000 ; Move Z Axis up little to prevent scratching of Heat Bed
G1 X0.1 Y20 Z0.3 F5000.0 ; Move to start position
G1 X0.1 Y200.0 Z0.3 F1500.0 E15 ; Draw the first line
G1 X0.4 Y200.0 Z0.3 F5000.0 ; Move to side a little
G1 X0.4 Y20 Z0.3 F1500.0 E30 ; Draw the second line
G92 E0 ; Reset Extruder
G1 Z2.0 F3000 ; Move Z Axis up little to prevent scratching of Heat Bed
G1 X5 Y20 Z0.3 F5000.0 ; Move over to prevent blob squish
G92 E0
G92 E0
G1 F2700 E-5
;LAYER_COUNT:36
;LAYER:0
M107
G0 F6000 X51.851 Y42.075 Z0.2
;TYPE:SKIRT
G1 F2700 E0
G1 F1200 X52.35 Y41.463 E0.02626
G1 X52.908 Y40.904 E0.05253
G1 X53.519 Y40.404 E0.07879
G1 X54.178 Y39.969 E0.10506
G1 X54.878 Y39.603 E0.13133
G1 X55.611 Y39.309 E0.1576
G1 X56.37 Y39.091 E0.18386
G1 X57.147 Y38.951 E0.21012
G1 X58.142 Y38.887 E0.24328
G1 X93.502 Y38.887 E1.41936
G1 X94.291 Y38.927 E1.44564
G1 X95.071 Y39.046 E1.47188
G1 X95.836 Y39.244 E1.49816
G1 X96.576 Y39.518 E1.52441
G1 X97.285 Y39.866 E1.55068
G1 X97.956 Y40.284 E1.57697
G1 X98.58 Y40.767 E1.60322
G1 X99.017 Y41.172 E1.62303
G1 X109.032 Y51.187 E2.09411
G1 X140.892 Y51.187 E3.15378
G1 X141.681 Y51.227 E3.18005
G1 X142.461 Y51.346 E3.20629
G1 X143.226 Y51.544 E3.23258
G1 X143.966 Y51.818 E3.25882
G1 X144.675 Y52.166 E3.28509
G1 X145.346 Y52.584 E3.31139
G1 X145.97 Y53.067 E3.33763
G1 X146.543 Y53.61 E3.36389
G1 X147.058 Y54.209 E3.39016
G1 X147.509 Y54.857 E3.41642
G1 X147.893 Y55.548 E3.44271
G1 X148.205 Y56.273 E3.46896
G1 X148.442 Y57.026 E3.49522
G1 X148.601 Y57.8 E3.5215
G1 X148.682 Y58.585 E3.54775
G1 X148.682 Y59.375 E3.57402
G1 X148.603 Y60.161 E3.6003
G1 X148.445 Y60.934 E3.62654
G1 X148.209 Y61.688 E3.65282
G1 X147.899 Y62.414 E3.67907
G1 X147.516 Y63.105 E3.70535
G1 X147.066 Y63.754 E3.73162
G1 X146.407 Y64.502 E3.76477
G1 X140.81 Y70.099 E4.02804
G1 X141.927 Y71.216 E4.08058
G1 X148.226 Y64.917 E4.37687
G1 X148.812 Y64.387 E4.40315
G1 X149.449 Y63.92 E4.42942
G1 X150.129 Y63.519 E4.45567
G1 X150.847 Y63.189 E4.48196
G1 X151.594 Y62.934 E4.50821
G1 X152.363 Y62.755 E4.53447
G1 X153.146 Y62.655 E4.56072
G1 X153.742 Y62.632 E4.58056
G1 X189.102 Y62.632 E5.75664
G1 X189.891 Y62.672 E5.78292
G1 X190.671 Y62.791 E5.80916
G1 X191.436 Y62.989 E5.83544
G1 X192.176 Y63.263 E5.86169
G1 X192.885 Y63.611 E5.88796
G1 X193.556 Y64.029 E5.91425
G1 X194.18 Y64.512 E5.94049
G1 X194.753 Y65.055 E5.96675
G1 X195.268 Y65.654 E5.99302
G1 X195.719 Y66.302 E6.01928
G1 X196.103 Y66.993 E6.04558
G1 X196.415 Y67.718 E6.07183
G1 X196.652 Y68.471 E6.09808
G1 X196.811 Y69.245 E6.12437
G1 X196.892 Y70.03 E6.15061
G1 X196.892 Y70.82 E6.17689
G1 X196.813 Y71.606 E6.20316
G1 X196.655 Y72.379 E6.2294
G1 X196.419 Y73.133 E6.25568
G1 X196.109 Y73.859 E6.28194
G1 X195.726 Y74.55 E6.30822
G1 X195.276 Y75.199 E6.33448
G1 X194.618 Y75.947 E6.36762
G1 X189.02 Y81.545 E6.63093
G1 X194.617 Y87.142 E6.8942
G1 X195.147 Y87.728 E6.92048
G1 X195.614 Y88.364 E6.94672
G1 X196.015 Y89.044 E6.97298
G1 X196.345 Y89.762 E6.99926
G1 X196.6 Y90.509 E7.02551
G1 X196.779 Y91.278 E7.05177
G1 X196.879 Y92.062 E7.07806
G1 X196.9 Y92.851 E7.10431
G1 X196.84 Y93.638 E7.13056
G1 X196.701 Y94.416 E7.15685
G1 X196.484 Y95.175 E7.1831
G1 X196.192 Y95.909 E7.20938
G1 X196.068 Y96.147 E7.2183
G1 X196.068 Y129.468 E8.32656
G1 X196.028 Y130.257 E8.35284
G1 X195.909 Y131.037 E8.37908
G1 X195.711 Y131.802 E8.40537
G1 X195.437 Y132.542 E8.43161
G1 X195.089 Y133.251 E8.45788
G1 X194.671 Y133.922 E8.48417
G1 X194.188 Y134.546 E8.51042
G1 X193.783 Y134.983 E8.53024
G1 X182.67 Y146.096 E9.05296
G1 X182.084 Y146.626 E9.07924
G1 X181.448 Y147.093 E9.10548
G1 X180.768 Y147.494 E9.13174
G1 X180.05 Y147.824 E9.15802
G1 X179.303 Y148.079 E9.18427
G1 X178.52 Y148.26 E9.211
G1 X178.52 Y182.951 E10.36483
G1 X178.48 Y183.74 E10.39111
G1 X178.361 Y184.52 E10.41735
G1 X178.163 Y185.285 E10.44363
G1 X177.889 Y186.025 E10.46988
G1 X177.541 Y186.734 E10.49615
G1 X177.123 Y187.405 E10.52244
G1 X176.64 Y188.029 E10.54868
G1 X176.097 Y188.602 E10.57494
G1 X175.498 Y189.117 E10.60121
G1 X174.85 Y189.568 E10.62747
G1 X174.159 Y189.952 E10.65377
G1 X173.434 Y190.264 E10.68002
G1 X172.681 Y190.501 E10.70627
G1 X171.907 Y190.66 E10.73256
G1 X171.122 Y190.741 E10.7588
G1 X170.332 Y190.741 E10.78508
G1 X169.546 Y190.662 E10.81135
G1 X168.773 Y190.504 E10.83759
G1 X168.019 Y190.268 E10.86387
G1 X167.293 Y189.958 E10.89013
G1 X166.602 Y189.575 E10.91641
G1 X165.953 Y189.125 E10.94267
G1 X165.205 Y188.466 E10.97583
G1 X159.607 Y182.868 E11.23914
G1 X154.01 Y188.465 E11.50241
G1 X153.424 Y188.995 E11.52869
G1 X152.788 Y189.462 E11.55493
G1 X152.108 Y189.863 E11.58119
G1 X151.39 Y190.193 E11.60747
G1 X150.643 Y190.448 E11.63372
G1 X149.874 Y190.627 E11.65998
G1 X149.09 Y190.727 E11.68627
G1 X148.301 Y190.748 E11.71252
G1 X147.514 Y190.688 E11.73877
G1 X146.736 Y190.549 E11.76506
G1 X145.977 Y190.332 E11.79132
G1 X145.243 Y190.04 E11.81759
G1 X144.543 Y189.675 E11.84385
G1 X143.883 Y189.241 E11.87012
G1 X143.271 Y188.742 E11.89638
G1 X142.712 Y188.184 E11.92265
G1 X142.212 Y187.573 E11.94891
G1 X141.777 Y186.914 E11.97518
G1 X141.411 Y186.214 E12.00145
G1 X141.117 Y185.481 E12.02772
G1 X140.899 Y184.722 E12.05398
G1 X140.759 Y183.945 E12.08024
G1 X140.751 Y183.813 E12.08464
G1 X108.998 Y183.813 E13.14075
G1 X99.029 Y193.783 E13.60968
G1 X98.443 Y194.313 E13.63596
G1 X97.806 Y194.78 E13.66223
G1 X97.126 Y195.181 E13.68849
G1 X96.408 Y195.511 E13.71477
G1 X95.661 Y195.766 E13.74102
G1 X94.892 Y195.945 E13.76728
G1 X94.109 Y196.045 E13.79354
G1 X93.513 Y196.068 E13.81338
G1 X58.153 Y196.068 E14.98946
G1 X57.364 Y196.028 E15.01573
G1 X56.584 Y195.909 E15.04197
G1 X55.819 Y195.711 E15.06826
G1 X55.079 Y195.437 E15.0945
G1 X54.37 Y195.089 E15.12077
G1 X53.699 Y194.671 E15.14706
G1 X53.075 Y194.188 E15.17331
G1 X52.502 Y193.645 E15.19957
G1 X51.987 Y193.046 E15.22584
G1 X51.536 Y192.398 E15.2521
G1 X51.152 Y191.707 E15.27839
G1 X50.84 Y190.982 E15.30464
G1 X50.603 Y190.229 E15.3309
G1 X50.444 Y189.455 E15.35718
G1 X50.363 Y188.67 E15.38343
G1 X50.363 Y187.88 E15.4097
G1 X50.442 Y187.094 E15.43598
G1 X50.6 Y186.321 E15.46222
G1 X50.836 Y185.567 E15.4885
G1 X51.146 Y184.841 E15.51475
G1 X51.529 Y184.15 E15.54103
G1 X51.979 Y183.501 E15.5673
G1 X52.637 Y182.753 E15.60043
G1 X58.235 Y177.155 E15.86375
G1 X52.638 Y171.558 E16.12701
G1 X52.108 Y170.972 E16.15329
G1 X51.641 Y170.336 E16.17953
G1 X51.24 Y169.656 E16.20579
G1 X50.943 Y169.01 E16.22944
G1 X50.726 Y168.698 E16.24208
G1 X50.342 Y168.007 E16.26837
G1 X50.03 Y167.282 E16.29462
G1 X49.793 Y166.529 E16.32088
G1 X49.634 Y165.755 E16.34716
G1 X49.553 Y164.97 E16.37341
G1 X49.553 Y164.18 E16.39968
G1 X49.632 Y163.394 E16.42596
G1 X49.79 Y162.621 E16.4522
G1 X50.026 Y161.867 E16.47848
G1 X50.336 Y161.141 E16.50473
G1 X50.719 Y160.45 E16.53101
G1 X51.169 Y159.801 E16.55728
G1 X51.827 Y159.053 E16.59041
G1 X57.425 Y153.455 E16.85373
G1 X51.828 Y147.858 E17.11699
G1 X51.298 Y147.272 E17.14327
G1 X50.831 Y146.636 E17.16951
G1 X50.43 Y145.956 E17.19577
G1 X50.1 Y145.238 E17.22205
G1 X50.019 Y145.001 E17.23038
G1 X40.001 Y134.983 E17.7016
G1 X39.471 Y134.397 E17.72788
G1 X39.004 Y133.761 E17.75412
G1 X38.603 Y133.081 E17.78038
G1 X38.273 Y132.363 E17.80666
G1 X38.018 Y131.616 E17.83291
G1 X37.839 Y130.847 E17.85918
G1 X37.739 Y130.063 E17.88546
G1 X37.716 Y129.468 E17.90527
G1 X37.716 Y94.108 E19.08135
G1 X37.756 Y93.319 E19.10762
G1 X37.875 Y92.539 E19.13386
G1 X38.073 Y91.774 E19.16015
G1 X38.347 Y91.034 E19.18639
G1 X38.695 Y90.325 E19.21266
G1 X39.113 Y89.654 E19.23896
G1 X39.596 Y89.03 E19.2652
G1 X40.139 Y88.457 E19.29146
G1 X40.738 Y87.942 E19.31773
G1 X41.386 Y87.491 E19.34399
G1 X42.077 Y87.107 E19.37028
G1 X42.802 Y86.795 E19.39653
G1 X43.555 Y86.558 E19.42279
G1 X44.329 Y86.399 E19.44907
G1 X45.114 Y86.318 E19.47532
G1 X45.904 Y86.318 E19.50159
G1 X46.69 Y86.397 E19.52787
G1 X47.463 Y86.555 E19.55411
G1 X48.217 Y86.791 E19.58039
G1 X48.943 Y87.101 E19.60664
G1 X49.634 Y87.484 E19.63292
G1 X50.283 Y87.934 E19.65919
G1 X50.813 Y88.401 E19.68268
G1 X51.168 Y87.89 E19.70338
G1 X51.827 Y87.141 E19.73656
G1 X57.424 Y81.544 E19.99983
G1 X51.827 Y75.947 E20.26309
G1 X51.297 Y75.361 E20.28937
G1 X50.83 Y74.725 E20.31561
G1 X50.429 Y74.045 E20.34187
G1 X50.099 Y73.327 E20.36815
G1 X49.844 Y72.58 E20.39441
G1 X49.665 Y71.811 E20.42067
G1 X49.565 Y71.027 E20.44695
G1 X49.544 Y70.238 E20.47321
G1 X49.604 Y69.451 E20.49946
G1 X49.743 Y68.673 E20.52574
G1 X49.96 Y67.914 E20.552
G1 X50.252 Y67.18 E20.57827
G1 X50.617 Y66.48 E20.60453
G1 X50.883 Y66.076 E20.62062
G1 X51.135 Y65.485 E20.64199
G1 X51.518 Y64.794 E20.66826
G1 X51.968 Y64.145 E20.69453
G1 X52.627 Y63.396 E20.72771
G1 X58.224 Y57.799 E20.99098
G1 X52.627 Y52.202 E21.25424
G1 X52.097 Y51.616 E21.28052
G1 X51.63 Y50.98 E21.30677
G1 X51.229 Y50.3 E21.33302
G1 X50.899 Y49.582 E21.35931
G1 X50.644 Y48.835 E21.38556
G1 X50.465 Y48.066 E21.41182
G1 X50.365 Y47.282 E21.43811
G1 X50.344 Y46.493 E21.46436
G1 X50.404 Y45.706 E21.49061
G1 X50.543 Y44.928 E21.5169
G1 X50.76 Y44.169 E21.54315
G1 X51.052 Y43.435 E21.56943
G1 X51.417 Y42.735 E21.59568
G1 X51.851 Y42.075 E21.62196
G0 F6000 X52.344 Y42.089
G1 F1200 X52.852 Y41.512 E21.64753
G1 X53.418 Y40.991 E21.67311
G1 X54.035 Y40.532 E21.69869
G1 X54.696 Y40.138 E21.72428
G1 X55.394 Y39.816 E21.74985
G1 X56.122 Y39.568 E21.77543
G1 X56.872 Y39.397 E21.80102
G1 X57.636 Y39.304 E21.82661
G1 X58.142 Y39.287 E21.84345
G1 X93.502 Y39.287 E23.01953
G1 X94.27 Y39.327 E23.04511
G1 X95.03 Y39.446 E23.0707
G1 X95.773 Y39.644 E23.09627
G1 X96.492 Y39.918 E23.12186
G1 X97.178 Y40.265 E23.14743
G1 X97.825 Y40.681 E23.17301
G1 X98.425 Y41.162 E23.19859
G1 X98.735 Y41.454 E23.21276
G1 X108.868 Y51.587 E23.68938
G1 X140.892 Y51.587 E24.7545
G1 X141.66 Y51.627 E24.78008
G1 X142.42 Y51.746 E24.80567
G1 X143.163 Y51.944 E24.83124
G1 X143.882 Y52.218 E24.85683
G1 X144.568 Y52.565 E24.8824
G1 X145.215 Y52.981 E24.90799
G1 X145.815 Y53.462 E24.93356
G1 X146.362 Y54.003 E24.95915
G1 X146.85 Y54.598 E24.98475
G1 X147.273 Y55.24 E25.01032
G1 X147.628 Y55.923 E25.03592
G1 X147.909 Y56.638 E25.06147
G1 X148.115 Y57.38 E25.08708
G1 X148.243 Y58.138 E25.11265
G1 X148.292 Y58.906 E25.13825
G1 X148.26 Y59.674 E25.16381
G1 X148.149 Y60.435 E25.18939
G1 X147.959 Y61.181 E25.215
G1 X147.693 Y61.902 E25.24056
G1 X147.354 Y62.593 E25.26616
G1 X146.945 Y63.244 E25.29173
G1 X146.47 Y63.849 E25.31731
G1 X146.125 Y64.22 E25.33416
G1 X140.245 Y70.1 E25.61074
G1 X141.927 Y71.782 E25.68986
G1 X148.509 Y65.2 E25.99945
G1 X149.081 Y64.685 E26.02505
G1 X149.702 Y64.232 E26.05062
G1 X150.368 Y63.846 E26.07622
G1 X151.07 Y63.531 E26.10181
G1 X151.8 Y63.291 E26.12737
G1 X152.552 Y63.128 E26.15296
G1 X153.316 Y63.044 E26.17853
G1 X153.742 Y63.032 E26.1927
G1 X189.102 Y63.032 E27.36878
G1 X189.87 Y63.072 E27.39436
G1 X190.63 Y63.191 E27.41994
G1 X191.373 Y63.389 E27.44552
G1 X192.092 Y63.663 E27.47111
G1 X192.778 Y64.01 E27.49668
G1 X193.425 Y64.426 E27.52226
G1 X194.025 Y64.907 E27.54784
G1 X194.572 Y65.448 E27.57343
G1 X195.06 Y66.043 E27.59902
G1 X195.483 Y66.685 E27.62459
G1 X195.838 Y67.368 E27.6502
G1 X196.119 Y68.083 E27.67575
G1 X196.325 Y68.825 E27.70136
G1 X196.453 Y69.583 E27.72693
G1 X196.502 Y70.351 E27.75252
G1 X196.47 Y71.119 E27.77809
G1 X196.359 Y71.88 E27.80367
G1 X196.169 Y72.626 E27.82927
G1 X195.903 Y73.347 E27.85483
G1 X195.564 Y74.038 E27.88043
G1 X195.155 Y74.689 E27.906
G1 X194.68 Y75.294 E27.93159
G1 X194.335 Y75.664 E27.94841
G1 X188.455 Y81.544 E28.22499
G1 X194.335 Y87.424 E28.50157
G1 X194.849 Y87.996 E28.52715
G1 X195.302 Y88.618 E28.55274
G1 X195.688 Y89.283 E28.57831
G1 X196.003 Y89.985 E28.6039
G1 X196.243 Y90.716 E28.62949
G1 X196.406 Y91.467 E28.65505
G1 X196.49 Y92.232 E28.68065
G1 X196.494 Y93.001 E28.70623
G1 X196.418 Y93.766 E28.7318
G1 X196.264 Y94.52 E28.75739
G1 X196.032 Y95.253 E28.78297
G1 X195.725 Y95.958 E28.80854
G1 X195.668 Y96.059 E28.8124
G1 X195.668 Y129.468 E29.92359
G1 X195.628 Y130.236 E29.94916
G1 X195.509 Y130.996 E29.97475
G1 X195.311 Y131.739 E30.00032
G1 X195.037 Y132.458 E30.02592
G1 X194.69 Y133.144 E30.05149
G1 X194.274 Y133.791 E30.07707
G1 X193.793 Y134.391 E30.10265
G1 X193.501 Y134.701 E30.11681
G1 X182.388 Y145.814 E30.63953
G1 X181.816 Y146.328 E30.66511
G1 X181.194 Y146.781 E30.6907
G1 X180.529 Y147.167 E30.71628
G1 X179.827 Y147.482 E30.74187
G1 X179.096 Y147.722 E30.76746
G1 X178.345 Y147.885 E30.79302
G1 X178.12 Y147.91 E30.80055
G1 X178.12 Y182.951 E31.96602
G1 X178.08 Y183.719 E31.99159
G1 X177.961 Y184.479 E32.01718
G1 X177.763 Y185.222 E32.04275
G1 X177.489 Y185.941 E32.06835
G1 X177.142 Y186.627 E32.09392
G1 X176.726 Y187.274 E32.1195
G1 X176.245 Y187.874 E32.14508
G1 X175.704 Y188.421 E32.17066
G1 X175.109 Y188.909 E32.19626
G1 X174.467 Y189.332 E32.22183
G1 X173.784 Y189.687 E32.24743
G1 X173.069 Y189.968 E32.27298
G1 X172.327 Y190.174 E32.2986
G1 X171.569 Y190.302 E32.32416
G1 X170.801 Y190.351 E32.34976
G1 X170.033 Y190.319 E32.37533
G1 X169.272 Y190.208 E32.4009
G1 X168.526 Y190.018 E32.42651
G1 X167.805 Y189.752 E32.45207
G1 X167.114 Y189.413 E32.47767
G1 X166.463 Y189.004 E32.50324
G1 X165.858 Y188.529 E32.52882
G1 X165.487 Y188.184 E32.54567
G1 X159.607 Y182.304 E32.82225
G1 X153.728 Y188.183 E33.09878
G1 X153.156 Y188.697 E33.12436
G1 X152.534 Y189.15 E33.14995
G1 X151.869 Y189.536 E33.17553
G1 X151.167 Y189.851 E33.20112
G1 X150.436 Y190.091 E33.22671
G1 X149.685 Y190.254 E33.25227
G1 X148.92 Y190.338 E33.27786
G1 X148.151 Y190.342 E33.30344
G1 X147.386 Y190.266 E33.32901
G1 X146.632 Y190.112 E33.35461
G1 X145.899 Y189.88 E33.38018
G1 X145.194 Y189.573 E33.40575
G1 X144.524 Y189.194 E33.43136
G1 X143.897 Y188.748 E33.45695
G1 X143.32 Y188.24 E33.48252
G1 X142.799 Y187.674 E33.5081
G1 X142.34 Y187.057 E33.53368
G1 X141.946 Y186.396 E33.55927
G1 X141.624 Y185.698 E33.58484
G1 X141.376 Y184.97 E33.61042
G1 X141.205 Y184.22 E33.63601
G1 X141.112 Y183.456 E33.6616
G1 X141.11 Y183.406 E33.66327
G1 X140.892 Y183.413 E33.67052
G1 X108.832 Y183.413 E34.73684
G1 X98.746 Y193.5 E35.21128
G1 X98.174 Y194.015 E35.23688
G1 X97.553 Y194.468 E35.26245
G1 X96.887 Y194.854 E35.28805
G1 X96.185 Y195.169 E35.31364
G1 X95.455 Y195.409 E35.3392
G1 X94.703 Y195.572 E35.36479
G1 X93.939 Y195.656 E35.39036
G1 X93.513 Y195.668 E35.40453
G1 X58.153 Y195.668 E36.58061
G1 X57.385 Y195.628 E36.60619
G1 X56.625 Y195.509 E36.63177
G1 X55.882 Y195.311 E36.65735
G1 X55.163 Y195.037 E36.68294
G1 X54.477 Y194.69 E36.70851
G1 X53.83 Y194.274 E36.73409
G1 X53.23 Y193.793 E36.75967
G1 X52.683 Y193.252 E36.78526
G1 X52.195 Y192.657 E36.81085
G1 X51.772 Y192.015 E36.83642
G1 X51.417 Y191.332 E36.86203
G1 X51.136 Y190.617 E36.88758
G1 X50.93 Y189.875 E36.91319
G1 X50.802 Y189.117 E36.93876
G1 X50.753 Y188.349 E36.96435
G1 X50.785 Y187.581 E36.98992
G1 X50.896 Y186.82 E37.0155
G1 X51.086 Y186.074 E37.0411
G1 X51.352 Y185.353 E37.06666
G1 X51.691 Y184.662 E37.09226
G1 X52.1 Y184.011 E37.11783
G1 X52.575 Y183.406 E37.14342
G1 X52.92 Y183.036 E37.16024
G1 X58.8 Y177.156 E37.43682
G1 X52.92 Y171.276 E37.7134
G1 X52.406 Y170.704 E37.73897
G1 X51.953 Y170.082 E37.76457
G1 X51.567 Y169.417 E37.79014
G1 X51.308 Y168.841 E37.81115
G1 X50.962 Y168.315 E37.83209
G1 X50.607 Y167.632 E37.85769
G1 X50.326 Y166.917 E37.88324
G1 X50.12 Y166.175 E37.90885
G1 X49.992 Y165.417 E37.93442
G1 X49.943 Y164.649 E37.96002
G1 X49.975 Y163.881 E37.98558
G1 X50.086 Y163.12 E38.01116
G1 X50.276 Y162.374 E38.03677
G1 X50.542 Y161.653 E38.06233
G1 X50.881 Y160.962 E38.08793
G1 X51.29 Y160.311 E38.1135
G1 X51.765 Y159.706 E38.13908
G1 X52.11 Y159.336 E38.15591
G1 X57.99 Y153.456 E38.43248
G1 X52.11 Y147.576 E38.70906
G1 X51.596 Y147.004 E38.73464
G1 X51.143 Y146.382 E38.76023
G1 X50.757 Y145.717 E38.78581
G1 X50.442 Y145.015 E38.8114
