;FLAVOR:Marlin
;TIME:5992
;Filament used: 4.83999m
;Layer height: 0.16
;MINX:45.814
;MINY:40.5
;MINZ:0.2
;MAXX:219.866
;MAXY:211.042
;MAXZ:1
;Generated with Cura_SteamEngine 4.10.0
M140 S50
M105
M190 S50
M104 S200
M105
M109 S200
M82 ;absolute extrusion mode
; Ender 3 Custom Start G-code
G92 E0 ; Reset Extruder
G28 ; Home all axes
G1 Z2.0 F3000 ; Move Z Axis up little to prevent scratching of Heat Bed
G1 X0.1 Y20 Z0.3 F5000.0 ; Move to start position
G1 X0.1 Y200.0 Z0.3 F1500.0 E15 ; Draw the first line
G1 X0.4 Y200.0 Z0.3 F5000.0 ; Move to side a little
G1 X0.4 Y20 Z0.3 F1500.0 E30 ; Draw the second line
G92 E0 ; Reset Extruder
G1 Z2.0 F3000 ; Move Z Axis up little to prevent scratching of Heat Bed
G1 X5 Y20 Z0.3 F5000.0 ; Move over to prevent blob squish
G92 E0
G92 E0
G1 F2700 E-5
;LAYER_COUNT:7
;LAYER:0
M107
G0 F6000 X49.292 Y57.216 Z0.2
;TYPE:SKIRT
G1 F2700 E0
G1 F1200 X50.002 Y56.604 E0.03118
G1 X50.763 Y56.055 E0.06239
G1 X51.567 Y55.572 E0.09358
G1 X52.409 Y55.16 E0.12476
G1 X53.284 Y54.821 E0.15597
G1 X54.184 Y54.558 E0.18716
G1 X55.103 Y54.372 E0.21834
G1 X56.035 Y54.266 E0.24954
G1 X56.613 Y54.24 E0.26878
G1 X57.523 Y54.223 E0.29906
G1 X57.728 Y54.221 E0.30588
G1 X75.666 Y54.221 E0.9025
G1 X78.274 Y54.184 E0.98925
G1 X80.796 Y54.077 E1.0732
G1 X83.291 Y53.9 E1.1564
G1 X85.789 Y53.652 E1.23989
G1 X88.278 Y53.334 E1.32335
G1 X90.787 Y52.94 E1.40782
G1 X93.253 Y52.481 E1.49125
G1 X95.704 Y51.954 E1.57463
G1 X98.164 Y51.351 E1.65887
G1 X100.598 Y50.681 E1.74284
G1 X102.977 Y49.953 E1.82559
G1 X105.38 Y49.142 E1.90994
G1 X107.75 Y48.268 E1.99396
G1 X110.083 Y47.332 E2.07756
G1 X112.375 Y46.335 E2.1607
G1 X114.689 Y45.249 E2.24571
G1 X116.885 Y44.144 E2.32748
G1 X119.808 Y42.551 E2.4382
G1 X120.869 Y41.948 E2.47879
G1 X121.703 Y41.52 E2.50997
G1 X122.571 Y41.164 E2.54117
G1 X123.466 Y40.883 E2.57237
G1 X124.382 Y40.68 E2.60358
G1 X125.311 Y40.555 E2.63475
G1 X125.943 Y40.516 E2.65581
G1 X126.324 Y40.506 E2.66849
G1 X126.867 Y40.5 E2.68655
G1 X163.605 Y40.5 E3.90846
G1 X164.463 Y40.511 E3.937
G1 X165.399 Y40.564 E3.96818
G1 X166.328 Y40.697 E3.9994
G1 X167.241 Y40.909 E4.03057
G1 X168.134 Y41.197 E4.06178
G1 X168.998 Y41.561 E4.09296
G1 X169.829 Y41.997 E4.12418
G1 X170.619 Y42.502 E4.15536
G1 X171.363 Y43.072 E4.18653
G1 X172.056 Y43.704 E4.21773
G1 X172.693 Y44.393 E4.24894
G1 X173.269 Y45.133 E4.28013
G1 X173.78 Y45.92 E4.31134
G1 X174.052 Y46.41 E4.32998
G1 X174.608 Y47.475 E4.36994
G1 X174.875 Y48.004 E4.38964
G1 X176.065 Y50.2 E4.47272
G1 X177.337 Y52.399 E4.55721
G1 X178.651 Y54.531 E4.64051
G1 X180.042 Y56.65 E4.72482
G1 X181.474 Y58.701 E4.80801
G1 X182.987 Y60.742 E4.89252
G1 X184.523 Y62.698 E4.97523
G1 X186.141 Y64.642 E5.05936
G1 X187.811 Y66.536 E5.14334
G1 X189.513 Y68.361 E5.22634
G1 X191.287 Y70.157 E5.3103
G1 X193.112 Y71.905 E5.39436
G1 X194.985 Y73.598 E5.47833
G1 X196.89 Y75.225 E5.56165
G1 X198.859 Y76.812 E5.64577
G1 X200.856 Y78.33 E5.7292
G1 X202.909 Y79.803 E5.81324
G1 X204.974 Y81.197 E5.89611
G1 X207.114 Y82.555 E5.9804
G1 X209.293 Y83.853 E6.06476
G1 X211.472 Y85.069 E6.14776
G1 X213.744 Y86.255 E6.233
G1 X214.556 Y86.724 E6.26419
G1 X215.325 Y87.261 E6.29538
G1 X216.046 Y87.861 E6.32658
G1 X216.713 Y88.52 E6.35777
G1 X217.321 Y89.234 E6.38896
G1 X217.867 Y89.997 E6.42017
G1 X218.345 Y90.803 E6.45133
G1 X218.753 Y91.648 E6.48254
G1 X219.087 Y92.524 E6.51372
G1 X219.346 Y93.426 E6.54494
G1 X219.527 Y94.346 E6.57612
G1 X219.629 Y95.278 E6.60731
G1 X219.651 Y96.216 E6.63851
G1 X219.593 Y97.152 E6.6697
G1 X219.439 Y98.163 E6.70372
G1 X219.247 Y99.121 E6.73621
G1 X219.059 Y99.997 E6.76601
G1 X218.593 Y102.504 E6.85083
G1 X218.207 Y104.966 E6.93371
G1 X217.891 Y107.445 E7.01683
G1 X217.64 Y109.96 E7.1009
G1 X217.462 Y112.494 E7.18539
G1 X217.357 Y114.979 E7.26811
G1 X217.321 Y117.51 E7.3523
G1 X217.357 Y120.026 E7.43599
G1 X217.465 Y122.559 E7.52032
G1 X217.641 Y125.034 E7.60284
G1 X217.89 Y127.541 E7.68664
G1 X218.216 Y130.082 E7.77184
G1 X218.595 Y132.502 E7.85331
G1 X219.217 Y135.774 E7.96409
G1 X219.432 Y136.813 E7.99938
G1 X219.568 Y137.619 E8.02657
G1 X219.756 Y139.06 E8.0749
G1 X219.846 Y140.283 E8.11569
G1 X219.866 Y141.471 E8.15521
G1 X219.865 Y178.004 E9.3703
G1 X219.855 Y178.706 E9.39365
G1 X219.802 Y179.642 E9.42483
G1 X219.669 Y180.57 E9.45601
G1 X219.457 Y181.484 E9.48722
G1 X219.169 Y182.377 E9.51843
G1 X218.805 Y183.241 E9.54961
G1 X218.369 Y184.072 E9.58082
G1 X217.864 Y184.862 E9.61201
G1 X217.294 Y185.606 E9.64318
G1 X216.921 Y186.03 E9.66196
G1 X216.78 Y186.182 E9.66886
G1 X216.578 Y186.394 E9.6786
G1 X216.312 Y186.664 E9.6912
G1 X195.529 Y207.447 E10.66877
G1 X195.039 Y207.924 E10.69152
G1 X194.34 Y208.549 E10.7227
G1 X193.59 Y209.112 E10.75389
G1 X192.794 Y209.609 E10.78511
G1 X191.96 Y210.037 E10.81628
G1 X191.092 Y210.392 E10.84748
G1 X190.196 Y210.672 E10.8787
G1 X189.281 Y210.874 E10.90986
G1 X188.351 Y210.998 E10.94107
G1 X187.414 Y211.042 E10.97227
G1 X186.477 Y211.006 E11.00346
G1 X185.546 Y210.89 E11.03466
G1 X184.629 Y210.696 E11.06584
G1 X183.731 Y210.424 E11.09704
G1 X182.86 Y210.077 E11.12823
G1 X182.022 Y209.656 E11.15942
G1 X181.533 Y209.368 E11.17829
G1 X181.141 Y209.122 E11.19369
G1 X179.422 Y208.015 E11.26169
G1 X177.262 Y206.708 E11.34566
G1 X175.072 Y205.466 E11.4294
G1 X172.852 Y204.289 E11.51297
G1 X170.583 Y203.166 E11.59718
G1 X168.314 Y202.124 E11.68022
G1 X165.996 Y201.136 E11.76403
G1 X163.65 Y200.214 E11.84787
G1 X161.282 Y199.361 E11.93158
G1 X158.896 Y198.576 E12.01512
G1 X156.467 Y197.852 E12.09943
G1 X154.054 Y197.207 E12.1825
G1 X151.573 Y196.617 E12.26732
G1 X149.127 Y196.111 E12.3504
G1 X146.662 Y195.671 E12.43368
G1 X144.149 Y195.296 E12.51819
G1 X141.679 Y194.999 E12.60093
G1 X139.145 Y194.766 E12.68557
G1 X136.645 Y194.609 E12.76888
G1 X134.104 Y194.52 E12.85345
G1 X132.256 Y194.5 E12.91492
G1 X126.863 Y194.499 E13.09429
G1 X126.163 Y194.489 E13.11757
G1 X125.227 Y194.436 E13.14875
G1 X124.298 Y194.303 E13.17997
G1 X123.384 Y194.091 E13.21117
G1 X122.358 Y193.752 E13.24711
G1 X121.498 Y193.378 E13.27831
G1 X120.815 Y193.016 E13.30402
G1 X120.323 Y192.733 E13.32289
G1 X118.042 Y191.459 E13.40979
G1 X115.811 Y190.296 E13.49347
G1 X113.526 Y189.185 E13.57798
G1 X111.26 Y188.162 E13.66067
G1 X108.927 Y187.188 E13.74476
G1 X106.554 Y186.273 E13.82935
G1 X104.211 Y185.447 E13.91198
G1 X101.803 Y184.674 E13.99609
G1 X99.397 Y183.975 E14.07943
G1 X96.963 Y183.342 E14.16307
G1 X94.485 Y182.772 E14.24764
G1 X92.028 Y182.278 E14.331
G1 X89.57 Y181.859 E14.41393
G1 X87.05 Y181.501 E14.49859
G1 X84.57 Y181.22 E14.5816
G1 X82.024 Y181.004 E14.66659
G1 X79.601 Y180.866 E14.74731
G1 X75.642 Y180.783 E14.87901
G1 X57.348 Y180.782 E15.48747
G1 X56.69 Y180.772 E15.50936
G1 X55.754 Y180.718 E15.54054
G1 X54.825 Y180.584 E15.57176
G1 X53.912 Y180.371 E15.60295
G1 X53.02 Y180.082 E15.63413
G1 X52.155 Y179.718 E15.66534
G1 X51.325 Y179.281 E15.69654
G1 X50.536 Y178.775 E15.72772
G1 X49.792 Y178.204 E15.75891
G1 X49.099 Y177.572 E15.79011
G1 X48.463 Y176.882 E15.82132
G1 X47.951 Y176.23 E15.84889
G1 X47.922 Y176.19 E15.85053
G1 X47.405 Y175.408 E15.88171
G1 X46.956 Y174.584 E15.91292
G1 X46.578 Y173.726 E15.94411
G1 X46.275 Y172.838 E15.97532
G1 X46.049 Y171.928 E16.0065
G1 X45.901 Y171.002 E16.03769
G1 X45.833 Y170.066 E16.06891
G1 X45.845 Y169.128 E16.10011
G1 X45.936 Y168.195 E16.13128
G1 X46.041 Y167.578 E16.1521
G1 X46.201 Y166.777 E16.17927
G1 X46.409 Y165.807 E16.21226
G1 X46.879 Y163.279 E16.29779
G1 X47.265 Y160.817 E16.38067
G1 X47.581 Y158.338 E16.46379
G1 X47.832 Y155.823 E16.54786
G1 X48.01 Y153.289 E16.63235
G1 X48.115 Y150.804 E16.71507
G1 X48.151 Y148.273 E16.79926
G1 X48.115 Y145.757 E16.88295
G1 X48.007 Y143.224 E16.96728
G1 X47.831 Y140.748 E17.04984
G1 X47.582 Y138.242 E17.1336
G1 X47.253 Y135.682 E17.21944
G1 X46.876 Y133.277 E17.30041
G1 X46.257 Y130.018 E17.41074
G1 X46.049 Y129.019 E17.44468
G1 X45.898 Y128.093 E17.47589
G1 X45.826 Y127.158 E17.50708
G1 X45.852 Y125.929 E17.54797
G1 X45.962 Y124.527 E17.59474
G1 X45.972 Y124.424 E17.59818
G1 X46.13 Y121.959 E17.68034
G1 X46.221 Y119.426 E17.76464
G1 X46.24 Y116.91 E17.84832
G1 X46.187 Y114.388 E17.93222
G1 X46.062 Y111.833 E18.0173
G1 X45.909 Y109.797 E18.08521
G1 X45.855 Y109.169 E18.10618
G1 X45.814 Y108.232 E18.13737
G1 X45.853 Y107.295 E18.16856
G1 X46.026 Y106.072 E18.20965
G1 X46.224 Y105.086 E18.2431
G1 X46.407 Y104.234 E18.27208
G1 X46.875 Y101.717 E18.35723
G1 X47.261 Y99.255 E18.44012
G1 X47.577 Y96.776 E18.52324
G1 X47.828 Y94.261 E18.6073
G1 X48.006 Y91.727 E18.69179
G1 X48.111 Y89.234 E18.77478
G1 X48.147 Y86.711 E18.8587
G1 X48.111 Y84.195 E18.9424
G1 X48.003 Y81.662 E19.02672
G1 X47.827 Y79.186 E19.10928
G1 X47.578 Y76.68 E19.19304
G1 X47.252 Y74.143 E19.27811
G1 X46.871 Y71.709 E19.36006
G1 X46.253 Y68.456 E19.47019
G1 X46.051 Y67.49 E19.50301
G1 X45.898 Y66.565 E19.53419
G1 X45.825 Y65.63 E19.56539
G1 X45.832 Y64.692 E19.59659
G1 X45.918 Y63.758 E19.62778
G1 X46.084 Y62.835 E19.65897
G1 X46.327 Y61.929 E19.69017
G1 X46.647 Y61.047 E19.72138
G1 X47.041 Y60.196 E19.75257
G1 X47.506 Y59.382 E19.78375
G1 X48.039 Y58.61 E19.81495
G1 X48.636 Y57.886 E19.84616
G1 X49.292 Y57.216 E19.87735
G0 F6000 X49.715 Y57.37
G1 F1200 X50.424 Y56.784 E19.90794
G1 X51.182 Y56.261 E19.93857
G1 X51.982 Y55.805 E19.9692
G1 X52.819 Y55.421 E19.99983
G1 X53.686 Y55.111 E20.03045
G1 X54.576 Y54.878 E20.06105
G1 X55.484 Y54.722 E20.0917
G1 X56.62 Y54.64 E20.12958
G1 X57.728 Y54.621 E20.16643
G1 X75.672 Y54.621 E20.76325
G1 X78.297 Y54.584 E20.85057
G1 X80.805 Y54.477 E20.93406
G1 X83.322 Y54.299 E21.01799
G1 X85.846 Y54.049 E21.10235
G1 X88.354 Y53.728 E21.18644
G1 X90.816 Y53.341 E21.26934
G1 X93.338 Y52.872 E21.35466
G1 X95.812 Y52.34 E21.43882
G1 X98.26 Y51.74 E21.52265
G1 X100.683 Y51.073 E21.60624
G1 X103.117 Y50.328 E21.6909
G1 X105.542 Y49.51 E21.77602
G1 X107.859 Y48.655 E21.85817
G1 X110.256 Y47.693 E21.94407
G1 X112.555 Y46.693 E22.02746
G1 X114.831 Y45.625 E22.11108
G1 X117.078 Y44.494 E22.19475
G1 X120.017 Y42.893 E22.30606
G1 X121.067 Y42.296 E22.34623
G1 X121.886 Y41.876 E22.37685
G1 X122.739 Y41.529 E22.40748
G1 X123.618 Y41.257 E22.43808
G1 X124.518 Y41.062 E22.46871
G1 X125.432 Y40.946 E22.49935
G1 X125.956 Y40.916 E22.51681
G1 X126.328 Y40.906 E22.52919
G1 X126.867 Y40.9 E22.54711
G1 X163.605 Y40.9 E23.76903
G1 X164.457 Y40.911 E23.79737
G1 X165.376 Y40.964 E23.82798
G1 X166.287 Y41.097 E23.8586
G1 X167.183 Y41.308 E23.88922
G1 X168.058 Y41.596 E23.91986
G1 X168.904 Y41.959 E23.95048
G1 X169.715 Y42.394 E23.98109
G1 X170.486 Y42.898 E24.01172
G1 X171.21 Y43.467 E24.04235
G1 X171.882 Y44.096 E24.07296
G1 X172.497 Y44.781 E24.10358
G1 X173.05 Y45.517 E24.1342
G1 X173.698 Y46.596 E24.17606
G1 X174.251 Y47.655 E24.2158
G1 X174.517 Y48.182 E24.23543
G1 X175.725 Y50.412 E24.31979
G1 X176.999 Y52.615 E24.40443
G1 X178.319 Y54.755 E24.48806
G1 X179.696 Y56.852 E24.5715
G1 X181.157 Y58.946 E24.65642
G1 X182.649 Y60.96 E24.73978
G1 X184.234 Y62.977 E24.82511
G1 X185.832 Y64.896 E24.90816
G1 X187.519 Y66.81 E24.99302
G1 X189.231 Y68.645 E25.07649
G1 X191.008 Y70.444 E25.1606
G1 X192.85 Y72.208 E25.24542
G1 X194.685 Y73.868 E25.32772
G1 X196.66 Y75.553 E25.41407
G1 X198.616 Y77.13 E25.49764
G1 X200.603 Y78.641 E25.58066
G1 X202.697 Y80.144 E25.66639
G1 X204.741 Y81.524 E25.74842
G1 X206.916 Y82.903 E25.83408
G1 X209.073 Y84.188 E25.91758
G1 X211.271 Y85.415 E26.00131
G1 X213.559 Y86.609 E26.08715
G1 X214.355 Y87.071 E26.11776
G1 X215.109 Y87.599 E26.14837
G1 X215.814 Y88.191 E26.17899
G1 X216.466 Y88.842 E26.20964
G1 X217.058 Y89.547 E26.24026
G1 X217.586 Y90.3 E26.27085
G1 X218.048 Y91.097 E26.30149
G1 X218.438 Y91.931 E26.33211
G1 X218.755 Y92.795 E26.36272
G1 X218.996 Y93.684 E26.39335
G1 X219.158 Y94.59 E26.42396
G1 X219.241 Y95.507 E26.45459
G1 X219.245 Y96.428 E26.48522
G1 X219.168 Y97.345 E26.51583
G1 X219.047 Y98.085 E26.54077
G1 X218.856 Y99.037 E26.57306
G1 X218.659 Y99.953 E26.60423
G1 X218.204 Y102.4 E26.68701
G1 X217.814 Y104.891 E26.77087
G1 X217.49 Y107.426 E26.85587
G1 X217.242 Y109.925 E26.93939
G1 X217.064 Y112.449 E27.02355
G1 X216.957 Y114.992 E27.10821
G1 X216.921 Y117.51 E27.19196
G1 X216.957 Y120.049 E27.27642
G1 X217.065 Y122.568 E27.36028
G1 X217.242 Y125.069 E27.44367
G1 X217.493 Y127.595 E27.5281
G1 X217.818 Y130.123 E27.61287
G1 X218.203 Y132.578 E27.69552
G1 X218.818 Y135.819 E27.80524
G1 X219.04 Y136.894 E27.84175
G1 X219.171 Y137.671 E27.86796
G1 X219.359 Y139.112 E27.9163
G1 X219.446 Y140.29 E27.95558
G1 X219.466 Y141.471 E27.99487
G1 X219.465 Y177.998 E29.20976
G1 X219.455 Y178.7 E29.23311
G1 X219.402 Y179.619 E29.26373
G1 X219.269 Y180.53 E29.29435
G1 X219.058 Y181.426 E29.32497
G1 X218.77 Y182.301 E29.35561
G1 X218.407 Y183.147 E29.38622
G1 X217.972 Y183.958 E29.41683
G1 X217.468 Y184.729 E29.44747
G1 X216.627 Y185.758 E29.49167
G1 X216.486 Y185.91 E29.49857
G1 X216.292 Y186.114 E29.50793
G1 X216.03 Y186.381 E29.52037
G1 X195.25 Y207.16 E30.49778
G1 X194.76 Y207.637 E30.52052
G1 X194.073 Y208.25 E30.55114
G1 X193.335 Y208.801 E30.58178
G1 X192.553 Y209.286 E30.61238
G1 X191.731 Y209.701 E30.64301
G1 X190.876 Y210.044 E30.67365
G1 X189.995 Y210.311 E30.70427
G1 X189.094 Y210.5 E30.73489
G1 X188.18 Y210.611 E30.76551
G1 X187.26 Y210.641 E30.79613
G1 X186.341 Y210.592 E30.82674
G1 X185.429 Y210.464 E30.85737
G1 X184.532 Y210.256 E30.88799
G1 X183.657 Y209.972 E30.91859
G1 X182.809 Y209.612 E30.94923
G1 X181.745 Y209.029 E30.98958
G1 X181.357 Y208.785 E31.00483
G1 X179.65 Y207.685 E31.07237
G1 X177.46 Y206.36 E31.1575
G1 X175.25 Y205.108 E31.24198
G1 X173.038 Y203.934 E31.32528
G1 X170.777 Y202.816 E31.40917
G1 X168.459 Y201.751 E31.49401
G1 X166.163 Y200.772 E31.57703
G1 X163.784 Y199.838 E31.66204
G1 X161.406 Y198.98 E31.74612
G1 X158.998 Y198.188 E31.83043
G1 X156.602 Y197.474 E31.91358
G1 X154.153 Y196.82 E31.99789
G1 X151.642 Y196.223 E32.08374
G1 X149.207 Y195.719 E32.16644
G1 X146.72 Y195.275 E32.25047
G1 X144.219 Y194.902 E32.33457
G1 X141.695 Y194.598 E32.41913
G1 X139.205 Y194.369 E32.50229
G1 X136.684 Y194.21 E32.58631
G1 X134.082 Y194.119 E32.67291
G1 X132.26 Y194.1 E32.73351
G1 X126.869 Y194.099 E32.91281
G1 X126.169 Y194.089 E32.9361
G1 X125.249 Y194.036 E32.96675
G1 X124.338 Y193.903 E32.99737
G1 X123.442 Y193.692 E33.02799
G1 X122.502 Y193.378 E33.06095
G1 X121.658 Y193.011 E33.09156
G1 X121.015 Y192.67 E33.11577
G1 X120.444 Y192.341 E33.13769
G1 X118.243 Y191.112 E33.22153
G1 X115.992 Y189.939 E33.30595
G1 X113.715 Y188.832 E33.39016
G1 X111.413 Y187.793 E33.47417
G1 X109.077 Y186.817 E33.55837
G1 X106.694 Y185.898 E33.64332
G1 X104.329 Y185.065 E33.72672
G1 X101.922 Y184.292 E33.8108
G1 X99.513 Y183.592 E33.89424
G1 X97.04 Y182.949 E33.97923
G1 X94.582 Y182.383 E34.06312
G1 X92.075 Y181.88 E34.14816
G1 X89.657 Y181.468 E34.22974
G1 X87.08 Y181.101 E34.31632
G1 X84.613 Y180.821 E34.3989
G1 X82.082 Y180.607 E34.48338
G1 X79.602 Y180.466 E34.566
G1 X75.651 Y180.383 E34.69744
G1 X57.354 Y180.382 E35.306
G1 X56.696 Y180.372 E35.32789
G1 X55.777 Y180.318 E35.35851
G1 X54.866 Y180.184 E35.38913
G1 X53.97 Y179.972 E35.41976
G1 X53.096 Y179.683 E35.45037
G1 X52.25 Y179.32 E35.48099
G1 X51.439 Y178.884 E35.51162
G1 X50.669 Y178.379 E35.54225
G1 X49.946 Y177.81 E35.57285
G1 X49.274 Y177.18 E35.60348
G1 X48.66 Y176.494 E35.6341
G1 X48.246 Y175.955 E35.65671
G1 X47.739 Y175.187 E35.68732
G1 X47.3 Y174.377 E35.71796
G1 X46.933 Y173.533 E35.74857
G1 X46.64 Y172.66 E35.7792
G1 X46.425 Y171.765 E35.80981
G1 X46.288 Y170.855 E35.84042
G1 X46.23 Y169.936 E35.87105
G1 X46.252 Y169.015 E35.90169
G1 X46.433 Y167.657 E35.94726
G1 X46.593 Y166.856 E35.97442
G1 X46.809 Y165.852 E36.00858
G1 X47.268 Y163.383 E36.09211
G1 X47.658 Y160.892 E36.17597
G1 X47.982 Y158.357 E36.26097
G1 X48.23 Y155.858 E36.34449
G1 X48.408 Y153.334 E36.42865
G1 X48.515 Y150.791 E36.51331
G1 X48.551 Y148.273 E36.59706
G1 X48.515 Y145.734 E36.68152
G1 X48.407 Y143.212 E36.76548
G1 X48.23 Y140.719 E36.8486
G1 X47.978 Y138.184 E36.93333
G1 X47.655 Y135.664 E37.01784
G1 X47.269 Y133.201 E37.10076
G1 X46.645 Y129.918 E37.2119
G1 X46.441 Y128.937 E37.24523
