;FLAVOR:Marlin
;TIME:743
;Filament used: 0.595531m
;Layer height: 0.16
;MINX:85.013
;MINY:85
;MINZ:0.2
;MAXX:150
;MAXY:150
;MAXZ:1.4
;Generated with Cura_SteamEngine 4.10.0
M140 S50
M105
M190 S50
M104 S200
M105
M109 S200
M82 ;absolute extrusion mode
; Ender 3 Custom Start G-code
G92 E0 ; Reset Extruder
G28 ; Home all axes
G1 Z2.0 F3000 ; Move Z Axis up little to prevent scratching of Heat Bed
G1 X0.1 Y20 Z0.3 F5000.0 ; Move to start position
G1 X0.1 Y200.0 Z0.3 F1500.0 E15 ; Draw the first line
G1 X0.4 Y200.0 Z0.3 F5000.0 ; Move to side a little
G1 X0.4 Y20 Z0.3 F1500.0 E30 ; Draw the second line
G92 E0 ; Reset Extruder
G1 Z2.0 F3000 ; Move Z Axis up little to prevent scratching of Heat Bed
G1 X5 Y20 Z0.3 F5000.0 ; Move over to prevent blob squish
G92 E0
G92 E0
G1 F2700 E-5
;LAYER_COUNT:8
;LAYER:0
M107
G0 F6000 X109.358 Y88.589 Z0.2
;TYPE:SKIRT
G1 F2700 E0
G1 F1200 X109.839 Y88.122 E0.0223
G1 X110.539 Y87.498 E0.05349
G1 X111.289 Y86.936 E0.08466
G1 X112.085 Y86.44 E0.11585
G1 X112.921 Y86.013 E0.14708
G1 X113.789 Y85.659 E0.17825
G1 X114.685 Y85.381 E0.20946
G1 X115.601 Y85.179 E0.24066
G1 X116.851 Y85.033 E0.28251
G1 X117.003 Y85.024 E0.28758
G1 X117.519 Y85.006 E0.30475
G1 X118.062 Y85 E0.32281
G1 X138.293 Y85 E0.9957
G1 X139.149 Y85.011 E1.02417
G1 X140.085 Y85.065 E1.05535
G1 X141.013 Y85.197 E1.08653
G1 X141.927 Y85.409 E1.11774
G1 X142.819 Y85.698 E1.14892
G1 X143.684 Y86.061 E1.18012
G1 X144.514 Y86.497 E1.21131
G1 X145.305 Y87.002 E1.24252
G1 X146.049 Y87.573 E1.27371
G1 X146.742 Y88.205 E1.30491
G1 X147.379 Y88.893 E1.33609
G1 X147.954 Y89.634 E1.36729
G1 X148.465 Y90.42 E1.39847
G1 X148.907 Y91.248 E1.42969
G1 X149.276 Y92.11 E1.46087
G1 X149.571 Y93 E1.49206
G1 X149.789 Y93.912 E1.52325
G1 X149.929 Y94.84 E1.55446
G1 X149.987 Y95.701 E1.58316
G1 X149.996 Y96.021 E1.59381
G1 X150 Y96.33 E1.60409
G1 X149.999 Y96.715 E1.61689
G1 X149.989 Y97.448 E1.64128
G1 X149.936 Y98.384 E1.67246
G1 X149.804 Y99.312 E1.70363
G1 X149.607 Y100.366 E1.7393
G1 X149.422 Y101.294 E1.77077
G1 X149.003 Y103.742 E1.85337
G1 X148.647 Y106.251 E1.93766
G1 X148.367 Y108.728 E2.02057
G1 X148.152 Y111.258 E2.10502
G1 X148.011 Y113.774 E2.18884
G1 X147.94 Y116.295 E2.27272
G1 X147.942 Y118.819 E2.35667
G1 X148.013 Y121.308 E2.43948
G1 X148.157 Y123.829 E2.52347
G1 X148.373 Y126.356 E2.60782
G1 X148.656 Y128.841 E2.69101
G1 X149.011 Y131.323 E2.7744
G1 X149.44 Y133.822 E2.85874
G1 X149.76 Y135.443 E2.91369
G1 X149.906 Y136.406 E2.94609
G1 X149.933 Y136.659 E2.95455
G1 X149.994 Y137.7 E2.98923
G1 X149.999 Y138.138 E3.0038
G1 X149.999 Y138.415 E3.01301
G1 X149.989 Y139.142 E3.0372
G1 X149.936 Y140.079 E3.06841
G1 X149.804 Y141.007 E3.09959
G1 X149.593 Y141.921 E3.13079
G1 X149.304 Y142.813 E3.16197
G1 X148.941 Y143.678 E3.19317
G1 X148.506 Y144.509 E3.22437
G1 X148.001 Y145.299 E3.25556
G1 X147.431 Y146.044 E3.28675
G1 X146.8 Y146.738 E3.31795
G1 X146.111 Y147.375 E3.34916
G1 X145.371 Y147.951 E3.38035
G1 X144.585 Y148.462 E3.41153
G1 X143.758 Y148.904 E3.44272
G1 X142.896 Y149.274 E3.47392
G1 X142.006 Y149.569 E3.50511
G1 X141.094 Y149.788 E3.5363
G1 X140.167 Y149.928 E3.56748
G1 X139.299 Y149.987 E3.59642
G1 X138.979 Y149.996 E3.60707
G1 X138.67 Y150 E3.61735
G1 X118.05 Y149.999 E4.30317
G1 X117.348 Y149.989 E4.32652
G1 X116.412 Y149.936 E4.3577
G1 X115.484 Y149.803 E4.38888
G1 X114.57 Y149.591 E4.42009
G1 X113.677 Y149.303 E4.4513
G1 X112.813 Y148.939 E4.48248
G1 X111.982 Y148.503 E4.51369
G1 X111.192 Y147.998 E4.54488
G1 X110.448 Y147.428 E4.57605
G1 X110.024 Y147.055 E4.59483
G1 X109.872 Y146.914 E4.60173
G1 X109.656 Y146.707 E4.61168
G1 X109.38 Y146.436 E4.62454
G1 X88.597 Y125.652 E5.60214
G1 X88.129 Y125.171 E5.62446
G1 X87.504 Y124.471 E5.65567
G1 X86.941 Y123.721 E5.68686
G1 X86.444 Y122.926 E5.71804
G1 X86.017 Y122.091 E5.74924
G1 X85.662 Y121.223 E5.78043
G1 X85.383 Y120.328 E5.81161
G1 X85.18 Y119.412 E5.84281
G1 X85.057 Y118.482 E5.87402
G1 X85.013 Y117.545 E5.90521
G1 X85.049 Y116.608 E5.9364
G1 X85.165 Y115.677 E5.96761
G1 X85.36 Y114.76 E5.99879
G1 X85.632 Y113.862 E6.03
G1 X85.979 Y112.991 E6.06118
G1 X86.4 Y112.153 E6.09237
G1 X86.89 Y111.354 E6.12355
G1 X87.447 Y110.599 E6.15475
G1 X88.023 Y109.94 E6.18386
G1 X88.234 Y109.717 E6.19407
G1 X88.446 Y109.499 E6.20419
G1 X109.358 Y88.589 E7.18778
G0 F6000 X109.636 Y88.876
G1 F1200 X110.117 Y88.409 E7.21007
G1 X110.805 Y87.797 E7.2407
G1 X111.543 Y87.247 E7.27131
G1 X112.326 Y86.763 E7.30193
G1 X113.149 Y86.349 E7.33257
G1 X114.004 Y86.008 E7.36319
G1 X114.885 Y85.742 E7.3938
G1 X115.786 Y85.554 E7.42441
G1 X116.874 Y85.433 E7.46082
G1 X117.026 Y85.424 E7.46588
G1 X117.523 Y85.406 E7.48242
G1 X118.062 Y85.4 E7.50035
G1 X138.293 Y85.4 E8.17324
G1 X139.143 Y85.411 E8.20151
G1 X140.062 Y85.464 E8.23213
G1 X140.973 Y85.597 E8.26275
G1 X141.869 Y85.808 E8.29337
G1 X142.743 Y86.096 E8.32397
G1 X143.59 Y86.459 E8.35462
G1 X144.401 Y86.894 E8.38523
G1 X145.171 Y87.398 E8.41584
G1 X145.895 Y87.967 E8.44647
G1 X146.567 Y88.597 E8.4771
G1 X147.182 Y89.282 E8.50772
G1 X147.735 Y90.018 E8.53834
G1 X148.222 Y90.799 E8.56895
G1 X148.639 Y91.62 E8.59958
G1 X148.984 Y92.474 E8.63022
G1 X149.253 Y93.354 E8.66082
G1 X149.445 Y94.255 E8.69146
G1 X149.558 Y95.168 E8.72206
G1 X149.587 Y95.712 E8.74018
G1 X149.596 Y96.032 E8.75083
G1 X149.6 Y96.33 E8.76074
G1 X149.599 Y96.71 E8.77338
G1 X149.589 Y97.443 E8.79776
G1 X149.536 Y98.362 E8.82838
G1 X149.411 Y99.238 E8.85781
G1 X149.215 Y100.288 E8.89333
G1 X149.029 Y101.22 E8.92494
G1 X148.606 Y103.69 E9.00829
G1 X148.252 Y106.186 E9.09214
G1 X147.966 Y108.721 E9.17699
G1 X147.752 Y111.236 E9.26094
G1 X147.611 Y113.741 E9.34439
G1 X147.54 Y116.284 E9.429
G1 X147.542 Y118.796 E9.51255
G1 X147.615 Y121.342 E9.59727
G1 X147.76 Y123.885 E9.68199
G1 X147.972 Y126.363 E9.76471
G1 X148.262 Y128.911 E9.85
G1 X148.614 Y131.376 E9.93282
G1 X149.053 Y133.928 E10.01894
G1 X149.367 Y135.521 E10.07295
G1 X149.508 Y136.448 E10.10413
G1 X149.535 Y136.701 E10.1126
G1 X149.594 Y137.705 E10.14605
G1 X149.599 Y138.143 E10.16062
G1 X149.599 Y138.41 E10.1695
G1 X149.589 Y139.137 E10.19368
G1 X149.536 Y140.056 E10.2243
G1 X149.404 Y140.967 E10.25491
G1 X149.193 Y141.863 E10.28553
G1 X148.906 Y142.738 E10.31616
G1 X148.543 Y143.584 E10.34678
G1 X148.109 Y144.396 E10.3774
G1 X147.605 Y145.167 E10.40803
G1 X147.037 Y145.891 E10.43864
G1 X146.408 Y146.563 E10.46926
G1 X145.723 Y147.178 E10.49987
G1 X144.987 Y147.731 E10.53049
G1 X144.206 Y148.219 E10.56112
G1 X143.386 Y148.637 E10.59174
G1 X142.532 Y148.982 E10.62237
G1 X141.652 Y149.251 E10.65298
G1 X140.751 Y149.444 E10.68362
G1 X139.838 Y149.557 E10.71422
G1 X139.288 Y149.587 E10.73254
G1 X138.968 Y149.596 E10.74319
G1 X138.67 Y149.6 E10.7531
G1 X118.056 Y149.599 E11.43873
G1 X117.354 Y149.589 E11.46208
G1 X116.435 Y149.536 E11.49269
G1 X115.524 Y149.403 E11.52332
G1 X114.628 Y149.192 E11.55393
G1 X113.753 Y148.904 E11.58457
G1 X112.907 Y148.541 E11.61519
G1 X112.096 Y148.106 E11.6458
G1 X111.325 Y147.602 E11.67643
G1 X110.296 Y146.761 E11.72064
G1 X110.144 Y146.62 E11.72753
G1 X109.936 Y146.422 E11.73708
G1 X109.741 Y146.231 E11.74616
G1 X88.884 Y125.373 E12.72723
G1 X88.416 Y124.892 E12.74956
G1 X87.803 Y124.205 E12.78018
G1 X87.252 Y123.467 E12.81081
G1 X86.767 Y122.684 E12.84145
G1 X86.352 Y121.863 E12.87204
G1 X86.01 Y121.008 E12.90267
G1 X85.744 Y120.127 E12.93328
G1 X85.554 Y119.226 E12.96391
G1 X85.444 Y118.312 E12.99452
G1 X85.414 Y117.392 E13.02514
G1 X85.463 Y116.472 E13.05578
G1 X85.592 Y115.561 E13.08639
G1 X85.8 Y114.664 E13.11701
G1 X86.084 Y113.788 E13.14764
G1 X86.444 Y112.941 E13.17825
G1 X86.875 Y112.127 E13.20888
G1 X87.376 Y111.355 E13.23949
G1 X87.942 Y110.629 E13.27011
G1 X88.313 Y110.215 E13.2886
G1 X88.524 Y109.992 E13.29881
G1 X88.729 Y109.782 E13.30857
G1 X109.636 Y88.876 E14.29195
G0 F6000 X109.915 Y89.163
G1 F1200 X110.396 Y88.696 E14.31425
G1 X111.071 Y88.096 E14.34429
G1 X111.797 Y87.558 E14.37434
G1 X112.567 Y87.087 E14.40436
G1 X113.376 Y86.685 E14.43441
G1 X114.217 Y86.357 E14.46443
G1 X115.084 Y86.104 E14.49447
G1 X115.97 Y85.93 E14.5245
G1 X116.898 Y85.832 E14.55554
G1 X117.05 Y85.823 E14.56061
G1 X117.528 Y85.806 E14.57651
G1 X118.062 Y85.8 E14.59428
G1 X138.293 Y85.8 E15.26716
G1 X139.137 Y85.811 E15.29524
G1 X140.039 Y85.864 E15.32529
G1 X140.932 Y85.996 E15.35531
G1 X141.81 Y86.207 E15.38535
G1 X142.666 Y86.495 E15.41539
G1 X143.493 Y86.857 E15.44541
G1 X144.285 Y87.292 E15.47546
G1 X145.036 Y87.794 E15.50551
G1 X145.739 Y88.361 E15.53555
G1 X146.389 Y88.988 E15.56559
G1 X146.981 Y89.67 E15.59562
G1 X147.511 Y90.401 E15.62566
G1 X147.973 Y91.177 E15.65569
G1 X148.366 Y91.99 E15.68573
G1 X148.684 Y92.835 E15.71576
G1 X148.927 Y93.705 E15.7458
G1 X149.092 Y94.593 E15.77584
G1 X149.187 Y95.723 E15.81356
G1 X149.196 Y96.043 E15.8242
G1 X149.2 Y96.33 E15.83375
G1 X149.199 Y96.704 E15.84619
G1 X149.189 Y97.437 E15.87057
G1 X149.137 Y98.339 E15.90062
G1 X149.018 Y99.165 E15.92838
G1 X148.822 Y100.21 E15.96374
G1 X148.641 Y101.117 E15.9945
G1 X148.21 Y103.637 E16.07954
G1 X147.853 Y106.152 E16.16402
G1 X147.571 Y108.643 E16.2474
G1 X147.353 Y111.215 E16.33326
G1 X147.211 Y113.742 E16.41744
G1 X147.14 Y116.273 E16.50165
G1 X147.142 Y118.807 E16.58593
G1 X147.215 Y121.377 E16.67145
G1 X147.358 Y123.87 E16.7545
G1 X147.575 Y126.406 E16.83916
G1 X147.868 Y128.981 E16.92535
G1 X148.217 Y131.423 E17.0074
G1 X148.658 Y133.994 E17.09416
G1 X148.975 Y135.598 E17.14854
G1 X149.11 Y136.491 E17.17858
G1 X149.137 Y136.744 E17.18704
G1 X149.194 Y137.71 E17.21923
G1 X149.199 Y138.148 E17.2338
G1 X149.199 Y138.404 E17.24231
G1 X149.189 Y139.131 E17.26649
G1 X149.137 Y140.033 E17.29654
G1 X149.005 Y140.926 E17.32657
G1 X148.794 Y141.805 E17.35663
G1 X148.507 Y142.661 E17.38666
G1 X148.145 Y143.488 E17.41669
G1 X147.711 Y144.28 E17.44673
G1 X147.209 Y145.031 E17.47677
G1 X146.643 Y145.734 E17.50679
G1 X146.016 Y146.385 E17.53685
G1 X145.335 Y146.977 E17.56686
G1 X144.604 Y147.507 E17.5969
G1 X143.828 Y147.97 E17.62695
G1 X143.015 Y148.363 E17.65698
G1 X142.17 Y148.683 E17.68704
G1 X141.301 Y148.926 E17.71705
G1 X140.413 Y149.091 E17.74709
G1 X139.277 Y149.187 E17.78501
G1 X138.957 Y149.196 E17.79565
G1 X138.67 Y149.2 E17.8052
G1 X118.062 Y149.199 E18.49063
G1 X117.36 Y149.189 E18.51398
G1 X116.458 Y149.136 E18.54403
G1 X115.565 Y149.004 E18.57405
G1 X114.687 Y148.793 E18.60409
G1 X113.831 Y148.505 E18.63413
G1 X113.003 Y148.143 E18.66418
G1 X112.211 Y147.709 E18.69422
G1 X111.461 Y147.206 E18.72426
G1 X110.568 Y146.468 E18.76279
G1 X110.416 Y146.327 E18.76968
G1 X110.216 Y146.136 E18.77888
G1 X110.021 Y145.945 E18.78796
G1 X89.17 Y125.094 E19.76873
G1 X88.702 Y124.613 E19.79105
G1 X88.102 Y123.938 E19.82109
G1 X87.563 Y123.213 E19.85113
G1 X87.091 Y122.444 E19.88114
G1 X86.689 Y121.635 E19.91119
G1 X86.36 Y120.794 E19.94123
G1 X86.106 Y119.927 E19.97128
G1 X85.93 Y119.042 E20.00129
G1 X85.833 Y118.144 E20.03133
G1 X85.816 Y117.241 E20.06137
G1 X85.879 Y116.34 E20.09141
G1 X86.022 Y115.448 E20.12145
G1 X86.242 Y114.572 E20.1515
G1 X86.539 Y113.72 E20.18151
G1 X86.911 Y112.896 E20.21158
G1 X87.354 Y112.109 E20.24161
G1 X87.865 Y111.365 E20.27163
G1 X88.604 Y110.49 E20.30973
G1 X88.815 Y110.267 E20.31994
G1 X89.012 Y110.065 E20.32932
G1 X109.915 Y89.163 E21.31251
G1 F2700 E16.31251
;MESH:Veneer8Test.stl
G0 F6000 X116.656 Y95.904
G0 X117.422 Y96.67
G0 X137.42 Y97.195
G0 X117.675 Y118.043
G0 X137.42 Y137.805
G0 X117.914 Y138
;TYPE:WALL-INNER
G1 F2700 E21.31251
G1 F1200 X97.414 Y117.5 E22.27677
G1 X117.914 Y97 E23.24103
G1 X137.409 Y97 E23.88943
G1 X137.41 Y97 E23.88947
G1 X137.89 Y97 E23.90543
G1 X137.55 Y97.34 E23.91403
G1 X117.529 Y117.36 E24.85574
G1 X117.389 Y117.5 E24.86232
G1 X117.529 Y117.64 E24.86657
G1 X137.55 Y137.66 E25.80827
G1 X137.89 Y138 E25.82426
G1 X137.41 Y138 E25.83285
G1 X137.409 Y138 E25.83289
G1 X117.914 Y138 E26.48129
G0 F6000 X117.748 Y138.4
G1 F1200 X96.848 Y117.5 E27.46436
G1 X117.748 Y96.6 E28.44744
G1 X138.4 Y96.6 E29.13432
G1 X138.4 Y97.056 E29.14949
G1 X118.095 Y117.36 E30.10455
G1 X117.955 Y117.5 E30.11114
G1 X118.095 Y117.64 E30.11538
G1 X138.4 Y137.944 E31.07044
G1 X138.4 Y138.4 E31.08561
G1 X117.748 Y138.4 E31.7725
G0 F6000 X117.582 Y138.8
;TYPE:WALL-OUTER
G1 F1200 X96.282 Y117.5 E32.77439
G1 X117.582 Y96.2 E33.77627
G1 X138.8 Y96.2 E34.48199
G1 X138.8 Y97.222 E34.51598
G1 X118.521 Y117.5 E35.46982
G1 X138.8 Y137.778 E36.42366
G1 X138.8 Y138.8 E36.45765
G1 X117.582 Y138.8 E37.16336
G0 F6000 X117.75 Y138.394
G0 X118.074 Y137.61
;TYPE:SKIN
G1 F1200 X97.964 Y117.5 E38.10927
G1 X118.074 Y97.39 E39.05519
G1 X136.95 Y97.39 E39.683
G1 X116.837 Y117.5 E40.62899
G1 X136.95 Y137.61 E41.57497
G1 X118.074 Y137.61 E42.20279
G0 F6000 X117.877 Y137.807
G0 X97.67 Y117.5
G0 X97.918 Y117.152
G0 X98.227 Y117.461
G1 F1200 X118.215 Y137.448 E43.14294
G0 F6000 X118.781 Y137.448
G1 F1200 X98.51 Y117.178 E44.0964
G0 F6000 X98.793 Y116.895
G1 F1200 X119.346 Y137.448 E45.06315
G0 F6000 X119.912 Y137.448
G1 F1200 X99.076 Y116.612 E46.04321
G0 F6000 X99.359 Y116.329
G1 F1200 X120.478 Y137.448 E47.03659
G0 F6000 X121.043 Y137.448
G1 F1200 X99.641 Y116.046 E48.04327
G0 F6000 X99.924 Y115.763
G1 F1200 X121.609 Y137.448 E49.06327
G0 F6000 X122.175 Y137.448
G1 F1200 X100.207 Y115.481 E50.09655
G0 F6000 X100.49 Y115.198
G1 F1200 X122.741 Y137.448 E51.14315
G0 F6000 X123.306 Y137.448
G1 F1200 X100.773 Y114.915 E52.20303
G0 F6000 X101.056 Y114.632
G1 F1200 X123.872 Y137.448 E53.27622
G0 F6000 X124.438 Y137.448
G1 F1200 X101.339 Y114.349 E54.36273
G0 F6000 X101.621 Y114.066
G1 F1200 X125.003 Y137.448 E55.46255
G0 F6000 X125.569 Y137.448
G1 F1200 X101.904 Y113.784 E56.57565
G0 F6000 X102.187 Y113.501
G1 F1200 X126.135 Y137.448 E57.70207
G0 F6000 X126.7 Y137.448
G1 F1200 X102.47 Y113.218 E58.84178
G0 F6000 X102.753 Y112.935
G1 F1200 X127.266 Y137.448 E59.99479
G0 F6000 X127.832 Y137.448
G1 F1200 X103.036 Y112.652 E61.16112
G0 F6000 X103.318 Y112.369
G1 F1200 X128.397 Y137.448 E62.34076
G0 F6000 X128.963 Y137.448
G1 F1200 X103.601 Y112.087 E63.53369
G0 F6000 X103.884 Y111.804
G1 F1200 X129.529 Y137.448 E64.73992
G0 F6000 X130.094 Y137.448
G1 F1200 X104.167 Y111.521 E65.95945
G0 F6000 X104.45 Y111.238
G1 F1200 X130.66 Y137.448 E67.19229
G0 F6000 X131.226 Y137.448
G1 F1200 X104.733 Y110.955 E68.43844
G0 F6000 X105.015 Y110.672
G1 F1200 X131.791 Y137.448 E69.6979
G0 F6000 X132.357 Y137.448
G1 F1200 X105.298 Y110.389 E70.97067
G0 F6000 X105.581 Y110.107
G1 F1200 X132.923 Y137.448 E72.25673
G0 F6000 X133.489 Y137.448
G1 F1200 X105.864 Y109.824 E73.5561
G0 F6000 X106.147 Y109.541
G1 F1200 X134.054 Y137.448 E74.86876
G0 F6000 X134.62 Y137.448
G1 F1200 X106.43 Y109.258 E76.19474
G0 F6000 X106.713 Y108.975
G1 F1200 X135.186 Y137.448 E77.53402
G0 F6000 X135.751 Y137.448
G1 F1200 X106.995 Y108.692 E78.88661
G0 F6000 X107.278 Y108.41
G1 F1200 X136.317 Y137.448 E80.25249
G1 F2700 E75.25249
G0 F6000 X136.317 Y137.89
G0 X137.42 Y137.805
G0 X117.192 Y117.5
G0 X116.771 Y117.337
G1 F2700 E80.25249
G1 F1200 X107.561 Y108.127 E80.6857
G0 F6000 X107.844 Y107.844
G1 F1200 X117.054 Y117.054 E81.11891
G0 F6000 X117.337 Y116.771
G1 F1200 X108.127 Y107.561 E81.55212
G0 F6000 X108.41 Y107.278
G1 F1200 X117.62 Y116.488 E81.98533
G0 F6000 X117.902 Y116.205
G1 F1200 X108.692 Y106.995 E82.41854
G0 F6000 X108.975 Y106.713
G1 F1200 X118.185 Y115.923 E82.85176
G0 F6000 X118.468 Y115.64
G1 F1200 X109.258 Y106.43 E83.28497
G0 F6000 X109.541 Y106.147
G1 F1200 X118.751 Y115.357 E83.71818
G0 F6000 X119.034 Y115.074
G1 F1200 X109.824 Y105.864 E84.15139
G0 F6000 X110.107 Y105.581
G1 F1200 X119.317 Y114.791 E84.5846
G0 F6000 X119.6 Y114.508
G1 F1200 X110.389 Y105.298 E85.01783
G0 F6000 X110.672 Y105.015
G1 F1200 X119.882 Y114.226 E85.45106
G0 F6000 X120.165 Y113.943
G1 F1200 X110.955 Y104.733 E85.88427
G0 F6000 X111.238 Y104.45
G1 F1200 X120.448 Y113.66 E86.31748
G0 F6000 X120.731 Y113.377
G1 F1200 X111.521 Y104.167 E86.75069
G0 F6000 X111.804 Y103.884
G1 F1200 X121.014 Y113.094 E87.1839
G0 F6000 X121.297 Y112.811
G1 F1200 X112.087 Y103.601 E87.61711
G0 F6000 X112.369 Y103.318
G1 F1200 X121.579 Y112.528 E88.05032
