;FLAVOR:Marlin
;TIME:3286
;Filament used: 2.36711m
;Layer height: 0.16
;MINX:35.517
;MINY:94.75
;MINZ:0.2
;MAXX:199.77
;MAXY:140.25
;MAXZ:4.76
;Generated with Cura_SteamEngine 4.10.0
M140 S50
M105
M190 S50
M104 S200
M105
M109 S200
M82 ;absolute extrusion mode
; Ender 3 Custom Start G-code
G92 E0 ; Reset Extruder
G28 ; Home all axes
G1 Z2.0 F3000 ; Move Z Axis up little to prevent scratching of Heat Bed
G1 X0.1 Y20 Z0.3 F5000.0 ; Move to start position
G1 X0.1 Y200.0 Z0.3 F1500.0 E15 ; Draw the first line
G1 X0.4 Y200.0 Z0.3 F5000.0 ; Move to side a little
G1 X0.4 Y20 Z0.3 F1500.0 E30 ; Draw the second line
G92 E0 ; Reset Extruder
G1 Z2.0 F3000 ; Move Z Axis up little to prevent scratching of Heat Bed
G1 X5 Y20 Z0.3 F5000.0 ; Move over to prevent blob squish
G92 E0
G92 E0
G1 F2700 E-5
;LAYER_COUNT:31
;LAYER:0
M107
G0 F6000 X43.033 Y95.599 Z0.2
;TYPE:SKIRT
G1 F2700 E0
G1 F1200 X43.913 Y95.277 E0.03117
G1 X44.818 Y95.031 E0.06236
G1 X45.741 Y94.863 E0.09356
G1 X46.907 Y94.765 E0.13248
G1 X47.231 Y94.755 E0.14326
G1 X47.57 Y94.75 E0.15454
G1 X188.063 Y94.75 E4.82735
G1 X188.919 Y94.761 E4.85583
G1 X189.855 Y94.815 E4.88701
G1 X190.783 Y94.947 E4.91819
G1 X191.697 Y95.159 E4.94939
G1 X192.589 Y95.448 E4.98058
G1 X193.454 Y95.811 E5.01178
G1 X194.284 Y96.247 E5.04296
G1 X195.075 Y96.752 E5.07418
G1 X195.819 Y97.323 E5.10537
G1 X196.512 Y97.955 E5.13657
G1 X197.149 Y98.643 E5.16775
G1 X197.724 Y99.384 E5.19895
G1 X198.235 Y100.17 E5.23013
G1 X198.677 Y100.998 E5.26135
G1 X199.046 Y101.86 E5.29253
G1 X199.341 Y102.75 E5.32372
G1 X199.559 Y103.662 E5.35491
G1 X199.699 Y104.59 E5.38612
G1 X199.757 Y105.446 E5.41466
G1 X199.766 Y105.761 E5.42514
G1 X199.77 Y106.075 E5.43558
G1 X199.769 Y128.65 E6.18643
G1 X199.76 Y129.377 E6.21061
G1 X199.709 Y130.314 E6.24182
G1 X199.577 Y131.242 E6.273
G1 X199.368 Y132.156 E6.30418
G1 X199.081 Y133.049 E6.33538
G1 X198.719 Y133.915 E6.3666
G1 X198.285 Y134.746 E6.39778
G1 X197.781 Y135.537 E6.42898
G1 X197.212 Y136.282 E6.46015
G1 X196.581 Y136.977 E6.49138
G1 X195.894 Y137.615 E6.52256
G1 X195.155 Y138.192 E6.55374
G1 X194.369 Y138.704 E6.58494
G1 X193.543 Y139.147 E6.61612
G1 X192.681 Y139.519 E6.64734
G1 X191.792 Y139.815 E6.67851
G1 X190.88 Y140.035 E6.70971
G1 X189.953 Y140.176 E6.7409
G1 X189.069 Y140.237 E6.77037
G1 X188.748 Y140.246 E6.78105
G1 X188.44 Y140.25 E6.7913
G1 X47.805 Y140.249 E11.46883
G1 X47.107 Y140.24 E11.49205
G1 X46.171 Y140.188 E11.52323
G1 X45.242 Y140.056 E11.55444
G1 X44.328 Y139.846 E11.58563
G1 X43.435 Y139.559 E11.61683
G1 X42.57 Y139.196 E11.64803
G1 X41.739 Y138.762 E11.67921
G1 X40.948 Y138.258 E11.71041
G1 X40.203 Y137.688 E11.74161
G1 X39.509 Y137.057 E11.7728
G1 X38.872 Y136.37 E11.80397
G1 X38.295 Y135.63 E11.83518
G1 X37.783 Y134.844 E11.86638
G1 X37.34 Y134.017 E11.89758
G1 X36.969 Y133.156 E11.92876
G1 X36.673 Y132.266 E11.95996
G1 X36.454 Y131.354 E11.99115
G1 X36.313 Y130.427 E12.02234
G1 X36.253 Y129.538 E12.05197
G1 X36.244 Y129.205 E12.06305
G1 X36.24 Y128.908 E12.07293
G1 X36.24 Y119.645 E12.38102
G1 X36.203 Y117.037 E12.46777
G1 X36.096 Y114.515 E12.55173
G1 X35.921 Y112.051 E12.63389
G1 X35.643 Y109.263 E12.72708
G1 X35.584 Y108.753 E12.74416
G1 X35.517 Y107.818 E12.77533
G1 X35.529 Y106.88 E12.80653
G1 X35.622 Y105.947 E12.83772
G1 X35.794 Y105.025 E12.86891
G1 X36.044 Y104.121 E12.90011
G1 X36.362 Y103.258 E12.9307
G1 X36.968 Y101.811 E12.98288
G1 X37.158 Y101.374 E12.99873
G1 X37.569 Y100.531 E13.02992
G1 X38.049 Y99.725 E13.06112
G1 X38.597 Y98.964 E13.09231
G1 X39.207 Y98.252 E13.1235
G1 X39.876 Y97.594 E13.15471
G1 X40.598 Y96.996 E13.18589
G1 X41.369 Y96.462 E13.21708
G1 X42.182 Y95.995 E13.24826
G1 X43.033 Y95.599 E13.27948
G0 F6000 X43.327 Y95.911
G1 F1200 X44.196 Y95.608 E13.31009
G1 X45.088 Y95.382 E13.3407
G1 X45.997 Y95.234 E13.37133
G1 X46.919 Y95.165 E13.40208
G1 X47.243 Y95.155 E13.41286
G1 X47.57 Y95.15 E13.42374
G1 X188.063 Y95.15 E18.09656
G1 X188.913 Y95.161 E18.12483
G1 X189.832 Y95.214 E18.15545
G1 X190.743 Y95.347 E18.18607
G1 X191.639 Y95.558 E18.21668
G1 X192.513 Y95.846 E18.24729
G1 X193.36 Y96.209 E18.27794
G1 X194.171 Y96.644 E18.30855
G1 X194.941 Y97.148 E18.33916
G1 X195.665 Y97.717 E18.36979
G1 X196.337 Y98.347 E18.40042
G1 X196.952 Y99.032 E18.43104
G1 X197.505 Y99.768 E18.46166
G1 X197.992 Y100.549 E18.49227
G1 X198.409 Y101.37 E18.5229
G1 X198.754 Y102.224 E18.55353
G1 X199.023 Y103.104 E18.58414
G1 X199.215 Y104.005 E18.61478
G1 X199.328 Y104.918 E18.64538
G1 X199.357 Y105.457 E18.66333
G1 X199.366 Y105.772 E18.67381
G1 X199.37 Y106.075 E18.68389
G1 X199.369 Y128.645 E19.43457
G1 X199.36 Y129.372 E19.45875
G1 X199.309 Y130.291 E19.48937
G1 X199.178 Y131.203 E19.52001
G1 X198.968 Y132.099 E19.55062
G1 X198.682 Y132.974 E19.58124
G1 X198.321 Y133.821 E19.61186
G1 X197.887 Y134.633 E19.64248
G1 X197.385 Y135.405 E19.67311
G1 X196.817 Y136.13 E19.70375
G1 X196.189 Y136.803 E19.73436
G1 X195.505 Y137.419 E19.76498
G1 X194.77 Y137.973 E19.79559
G1 X193.99 Y138.462 E19.82621
G1 X193.17 Y138.881 E19.85684
G1 X192.317 Y139.227 E19.88745
G1 X191.437 Y139.498 E19.91808
G1 X190.537 Y139.691 E19.94869
G1 X189.623 Y139.806 E19.97933
G1 X189.058 Y139.837 E19.99815
G1 X188.737 Y139.846 E20.00883
G1 X188.44 Y139.85 E20.01871
G1 X47.81 Y139.849 E24.69609
G1 X47.112 Y139.84 E24.7193
G1 X46.193 Y139.788 E24.74992
G1 X45.282 Y139.657 E24.78053
G1 X44.386 Y139.447 E24.81114
G1 X43.511 Y139.16 E24.84177
G1 X42.664 Y138.798 E24.8724
G1 X41.852 Y138.364 E24.90303
G1 X41.081 Y137.862 E24.93363
G1 X40.356 Y137.294 E24.96426
G1 X39.683 Y136.665 E24.9949
G1 X39.068 Y135.981 E25.02549
G1 X38.514 Y135.246 E25.0561
G1 X38.026 Y134.465 E25.08673
G1 X37.607 Y133.645 E25.11736
G1 X37.261 Y132.792 E25.14798
G1 X36.991 Y131.912 E25.17859
G1 X36.798 Y131.011 E25.20924
G1 X36.684 Y130.098 E25.23984
G1 X36.653 Y129.527 E25.25886
G1 X36.644 Y129.194 E25.26994
G1 X36.64 Y128.908 E25.27945
G1 X36.64 Y119.639 E25.58774
G1 X36.603 Y117.014 E25.67506
G1 X36.496 Y114.506 E25.75855
G1 X36.32 Y112.016 E25.84158
G1 X36.046 Y109.276 E25.93316
G1 X35.981 Y108.707 E25.95221
G1 X35.916 Y107.789 E25.98282
G1 X35.931 Y106.869 E26.01342
G1 X36.025 Y105.953 E26.04405
G1 X36.199 Y105.049 E26.07467
G1 X36.451 Y104.163 E26.10531
G1 X36.731 Y103.412 E26.13196
G1 X37.275 Y102.11 E26.1789
G1 X37.525 Y101.534 E26.19978
G1 X37.928 Y100.706 E26.23041
G1 X38.402 Y99.917 E26.26102
G1 X38.943 Y99.171 E26.29167
G1 X39.546 Y98.475 E26.3223
G1 X40.207 Y97.835 E26.3529
G1 X40.921 Y97.254 E26.38352
G1 X41.683 Y96.737 E26.41415
G1 X42.487 Y96.288 E26.44478
G1 X43.327 Y95.911 E26.4754
G0 F6000 X43.619 Y96.227
G1 F1200 X44.476 Y95.943 E26.50543
G1 X45.356 Y95.737 E26.53549
G1 X46.25 Y95.609 E26.56553
G1 X46.931 Y95.565 E26.58822
G1 X47.255 Y95.555 E26.599
G1 X47.57 Y95.55 E26.60948
G1 X188.063 Y95.55 E31.2823
G1 X188.907 Y95.561 E31.31037
G1 X189.809 Y95.614 E31.34042
G1 X190.702 Y95.746 E31.37045
G1 X191.58 Y95.957 E31.40048
G1 X192.436 Y96.245 E31.43052
G1 X193.263 Y96.607 E31.46055
G1 X194.055 Y97.042 E31.4906
G1 X194.806 Y97.544 E31.52065
G1 X195.509 Y98.111 E31.55069
G1 X196.159 Y98.738 E31.58072
G1 X196.751 Y99.42 E31.61076
G1 X197.281 Y100.151 E31.64079
G1 X197.743 Y100.927 E31.67083
G1 X198.136 Y101.74 E31.70086
G1 X198.454 Y102.585 E31.73089
G1 X198.697 Y103.455 E31.76094
G1 X198.862 Y104.343 E31.79098
G1 X198.957 Y105.469 E31.82856
G1 X198.966 Y105.784 E31.83904
G1 X198.97 Y106.075 E31.84872
G1 X198.969 Y128.64 E32.59924
G1 X198.96 Y129.367 E32.62342
G1 X198.909 Y130.269 E32.65347
G1 X198.778 Y131.163 E32.68352
G1 X198.569 Y132.041 E32.71354
G1 X198.283 Y132.898 E32.74359
G1 X197.922 Y133.726 E32.77363
G1 X197.49 Y134.518 E32.80364
G1 X196.989 Y135.27 E32.83369
G1 X196.423 Y135.974 E32.86373
G1 X195.798 Y136.625 E32.89375
G1 X195.117 Y137.219 E32.92381
G1 X194.386 Y137.75 E32.95386
G1 X193.612 Y138.214 E32.98387
G1 X192.799 Y138.608 E33.01392
G1 X191.955 Y138.928 E33.04394
G1 X191.085 Y139.173 E33.074
G1 X190.198 Y139.339 E33.10402
G1 X189.047 Y139.437 E33.14244
G1 X188.726 Y139.446 E33.15312
G1 X188.44 Y139.45 E33.16263
G1 X47.815 Y139.449 E37.83984
G1 X47.117 Y139.44 E37.86306
G1 X46.216 Y139.389 E37.89307
G1 X45.322 Y139.257 E37.92313
G1 X44.444 Y139.048 E37.95315
G1 X43.587 Y138.761 E37.98321
G1 X42.76 Y138.4 E38.01322
G1 X41.967 Y137.967 E38.04327
G1 X41.216 Y137.466 E38.0733
G1 X40.512 Y136.9 E38.10334
G1 X39.861 Y136.274 E38.13338
G1 X39.268 Y135.593 E38.16341
G1 X38.738 Y134.862 E38.19344
G1 X38.274 Y134.087 E38.22349
G1 X37.88 Y133.274 E38.25354
G1 X37.56 Y132.43 E38.28356
G1 X37.316 Y131.56 E38.31361
G1 X37.15 Y130.672 E38.34366
G1 X37.053 Y129.517 E38.38221
G1 X37.044 Y129.184 E38.39329
G1 X37.04 Y128.908 E38.40247
G1 X37.04 Y119.633 E38.71096
G1 X37.003 Y117.027 E38.79764
G1 X36.894 Y114.459 E38.88313
G1 X36.719 Y111.984 E38.96565
G1 X36.439 Y109.183 E39.05928
G1 X36.379 Y108.662 E39.07672
G1 X36.315 Y107.761 E39.10677
G1 X36.332 Y106.858 E39.13681
G1 X36.429 Y105.96 E39.16685
G1 X36.604 Y105.074 E39.19688
G1 X36.858 Y104.207 E39.22693
G1 X37.1 Y103.567 E39.24969
G1 X37.702 Y102.13 E39.30151
G1 X37.892 Y101.693 E39.31736
G1 X38.288 Y100.882 E39.34738
G1 X38.755 Y100.108 E39.37744
G1 X39.288 Y99.379 E39.40748
G1 X39.884 Y98.701 E39.4375
G1 X40.537 Y98.077 E39.46754
G1 X41.243 Y97.514 E39.49758
G1 X41.996 Y97.015 E39.52762
G1 X42.79 Y96.585 E39.55766
G1 X43.619 Y96.227 E39.58769
G1 F2700 E34.58769
;MESH:Veneer4e.stl
G0 F6000 X46.394 Y106.359
G0 X47.654 Y107.086
G0 X48.24 Y128.25
;TYPE:WALL-INNER
G1 F2700 E39.58769
G1 F1200 X48.24 Y106.75 E40.30278
G1 X187.77 Y106.75 E44.94357
G1 X187.77 Y128.25 E45.65866
G1 X48.24 Y128.25 E50.29945
G0 F6000 X47.84 Y128.65
G1 F1200 X47.84 Y106.9 E51.02286
G1 X47.541 Y106.9 E51.0328
G1 X47.615 Y106.771 E51.0333
G1 X47.84 Y106.382 E51.04825
G1 X47.84 Y106.35 E51.04931
G1 X188.17 Y106.35 E55.71671
G1 X188.17 Y128.65 E56.45841
G1 X47.84 Y128.65 E61.1258
G0 F6000 X47.44 Y129.05
;TYPE:WALL-OUTER
G1 F1200 X47.44 Y107.3 E61.84921
G1 X46.848 Y107.3 E61.8689
G1 X47.44 Y106.275 E61.90827
G1 X47.44 Y105.95 E61.91908
G1 X188.57 Y105.95 E66.61308
G1 X188.57 Y129.05 E67.38139
G1 X47.44 Y129.05 E72.07539
G0 F6000 X47.71 Y128.78
G0 X48.35 Y127.86
G0 X48.63 Y127.86
;TYPE:SKIN
G1 F1200 X48.63 Y107.14 E72.76454
G1 X187.38 Y107.14 E77.37939
G1 X187.38 Y127.86 E78.06854
G1 X48.63 Y127.86 E82.68338
G0 F6000 X49.068 Y127.699
G1 F1200 X48.79 Y127.42 E82.69648
G0 F6000 X48.79 Y126.854
G1 F1200 X49.634 Y127.699 E82.7362
G0 F6000 X50.2 Y127.699
G1 F1200 X48.79 Y126.289 E82.80253
G0 F6000 X48.79 Y125.723
G1 F1200 X50.766 Y127.699 E82.89547
G0 F6000 X51.331 Y127.699
G1 F1200 X48.79 Y125.157 E83.01502
G0 F6000 X48.79 Y124.592
G1 F1200 X51.897 Y127.699 E83.16116
G0 F6000 X52.463 Y127.699
G1 F1200 X48.79 Y124.026 E83.33393
G0 F6000 X48.79 Y123.46
G1 F1200 X53.028 Y127.699 E83.53329
G0 F6000 X53.594 Y127.699
G1 F1200 X48.79 Y122.895 E83.75926
G0 F6000 X48.79 Y122.329
G1 F1200 X54.16 Y127.699 E84.01185
G0 F6000 X54.725 Y127.699
G1 F1200 X48.79 Y121.763 E84.29103
G0 F6000 X48.79 Y121.198
G1 F1200 X55.291 Y127.699 E84.59682
G0 F6000 X55.857 Y127.699
G1 F1200 X48.79 Y120.632 E84.92923
G0 F6000 X48.79 Y120.066
G1 F1200 X56.422 Y127.699 E85.28824
G0 F6000 X56.988 Y127.699
G1 F1200 X48.79 Y119.501 E85.67385
G0 F6000 X48.79 Y118.935
G1 F1200 X57.554 Y127.699 E86.08608
G0 F6000 X58.119 Y127.699
G1 F1200 X48.79 Y118.369 E86.52491
G0 F6000 X48.79 Y117.803
G1 F1200 X58.685 Y127.699 E86.99037
G0 F6000 X59.251 Y127.699
G1 F1200 X48.79 Y117.238 E87.48242
G0 F6000 X48.79 Y116.672
G1 F1200 X59.816 Y127.699 E88.00107
G0 F6000 X60.382 Y127.699
G1 F1200 X48.79 Y116.106 E88.54635
G0 F6000 X48.79 Y115.541
G1 F1200 X60.948 Y127.699 E89.11822
G0 F6000 X61.514 Y127.699
G1 F1200 X48.79 Y114.975 E89.71672
G0 F6000 X48.79 Y114.409
G1 F1200 X62.079 Y127.699 E90.34182
G0 F6000 X62.645 Y127.699
G1 F1200 X48.79 Y113.844 E90.99351
G0 F6000 X48.79 Y113.278
G1 F1200 X63.211 Y127.699 E91.67183
G0 F6000 X63.776 Y127.699
G1 F1200 X48.79 Y112.712 E92.37675
G0 F6000 X48.79 Y112.147
G1 F1200 X64.342 Y127.699 E93.10827
G0 F6000 X64.908 Y127.699
G1 F1200 X48.79 Y111.581 E93.86641
G0 F6000 X48.79 Y111.015
G1 F1200 X65.473 Y127.699 E94.65115
G0 F6000 X66.039 Y127.699
G1 F1200 X48.79 Y110.45 E95.46249
G0 F6000 X48.79 Y109.884
G1 F1200 X66.605 Y127.699 E96.30046
G0 F6000 X67.17 Y127.699
G1 F1200 X48.79 Y109.318 E97.16502
G0 F6000 X48.79 Y108.753
G1 F1200 X67.736 Y127.699 E98.05618
G0 F6000 X68.302 Y127.699
G1 F1200 X48.79 Y108.187 E98.97397
G0 F6000 X48.79 Y107.621
G1 F1200 X68.867 Y127.699 E99.91835
G0 F6000 X69.433 Y127.699
G1 F1200 X49.034 Y107.299 E100.87788
G0 F6000 X49.6 Y107.299
G1 F1200 X69.999 Y127.699 E101.83741
G0 F6000 X70.565 Y127.699
G1 F1200 X50.165 Y107.299 E102.79696
G0 F6000 X50.731 Y107.299
G1 F1200 X71.13 Y127.699 E103.75649
G0 F6000 X71.696 Y127.699
G1 F1200 X51.297 Y107.299 E104.71602
G0 F6000 X51.862 Y107.299
G1 F1200 X72.262 Y127.699 E105.67558
G0 F6000 X72.827 Y127.699
G1 F1200 X52.428 Y107.299 E106.63511
G0 F6000 X52.994 Y107.299
G1 F1200 X73.393 Y127.699 E107.59464
G0 F6000 X73.959 Y127.699
G1 F1200 X53.559 Y107.299 E108.55419
G0 F6000 X54.125 Y107.299
G1 F1200 X74.524 Y127.699 E109.51372
G0 F6000 X75.09 Y127.699
G1 F1200 X54.691 Y107.299 E110.47325
G0 F6000 X55.256 Y107.299
G1 F1200 X75.656 Y127.699 E111.4328
G0 F6000 X76.221 Y127.699
G1 F1200 X55.822 Y107.299 E112.39233
G0 F6000 X56.388 Y107.299
G1 F1200 X76.787 Y127.699 E113.35186
G0 F6000 X77.353 Y127.699
G1 F1200 X56.953 Y107.299 E114.31142
G0 F6000 X57.519 Y107.299
G1 F1200 X77.918 Y127.699 E115.27095
G0 F6000 X78.484 Y127.699
G1 F1200 X58.085 Y107.299 E116.23048
G0 F6000 X58.65 Y107.299
G1 F1200 X79.05 Y127.699 E117.19003
G0 F6000 X79.615 Y127.699
G1 F1200 X59.216 Y107.299 E118.14956
G0 F6000 X59.782 Y107.299
G1 F1200 X80.181 Y127.699 E119.10909
G0 F6000 X80.747 Y127.699
G1 F1200 X60.348 Y107.299 E120.06862
G0 F6000 X60.913 Y107.299
G1 F1200 X81.313 Y127.699 E121.02817
G0 F6000 X81.878 Y127.699
G1 F1200 X61.479 Y107.299 E121.9877
G0 F6000 X62.045 Y107.299
G1 F1200 X82.444 Y127.699 E122.94723
G0 F6000 X83.01 Y127.699
G1 F1200 X62.61 Y107.299 E123.90679
G0 F6000 X63.176 Y107.299
G1 F1200 X83.575 Y127.699 E124.86632
G0 F6000 X84.141 Y127.699
G1 F1200 X63.742 Y107.299 E125.82585
G0 F6000 X64.307 Y107.299
G1 F1200 X84.707 Y127.699 E126.7854
G0 F6000 X85.272 Y127.699
G1 F1200 X64.873 Y107.299 E127.74493
G0 F6000 X65.439 Y107.299
G1 F1200 X85.838 Y127.699 E128.70446
G0 F6000 X86.404 Y127.699
G1 F1200 X66.004 Y107.299 E129.66401
G0 F6000 X66.57 Y107.299
G1 F1200 X86.969 Y127.699 E130.62354
G0 F6000 X87.535 Y127.699
G1 F1200 X67.136 Y107.299 E131.58307
G0 F6000 X67.701 Y107.299
G1 F1200 X88.101 Y127.699 E132.54263
G0 F6000 X88.666 Y127.699
G1 F1200 X68.267 Y107.299 E133.50216
G0 F6000 X68.833 Y107.299
G1 F1200 X89.232 Y127.699 E134.46169
G0 F6000 X89.798 Y127.699
G1 F1200 X69.398 Y107.299 E135.42124
G0 F6000 X69.964 Y107.299
G1 F1200 X90.364 Y127.699 E136.38079
G0 F6000 X90.929 Y127.699
G1 F1200 X70.53 Y107.299 E137.34032
G0 F6000 X71.096 Y107.299
G1 F1200 X91.495 Y127.699 E138.29985
G0 F6000 X92.061 Y127.699
G1 F1200 X71.661 Y107.299 E139.25941
G0 F6000 X72.227 Y107.299
G1 F1200 X92.626 Y127.699 E140.21894
G0 F6000 X93.192 Y127.699
G1 F1200 X72.793 Y107.299 E141.17847
G0 F6000 X73.358 Y107.299
G1 F1200 X93.758 Y127.699 E142.13802
G0 F6000 X94.323 Y127.699
G1 F1200 X73.924 Y107.299 E143.09755
G0 F6000 X74.49 Y107.299
G1 F1200 X94.889 Y127.699 E144.05708
G0 F6000 X95.455 Y127.699
G1 F1200 X75.055 Y107.299 E145.01663
G0 F6000 X75.621 Y107.299
G1 F1200 X96.02 Y127.699 E145.97616
G0 F6000 X96.586 Y127.699
G1 F1200 X76.187 Y107.299 E146.93569
G0 F6000 X76.752 Y107.299
G1 F1200 X97.152 Y127.699 E147.89525
G0 F6000 X97.717 Y127.699
G1 F1200 X77.318 Y107.299 E148.85478
G0 F6000 X77.884 Y107.299
G1 F1200 X98.283 Y127.699 E149.81431
G0 F6000 X98.849 Y127.699
G1 F1200 X78.449 Y107.299 E150.77386
G0 F6000 X79.015 Y107.299
G1 F1200 X99.414 Y127.699 E151.73339
G0 F6000 X99.98 Y127.699
G1 F1200 X79.581 Y107.299 E152.69292
G0 F6000 X80.147 Y107.299
G1 F1200 X100.546 Y127.699 E153.65245
G0 F6000 X101.112 Y127.699
