;FLAVOR:Marlin
;TIME:21658
;Filament used: 14.8125m
;Layer height: 0.2
;MINX:12.5
;MINY:44.55
;MINZ:0.2
;MAXX:222.5
;MAXY:190.45
;MAXZ:5.6
;Generated with Cura_SteamEngine 4.10.0
M140 S50
M105
M190 S50
M104 S200
M105
M109 S200
M82 ;absolute extrusion mode
; Ender 3 Custom Start G-code
G92 E0 ; Reset Extruder
G28 ; Home all axes
G1 Z2.0 F3000 ; Move Z Axis up little to prevent scratching of Heat Bed
G1 X0.1 Y20 Z0.3 F5000.0 ; Move to start position
G1 X0.1 Y200.0 Z0.3 F1500.0 E15 ; Draw the first line
G1 X0.4 Y200.0 Z0.3 F5000.0 ; Move to side a little
G1 X0.4 Y20 Z0.3 F1500.0 E30 ; Draw the second line
G92 E0 ; Reset Extruder
G1 Z2.0 F3000 ; Move Z Axis up little to prevent scratching of Heat Bed
G1 X5 Y20 Z0.3 F5000.0 ; Move over to prevent blob squish
G92 E0
G92 E0
G1 F2700 E-5
;LAYER_COUNT:29
;LAYER:0
M107
G0 F6000 X19.601 Y45.277 Z0.2
;TYPE:SKIRT
G1 F2700 E0
G1 F1200 X20.491 Y44.981 E0.0312
G1 X21.403 Y44.763 E0.06238
G1 X22.33 Y44.622 E0.09357
G1 X23.201 Y44.563 E0.12261
G1 X23.522 Y44.554 E0.13329
G1 X23.83 Y44.55 E0.14353
G1 X210.793 Y44.55 E6.36195
G1 X211.649 Y44.561 E6.39042
G1 X212.585 Y44.615 E6.4216
G1 X213.513 Y44.747 E6.45278
G1 X214.427 Y44.959 E6.48399
G1 X215.319 Y45.248 E6.51517
G1 X216.184 Y45.611 E6.54637
G1 X217.014 Y46.047 E6.57756
G1 X217.805 Y46.552 E6.60877
G1 X218.549 Y47.123 E6.63996
G1 X219.242 Y47.755 E6.67116
G1 X219.879 Y48.443 E6.70234
G1 X220.454 Y49.184 E6.73354
G1 X220.965 Y49.97 E6.76472
G1 X221.407 Y50.798 E6.79594
G1 X221.776 Y51.66 E6.82712
G1 X222.071 Y52.55 E6.85831
G1 X222.289 Y53.462 E6.8895
G1 X222.429 Y54.39 E6.92071
G1 X222.487 Y55.251 E6.94941
G1 X222.496 Y55.571 E6.96006
G1 X222.5 Y55.88 E6.97034
G1 X222.5 Y79.092 E7.74237
G1 X222.495 Y80.267 E7.78145
G1 X222.5 Y80.928 E7.80344
G1 X222.5 Y104.192 E8.5772
G1 X222.495 Y105.367 E8.61628
G1 X222.5 Y106.028 E8.63827
G1 X222.5 Y129.292 E9.41203
G1 X222.495 Y130.467 E9.45111
G1 X222.5 Y131.128 E9.4731
G1 X222.5 Y154.392 E10.24686
G1 X222.495 Y155.567 E10.28595
G1 X222.5 Y156.228 E10.30793
G1 X222.499 Y178.85 E11.06034
G1 X222.49 Y179.577 E11.08452
G1 X222.439 Y180.514 E11.11573
G1 X222.307 Y181.442 E11.14691
G1 X222.098 Y182.356 E11.1781
G1 X221.811 Y183.249 E11.20929
G1 X221.449 Y184.115 E11.24051
G1 X221.015 Y184.946 E11.27169
G1 X220.511 Y185.737 E11.30289
G1 X219.942 Y186.482 E11.33407
G1 X219.311 Y187.177 E11.36529
G1 X218.624 Y187.815 E11.39647
G1 X217.885 Y188.392 E11.42766
G1 X217.099 Y188.904 E11.45886
G1 X216.273 Y189.347 E11.49003
G1 X215.411 Y189.719 E11.52126
G1 X214.522 Y190.015 E11.55242
G1 X213.61 Y190.235 E11.58362
G1 X212.683 Y190.376 E11.61481
G1 X211.799 Y190.437 E11.64428
G1 X211.478 Y190.446 E11.65496
G1 X211.17 Y190.45 E11.66521
G1 X24.065 Y190.449 E17.88835
G1 X23.367 Y190.44 E17.91156
G1 X22.431 Y190.388 E17.94274
G1 X21.502 Y190.256 E17.97395
G1 X20.588 Y190.046 E18.00514
G1 X19.695 Y189.759 E18.03634
G1 X18.83 Y189.396 E18.06754
G1 X17.999 Y188.962 E18.09872
G1 X17.208 Y188.458 E18.12992
G1 X16.463 Y187.888 E18.16112
G1 X15.769 Y187.257 E18.19232
G1 X15.132 Y186.57 E18.22348
G1 X14.555 Y185.83 E18.25469
G1 X14.043 Y185.044 E18.28589
G1 X13.6 Y184.217 E18.31709
G1 X13.229 Y183.356 E18.34827
G1 X12.933 Y182.466 E18.37947
G1 X12.714 Y181.554 E18.41066
G1 X12.573 Y180.627 E18.44185
G1 X12.513 Y179.738 E18.47149
G1 X12.504 Y179.405 E18.48257
G1 X12.5 Y179.108 E18.49244
G1 X12.5 Y155.908 E19.26408
G1 X12.505 Y154.733 E19.30316
G1 X12.5 Y154.072 E19.32515
G1 X12.5 Y130.808 E20.09891
G1 X12.505 Y129.633 E20.13799
G1 X12.5 Y128.972 E20.15998
G1 X12.5 Y105.708 E20.93374
G1 X12.505 Y104.533 E20.97282
G1 X12.5 Y103.872 E20.99481
G1 X12.5 Y80.608 E21.76857
G1 X12.505 Y79.433 E21.80765
G1 X12.5 Y78.772 E21.82964
G1 X12.501 Y56.075 E22.58454
G1 X12.51 Y55.41 E22.60666
G1 X12.563 Y54.474 E22.63784
G1 X12.695 Y53.545 E22.66905
G1 X12.906 Y52.631 E22.70025
G1 X13.194 Y51.739 E22.73143
G1 X13.557 Y50.874 E22.76263
G1 X13.992 Y50.043 E22.79383
G1 X14.496 Y49.253 E22.82499
G1 X15.066 Y48.508 E22.85619
G1 X15.698 Y47.814 E22.88741
G1 X16.386 Y47.177 E22.9186
G1 X17.126 Y46.601 E22.94979
G1 X17.912 Y46.089 E22.98099
G1 X18.739 Y45.647 E23.01218
G1 X19.601 Y45.277 E23.04338
G0 F6000 X19.965 Y45.569
G1 F1200 X20.845 Y45.299 E23.07399
G1 X21.745 Y45.107 E23.1046
G1 X22.659 Y44.993 E23.13523
G1 X23.212 Y44.963 E23.15365
G1 X23.533 Y44.954 E23.16433
G1 X23.83 Y44.95 E23.17421
G1 X210.793 Y44.95 E29.39263
G1 X211.643 Y44.961 E29.4209
G1 X212.562 Y45.014 E29.45152
G1 X213.473 Y45.147 E29.48214
G1 X214.369 Y45.358 E29.51276
G1 X215.243 Y45.646 E29.54336
G1 X216.09 Y46.009 E29.57401
G1 X216.901 Y46.444 E29.60462
G1 X217.671 Y46.948 E29.63523
G1 X218.395 Y47.517 E29.66586
G1 X219.067 Y48.147 E29.69649
G1 X219.682 Y48.832 E29.72711
G1 X220.235 Y49.568 E29.75773
G1 X220.722 Y50.349 E29.78834
G1 X221.139 Y51.17 E29.81897
G1 X221.484 Y52.024 E29.84961
G1 X221.753 Y52.904 E29.88021
G1 X221.945 Y53.805 E29.91085
G1 X222.058 Y54.718 E29.94145
G1 X222.087 Y55.262 E29.95957
G1 X222.096 Y55.582 E29.97022
G1 X222.1 Y55.88 E29.98013
G1 X222.1 Y79.091 E30.75213
G1 X222.095 Y80.27 E30.79134
G1 X222.1 Y80.931 E30.81333
G1 X222.1 Y104.191 E31.58696
G1 X222.095 Y105.37 E31.62617
G1 X222.1 Y106.031 E31.64816
G1 X222.1 Y129.291 E32.42179
G1 X222.095 Y130.47 E32.461
G1 X222.1 Y131.131 E32.48299
G1 X222.1 Y154.391 E33.25662
G1 X222.095 Y155.57 E33.29584
G1 X222.1 Y156.231 E33.31782
G1 X222.099 Y178.845 E34.06997
G1 X222.09 Y179.572 E34.09415
G1 X222.039 Y180.491 E34.12476
G1 X221.908 Y181.403 E34.15541
G1 X221.698 Y182.299 E34.18601
G1 X221.412 Y183.174 E34.21663
G1 X221.051 Y184.021 E34.24726
G1 X220.617 Y184.833 E34.27788
G1 X220.115 Y185.605 E34.30851
G1 X219.547 Y186.33 E34.33914
G1 X218.919 Y187.003 E34.36975
G1 X218.235 Y187.619 E34.40037
G1 X217.5 Y188.173 E34.43098
G1 X216.72 Y188.662 E34.4616
G1 X215.9 Y189.081 E34.49223
G1 X215.047 Y189.427 E34.52285
G1 X214.167 Y189.698 E34.55347
G1 X213.267 Y189.891 E34.58409
G1 X212.353 Y190.006 E34.61473
G1 X211.788 Y190.037 E34.63355
G1 X211.467 Y190.046 E34.64423
G1 X211.17 Y190.05 E34.65411
G1 X24.07 Y190.049 E40.87708
G1 X23.372 Y190.04 E40.90029
G1 X22.453 Y189.988 E40.93091
G1 X21.542 Y189.857 E40.96152
G1 X20.646 Y189.647 E40.99213
G1 X19.771 Y189.36 E41.02276
G1 X18.924 Y188.998 E41.05339
G1 X18.112 Y188.564 E41.08402
G1 X17.341 Y188.062 E41.11462
G1 X16.616 Y187.494 E41.14525
G1 X15.943 Y186.865 E41.17589
G1 X15.328 Y186.181 E41.20648
G1 X14.774 Y185.446 E41.23709
G1 X14.286 Y184.665 E41.26772
G1 X13.867 Y183.845 E41.29835
G1 X13.521 Y182.992 E41.32897
G1 X13.251 Y182.112 E41.35958
G1 X13.058 Y181.211 E41.39023
G1 X12.944 Y180.298 E41.42083
G1 X12.913 Y179.727 E41.43985
G1 X12.904 Y179.394 E41.45093
G1 X12.9 Y179.108 E41.46045
G1 X12.9 Y155.909 E42.23205
G1 X12.905 Y154.73 E42.27126
G1 X12.9 Y154.069 E42.29325
G1 X12.9 Y130.809 E43.06688
G1 X12.905 Y129.63 E43.10609
G1 X12.9 Y128.969 E43.12808
G1 X12.9 Y105.709 E43.90171
G1 X12.905 Y104.53 E43.94092
G1 X12.9 Y103.869 E43.96291
G1 X12.9 Y80.609 E44.73654
G1 X12.905 Y79.43 E44.77575
G1 X12.9 Y78.769 E44.79774
G1 X12.901 Y56.081 E45.55234
G1 X12.91 Y55.416 E45.57446
G1 X12.962 Y54.496 E45.60511
G1 X13.094 Y53.585 E45.63573
G1 X13.305 Y52.689 E45.66635
G1 X13.592 Y51.814 E45.69697
G1 X13.955 Y50.968 E45.72759
G1 X14.389 Y50.156 E45.75822
G1 X14.892 Y49.385 E45.78883
G1 X15.461 Y48.661 E45.81946
G1 X16.089 Y47.989 E45.85005
G1 X16.774 Y47.373 E45.88069
G1 X17.51 Y46.82 E45.91131
G1 X18.291 Y46.332 E45.94194
G1 X19.111 Y45.914 E45.97255
G1 X19.965 Y45.569 E46.00319
G0 F6000 X19.482 Y46.188
G1 F1200 X20.327 Y45.868 E46.03324
G1 X21.196 Y45.625 E46.06325
G1 X22.084 Y45.459 E46.0933
G1 X23.223 Y45.363 E46.13132
G1 X23.544 Y45.354 E46.142
G1 X23.83 Y45.35 E46.15151
G1 X210.793 Y45.35 E52.36993
G1 X211.637 Y45.361 E52.398
G1 X212.539 Y45.414 E52.42805
G1 X213.432 Y45.546 E52.45808
G1 X214.31 Y45.757 E52.48811
G1 X215.166 Y46.045 E52.51815
G1 X215.993 Y46.407 E52.54818
G1 X216.785 Y46.842 E52.57823
G1 X217.536 Y47.344 E52.60827
G1 X218.239 Y47.911 E52.63831
G1 X218.889 Y48.538 E52.66835
G1 X219.481 Y49.22 E52.69839
G1 X220.011 Y49.951 E52.72842
G1 X220.473 Y50.727 E52.75846
G1 X220.866 Y51.54 E52.78849
G1 X221.184 Y52.385 E52.81852
G1 X221.427 Y53.255 E52.84856
G1 X221.592 Y54.143 E52.8786
G1 X221.687 Y55.273 E52.91632
G1 X221.696 Y55.593 E52.92697
G1 X221.7 Y55.88 E52.93652
G1 X221.7 Y79.089 E53.70845
G1 X221.695 Y80.273 E53.74783
G1 X221.7 Y80.934 E53.76982
G1 X221.7 Y104.189 E54.54328
G1 X221.695 Y105.373 E54.58266
G1 X221.7 Y106.034 E54.60465
G1 X221.7 Y129.289 E55.37811
G1 X221.695 Y130.473 E55.41749
G1 X221.7 Y131.134 E55.43948
G1 X221.7 Y154.389 E56.21294
G1 X221.695 Y155.573 E56.25232
G1 X221.7 Y156.234 E56.27431
G1 X221.699 Y178.84 E57.02619
G1 X221.69 Y179.567 E57.05037
G1 X221.639 Y180.469 E57.08042
G1 X221.508 Y181.363 E57.11047
G1 X221.299 Y182.241 E57.14049
G1 X221.013 Y183.098 E57.17054
G1 X220.652 Y183.926 E57.20058
G1 X220.22 Y184.718 E57.23058
G1 X219.719 Y185.47 E57.26064
G1 X219.153 Y186.174 E57.29068
G1 X218.528 Y186.825 E57.3207
G1 X217.847 Y187.419 E57.35075
G1 X217.116 Y187.95 E57.38081
G1 X216.342 Y188.414 E57.41082
G1 X215.529 Y188.808 E57.44087
G1 X214.685 Y189.128 E57.47089
G1 X213.815 Y189.373 E57.50095
G1 X212.928 Y189.539 E57.53097
G1 X211.777 Y189.637 E57.56939
G1 X211.456 Y189.646 E57.58007
G1 X211.17 Y189.65 E57.58958
G1 X24.075 Y189.649 E63.81239
G1 X23.377 Y189.64 E63.8356
G1 X22.476 Y189.589 E63.86562
G1 X21.582 Y189.457 E63.89568
G1 X20.704 Y189.248 E63.92569
G1 X19.847 Y188.961 E63.95575
G1 X19.02 Y188.6 E63.98577
G1 X18.227 Y188.167 E64.01582
G1 X17.476 Y187.666 E64.04584
G1 X16.772 Y187.1 E64.07589
G1 X16.121 Y186.474 E64.10593
G1 X15.528 Y185.793 E64.13596
G1 X14.998 Y185.062 E64.16599
G1 X14.534 Y184.287 E64.19604
G1 X14.14 Y183.474 E64.22608
G1 X13.82 Y182.63 E64.25611
G1 X13.576 Y181.76 E64.28616
G1 X13.41 Y180.872 E64.3162
G1 X13.313 Y179.717 E64.35476
G1 X13.304 Y179.384 E64.36584
G1 X13.3 Y179.108 E64.37502
G1 X13.3 Y155.911 E65.14655
G1 X13.305 Y154.727 E65.18593
G1 X13.3 Y154.066 E65.20792
G1 X13.3 Y130.811 E65.98138
G1 X13.305 Y129.627 E66.02076
G1 X13.3 Y128.966 E66.04275
G1 X13.3 Y105.711 E66.81621
G1 X13.305 Y104.527 E66.85559
G1 X13.3 Y103.866 E66.87758
G1 X13.3 Y80.611 E67.65104
G1 X13.305 Y79.427 E67.69042
G1 X13.3 Y78.766 E67.71241
G1 X13.301 Y56.086 E68.46675
G1 X13.31 Y55.421 E68.48887
G1 X13.362 Y54.519 E68.51892
G1 X13.494 Y53.626 E68.54894
G1 X13.704 Y52.748 E68.57897
G1 X13.991 Y51.891 E68.60903
G1 X14.353 Y51.064 E68.63905
G1 X14.786 Y50.272 E68.66908
G1 X15.288 Y49.521 E68.69912
G1 X15.855 Y48.817 E68.72919
G1 X16.481 Y48.167 E68.7592
G1 X17.162 Y47.574 E68.78923
G1 X17.894 Y47.044 E68.81929
G1 X18.669 Y46.581 E68.84932
G1 X19.482 Y46.188 E68.87935
G1 F2700 E63.87935
;MESH:Veneer4.stl(3)
G0 F6000 X24.31 Y54.885
G0 X24.31 Y56.36
G0 X24.282 Y78.268
G0 X210.9 Y78.45
;TYPE:WALL-INNER
G1 F2700 E68.87935
G1 F1200 X24.1 Y78.45 E75.09235
G1 X24.1 Y56.15 E75.83405
G1 X210.9 Y56.15 E82.04704
G1 X210.9 Y78.45 E82.78874
G0 F6000 X211.3 Y78.85
;TYPE:WALL-OUTER
G1 F1200 X23.7 Y78.85 E89.02834
G1 X23.7 Y55.75 E89.79665
G1 X211.3 Y55.75 E96.03625
G1 X211.3 Y78.85 E96.80456
G0 F6000 X211.03 Y78.58
G0 X210.79 Y78.06
G0 X210.51 Y78.06
;TYPE:SKIN
G1 F1200 X24.49 Y78.06 E102.99161
G1 X24.49 Y56.54 E103.70737
G1 X210.51 Y56.54 E109.89442
G1 X210.51 Y78.06 E110.61018
G0 F6000 X210.79 Y78.06
G0 X210.79 Y57.048
G0 X210.349 Y57.048
G1 F1200 X210 Y56.7 E110.62657
G0 F6000 X209.435 Y56.7
G1 F1200 X210.349 Y57.614 E110.66956
G0 F6000 X210.349 Y58.18
G1 F1200 X208.869 Y56.7 E110.73918
G0 F6000 X208.303 Y56.7
G1 F1200 X210.349 Y58.745 E110.83539
G0 F6000 X210.349 Y59.311
G1 F1200 X207.738 Y56.7 E110.95821
G0 F6000 X207.172 Y56.7
G1 F1200 X210.349 Y59.877 E111.10764
G0 F6000 X210.349 Y60.442
G1 F1200 X206.606 Y56.7 E111.28368
G0 F6000 X206.041 Y56.7
G1 F1200 X210.349 Y61.008 E111.48631
G0 F6000 X210.349 Y61.574
G1 F1200 X205.475 Y56.7 E111.71557
G0 F6000 X204.909 Y56.7
G1 F1200 X210.349 Y62.139 E111.97143
G0 F6000 X210.349 Y62.705
G1 F1200 X204.343 Y56.7 E112.25391
G0 F6000 X203.778 Y56.7
G1 F1200 X210.349 Y63.271 E112.56299
G0 F6000 X210.349 Y63.836
G1 F1200 X203.212 Y56.7 E112.89867
G0 F6000 X202.646 Y56.7
G1 F1200 X210.349 Y64.402 E113.26097
G0 F6000 X210.349 Y64.968
G1 F1200 X202.081 Y56.7 E113.64987
G0 F6000 X201.515 Y56.7
G1 F1200 X210.349 Y65.533 E114.06537
G0 F6000 X210.349 Y66.099
G1 F1200 X200.949 Y56.7 E114.5075
G0 F6000 X200.384 Y56.7
G1 F1200 X210.349 Y66.665 E114.97622
G0 F6000 X210.349 Y67.231
G1 F1200 X199.818 Y56.7 E115.47156
G0 F6000 X199.252 Y56.7
G1 F1200 X210.349 Y67.796 E115.99351
G0 F6000 X210.349 Y68.362
G1 F1200 X198.687 Y56.7 E116.54205
G0 F6000 X198.121 Y56.7
G1 F1200 X210.349 Y68.928 E117.11722
G0 F6000 X210.349 Y69.493
G1 F1200 X197.555 Y56.7 E117.71899
G0 F6000 X196.99 Y56.7
G1 F1200 X210.349 Y70.059 E118.34736
G0 F6000 X210.349 Y70.625
G1 F1200 X196.424 Y56.7 E119.00234
G0 F6000 X195.858 Y56.7
G1 F1200 X210.349 Y71.19 E119.68393
G0 F6000 X210.349 Y71.756
G1 F1200 X195.292 Y56.7 E120.39215
G0 F6000 X194.727 Y56.7
G1 F1200 X210.349 Y72.322 E121.12696
G0 F6000 X210.349 Y72.887
G1 F1200 X194.161 Y56.7 E121.88837
G0 F6000 X193.595 Y56.7
G1 F1200 X210.349 Y73.453 E122.6764
G0 F6000 X210.349 Y74.019
G1 F1200 X193.03 Y56.7 E123.49103
G0 F6000 X192.464 Y56.7
G1 F1200 X210.349 Y74.584 E124.33226
G0 F6000 X210.349 Y75.15
G1 F1200 X191.898 Y56.7 E125.20012
G0 F6000 X191.333 Y56.7
G1 F1200 X210.349 Y75.716 E126.09457
G0 F6000 X210.349 Y76.281
G1 F1200 X190.767 Y56.7 E127.01563
G0 F6000 X190.201 Y56.7
G1 F1200 X210.349 Y76.847 E127.9633
G0 F6000 X210.349 Y77.413
G1 F1200 X189.636 Y56.7 E128.93758
G0 F6000 X189.07 Y56.7
G1 F1200 X210.269 Y77.899 E129.93472
G0 F6000 X209.703 Y77.899
G1 F1200 X188.504 Y56.7 E130.93185
G0 F6000 X187.939 Y56.7
G1 F1200 X209.138 Y77.899 E131.92899
G0 F6000 X208.572 Y77.899
G1 F1200 X187.373 Y56.7 E132.92612
G0 F6000 X186.807 Y56.7
G1 F1200 X208.006 Y77.899 E133.92326
G0 F6000 X207.441 Y77.899
G1 F1200 X186.242 Y56.7 E134.9204
G0 F6000 X185.676 Y56.7
G1 F1200 X206.875 Y77.899 E135.91753
G0 F6000 X206.309 Y77.899
G1 F1200 X185.11 Y56.7 E136.91467
G0 F6000 X184.544 Y56.7
G1 F1200 X205.744 Y77.899 E137.91183
G0 F6000 X205.178 Y77.899
G1 F1200 X183.979 Y56.7 E138.90896
G0 F6000 X183.413 Y56.7
G1 F1200 X204.612 Y77.899 E139.9061
G0 F6000 X204.046 Y77.899
G1 F1200 X182.847 Y56.7 E140.90324
G0 F6000 X182.282 Y56.7
G1 F1200 X203.481 Y77.899 E141.90037
G0 F6000 X202.915 Y77.899
G1 F1200 X181.716 Y56.7 E142.89751
G0 F6000 X181.15 Y56.7
G1 F1200 X202.349 Y77.899 E143.89464
G0 F6000 X201.784 Y77.899
G1 F1200 X180.585 Y56.7 E144.89178
G0 F6000 X180.019 Y56.7
G1 F1200 X201.218 Y77.899 E145.88892
G0 F6000 X200.652 Y77.899
G1 F1200 X179.453 Y56.7 E146.88605
G0 F6000 X178.888 Y56.7
G1 F1200 X200.087 Y77.899 E147.88319
G0 F6000 X199.521 Y77.899
G1 F1200 X178.322 Y56.7 E148.88032
G0 F6000 X177.756 Y56.7
G1 F1200 X198.955 Y77.899 E149.87746
G0 F6000 X198.39 Y77.899
G1 F1200 X177.191 Y56.7 E150.87459
G0 F6000 X176.625 Y56.7
G1 F1200 X197.824 Y77.899 E151.87173
G0 F6000 X197.258 Y77.899
G1 F1200 X176.059 Y56.7 E152.86887
G0 F6000 X175.494 Y56.7
G1 F1200 X196.693 Y77.899 E153.866
G0 F6000 X196.127 Y77.899
G1 F1200 X174.928 Y56.7 E154.86314
G0 F6000 X174.362 Y56.7
G1 F1200 X195.561 Y77.899 E155.86027
G0 F6000 X194.996 Y77.899
G1 F1200 X173.796 Y56.7 E156.85743
G0 F6000 X173.231 Y56.7
G1 F1200 X194.43 Y77.899 E157.85457
G0 F6000 X193.864 Y77.899
G1 F1200 X172.665 Y56.7 E158.85171
G0 F6000 X172.099 Y56.7
G1 F1200 X193.298 Y77.899 E159.84884
G0 F6000 X192.733 Y77.899
G1 F1200 X171.534 Y56.7 E160.84598
G0 F6000 X170.968 Y56.7
G1 F1200 X192.167 Y77.899 E161.84311
G0 F6000 X191.601 Y77.899
G1 F1200 X170.402 Y56.7 E162.84025
G0 F6000 X169.837 Y56.7
G1 F1200 X191.036 Y77.899 E163.83739
G0 F6000 X190.47 Y77.899
G1 F1200 X169.271 Y56.7 E164.83452
G0 F6000 X168.705 Y56.7
G1 F1200 X189.904 Y77.899 E165.83166
G0 F6000 X189.339 Y77.899
G1 F1200 X168.14 Y56.7 E166.82879
G0 F6000 X167.574 Y56.7
G1 F1200 X188.773 Y77.899 E167.82593
G0 F6000 X188.207 Y77.899
G1 F1200 X167.008 Y56.7 E168.82307
