;FLAVOR:Marlin
;TIME:13674
;Filament used: 7.48769m
;Layer height: 0.16
;MINX:2.313
;MINY:11.239
;MINZ:0.2
;MAXX:214.243
;MAXY:221.759
;MAXZ:5.56
;Generated with Cura_SteamEngine 4.10.0
M140 S50
M105
M190 S50
M104 S200
M105
M109 S200
M82 ;absolute extrusion mode
; Ender 3 Custom Start G-code
G92 E0 ; Reset Extruder
G28 ; Home all axes
G1 Z2.0 F3000 ; Move Z Axis up little to prevent scratching of Heat Bed
G1 X0.1 Y20 Z0.3 F5000.0 ; Move to start position
G1 X0.1 Y200.0 Z0.3 F1500.0 E15 ; Draw the first line
G1 X0.4 Y200.0 Z0.3 F5000.0 ; Move to side a little
G1 X0.4 Y20 Z0.3 F1500.0 E30 ; Draw the second line
G92 E0 ; Reset Extruder
G1 Z2.0 F3000 ; Move Z Axis up little to prevent scratching of Heat Bed
G1 X5 Y20 Z0.3 F5000.0 ; Move over to prevent blob squish
G92 E0
G92 E0
G1 F2700 E-5
;LAYER_COUNT:44
;LAYER:0
M107
G0 F6000 X19.989 Y14.823 Z0.2
;TYPE:SKIRT
G1 F2700 E0
G1 F1200 X20.47 Y14.355 E0.02232
G1 X21.17 Y13.73 E0.05353
G1 X21.92 Y13.167 E0.08472
G1 X22.715 Y12.67 E0.11591
G1 X23.55 Y12.243 E0.1471
G1 X24.418 Y11.888 E0.17829
G1 X25.313 Y11.609 E0.20947
G1 X26.229 Y11.406 E0.24068
G1 X27.159 Y11.283 E0.27188
G1 X28.096 Y11.239 E0.30308
G1 X29.033 Y11.275 E0.33427
G1 X29.964 Y11.391 E0.36547
G1 X30.881 Y11.586 E0.39665
G1 X31.779 Y11.858 E0.42786
G1 X32.65 Y12.205 E0.45904
G1 X33.488 Y12.626 E0.49024
G1 X34.287 Y13.116 E0.52141
G1 X35.042 Y13.673 E0.55262
G1 X35.689 Y14.237 E0.58116
G1 X35.918 Y14.453 E0.59163
G1 X36.148 Y14.677 E0.60231
G1 X80.992 Y59.521 E2.71164
G1 X82.864 Y61.34 E2.79845
G1 X84.722 Y63.047 E2.88237
G1 X86.649 Y64.717 E2.96718
G1 X88.583 Y66.304 E3.05039
G1 X90.551 Y67.825 E3.13312
G1 X92.619 Y69.332 E3.21823
G1 X94.656 Y70.729 E3.30038
G1 X96.81 Y72.121 E3.38568
G1 X98.918 Y73.399 E3.46767
G1 X101.14 Y74.662 E3.55268
G1 X103.362 Y75.842 E3.63636
G1 X105.614 Y76.959 E3.71997
G1 X107.907 Y78.014 E3.80392
G1 X110.187 Y78.988 E3.88638
G1 X112.603 Y79.941 E3.97276
G1 X114.898 Y80.77 E4.05392
G1 X117.317 Y81.567 E4.13863
G1 X119.712 Y82.284 E4.22178
G1 X122.169 Y82.943 E4.30639
G1 X124.605 Y83.523 E4.38968
G1 X127.083 Y84.04 E4.47387
G1 X129.558 Y84.482 E4.55749
G1 X132.02 Y84.852 E4.6403
G1 X134.548 Y85.159 E4.725
G1 X137.052 Y85.391 E4.80864
G1 X139.537 Y85.55 E4.89146
G1 X142.232 Y85.646 E4.98115
G1 X142.775 Y85.658 E4.99922
G1 X143.711 Y85.719 E5.03041
G1 X144.638 Y85.86 E5.0616
G1 X145.55 Y86.08 E5.0928
G1 X146.44 Y86.376 E5.124
G1 X147.301 Y86.747 E5.15518
G1 X148.128 Y87.19 E5.18639
G1 X148.914 Y87.702 E5.21759
G1 X149.653 Y88.279 E5.24877
G1 X150.045 Y88.629 E5.26625
G1 X150.284 Y88.853 E5.27714
G1 X150.54 Y89.101 E5.289
G1 X175.699 Y114.26 E6.4724
G1 X176.215 Y114.791 E6.49703
G1 X176.839 Y115.491 E6.52822
G1 X177.402 Y116.241 E6.55941
G1 X177.898 Y117.037 E6.5906
G1 X178.325 Y117.872 E6.62179
G1 X178.679 Y118.741 E6.653
G1 X178.958 Y119.636 E6.68418
G1 X179.16 Y120.552 E6.71538
G1 X179.283 Y121.482 E6.74658
G1 X179.319 Y122.056 E6.76571
G1 X179.349 Y122.912 E6.7942
G1 X179.375 Y124.133 E6.83482
G1 X179.499 Y126.65 E6.91864
G1 X179.696 Y129.164 E7.00251
G1 X179.961 Y131.654 E7.0858
G1 X180.3 Y134.156 E7.16977
G1 X180.708 Y136.643 E7.2536
G1 X181.183 Y139.101 E7.33686
G1 X181.732 Y141.567 E7.42089
G1 X182.345 Y143.997 E7.50424
G1 X183.037 Y146.441 E7.58873
G1 X183.786 Y148.826 E7.67187
G1 X184.607 Y151.203 E7.75551
G1 X185.499 Y153.566 E7.83952
G1 X186.45 Y155.889 E7.92301
G1 X187.479 Y158.209 E8.00742
G1 X188.549 Y160.449 E8.08999
G1 X189.716 Y162.724 E8.17503
G1 X190.901 Y164.884 E8.25697
G1 X192.197 Y167.091 E8.3421
G1 X193.522 Y169.213 E8.4253
G1 X194.922 Y171.317 E8.50936
G1 X196.394 Y173.4 E8.59419
G1 X197.879 Y175.381 E8.67654
G1 X199.433 Y177.334 E8.75955
G1 X201.077 Y179.285 E8.84441
G1 X202.761 Y181.173 E8.92855
G1 X204.482 Y182.997 E9.01196
G1 X205.442 Y183.972 E9.05747
G1 X210.642 Y189.171 E9.30204
G1 X211.111 Y189.651 E9.32436
G1 X211.737 Y190.35 E9.35557
G1 X212.302 Y191.099 E9.38677
G1 X212.8 Y191.893 E9.41795
G1 X213.229 Y192.727 E9.44914
G1 X213.586 Y193.594 E9.48033
G1 X213.867 Y194.489 E9.51153
G1 X214.072 Y195.404 E9.54271
G1 X214.197 Y196.334 E9.57392
G1 X214.243 Y197.271 E9.60513
G1 X214.209 Y198.208 E9.63631
G1 X214.095 Y199.139 E9.66751
G1 X213.902 Y200.057 E9.69871
G1 X213.632 Y200.955 E9.7299
G1 X213.286 Y201.826 E9.76107
G1 X212.867 Y202.666 E9.79229
G1 X212.379 Y203.466 E9.82346
G1 X211.857 Y204.18 E9.85287
G1 X211.253 Y204.94 E9.88516
G1 X209.717 Y206.933 E9.96885
G1 X208.208 Y209.007 E10.05416
G1 X206.789 Y211.081 E10.13774
G1 X205.428 Y213.193 E10.22131
G1 X204.785 Y214.254 E10.26257
G1 X204.397 Y214.874 E10.2869
G1 X203.866 Y215.647 E10.31809
G1 X203.271 Y216.373 E10.34931
G1 X202.616 Y217.044 E10.3805
G1 X201.907 Y217.658 E10.41169
G1 X201.148 Y218.209 E10.44289
G1 X200.345 Y218.693 E10.47407
G1 X199.503 Y219.107 E10.50528
G1 X198.377 Y219.531 E10.5453
G1 X197.32 Y219.864 E10.58216
G1 X196.927 Y219.982 E10.59581
G1 X194.532 Y220.769 E10.67965
G1 X193.569 Y221.109 E10.71362
G1 X193.19 Y221.235 E10.72691
G1 X192.286 Y221.484 E10.75809
G1 X191.364 Y221.655 E10.78928
G1 X190.43 Y221.747 E10.8205
G1 X189.493 Y221.759 E10.85166
G1 X188.557 Y221.691 E10.88288
G1 X187.631 Y221.544 E10.91406
G1 X186.721 Y221.318 E10.94525
G1 X186.236 Y221.164 E10.96217
G1 X185.153 Y220.79 E11.00028
G1 X184.352 Y220.502 E11.02859
G1 X181.978 Y219.725 E11.11167
G1 X179.561 Y219.008 E11.19553
G1 X177.123 Y218.36 E11.27943
G1 X174.66 Y217.777 E11.36361
G1 X172.217 Y217.274 E11.44657
G1 X169.737 Y216.837 E11.53033
G1 X167.271 Y216.472 E11.61324
G1 X164.728 Y216.168 E11.69842
G1 X162.248 Y215.944 E11.78124
G1 X159.737 Y215.788 E11.86492
G1 X157.205 Y215.702 E11.94918
G1 X154.682 Y215.689 E12.0331
G1 X152.201 Y215.745 E12.11564
G1 X149.638 Y215.877 E12.201
G1 X147.101 Y216.076 E12.28564
G1 X146.164 Y216.11 E12.31682
G1 X145.227 Y216.063 E12.34803
G1 X144.298 Y215.937 E12.37921
G1 X143.383 Y215.733 E12.41039
G1 X142.488 Y215.451 E12.4416
G1 X141.621 Y215.094 E12.47279
G1 X140.787 Y214.664 E12.504
G1 X139.993 Y214.165 E12.53519
G1 X139.245 Y213.6 E12.56636
G1 X138.722 Y213.141 E12.58951
G1 X138.503 Y212.936 E12.59949
G1 X138.242 Y212.683 E12.61158
G1 X5.934 Y80.373 E18.83499
G1 X5.429 Y79.854 E18.85907
G1 X4.804 Y79.155 E18.89026
G1 X4.241 Y78.405 E18.92145
G1 X3.744 Y77.609 E18.95266
G1 X3.317 Y76.774 E18.98385
G1 X2.962 Y75.906 E19.01504
G1 X2.683 Y75.011 E19.04623
G1 X2.48 Y74.095 E19.07743
G1 X2.357 Y73.165 E19.10863
G1 X2.313 Y72.229 E19.1398
G1 X2.349 Y71.291 E19.17102
G1 X2.465 Y70.361 E19.20219
G1 X2.573 Y69.807 E19.22096
G1 X2.629 Y69.556 E19.22952
G1 X3.159 Y66.999 E19.31637
G1 X3.605 Y64.493 E19.40103
G1 X3.972 Y62.027 E19.48395
G1 X4.277 Y59.486 E19.56907
G1 X4.504 Y57.006 E19.6519
G1 X4.662 Y54.496 E19.73555
G1 X4.75 Y51.998 E19.81869
G1 X4.766 Y49.446 E19.90357
G1 X4.711 Y46.95 E19.98661
G1 X4.586 Y44.442 E20.07013
G1 X4.387 Y41.911 E20.15457
G1 X4.123 Y39.45 E20.23689
G1 X3.839 Y37.339 E20.30774
G1 X3.796 Y36.983 E20.31966
G1 X3.724 Y36.048 E20.35085
G1 X3.731 Y35.11 E20.38205
G1 X3.818 Y34.176 E20.41325
G1 X3.984 Y33.253 E20.44444
G1 X4.229 Y32.348 E20.47563
G1 X4.549 Y31.467 E20.5068
G1 X4.944 Y30.616 E20.53801
G1 X5.409 Y29.801 E20.56921
G1 X5.943 Y29.03 E20.60041
G1 X6.694 Y28.138 E20.63919
G1 X6.906 Y27.912 E20.6495
G1 X7.151 Y27.66 E20.66119
G1 X19.989 Y14.823 E21.26502
G0 F6000 X20.268 Y15.11
G1 F1200 X20.749 Y14.642 E21.28735
G1 X21.436 Y14.029 E21.31797
G1 X22.174 Y13.478 E21.3486
G1 X22.957 Y12.993 E21.37924
G1 X23.778 Y12.578 E21.40983
G1 X24.633 Y12.236 E21.44046
G1 X25.514 Y11.97 E21.47107
G1 X26.415 Y11.78 E21.5017
G1 X27.329 Y11.67 E21.53231
G1 X28.249 Y11.64 E21.56293
G1 X29.169 Y11.689 E21.59357
G1 X30.08 Y11.818 E21.62418
G1 X30.977 Y12.026 E21.6548
G1 X31.853 Y12.31 E21.68543
G1 X32.7 Y12.67 E21.71604
G1 X33.514 Y13.101 E21.74667
G1 X34.286 Y13.602 E21.77728
G1 X35.012 Y14.168 E21.8079
G1 X35.414 Y14.528 E21.82585
G1 X35.643 Y14.744 E21.83632
G1 X35.865 Y14.96 E21.84662
G1 X80.713 Y59.808 E23.95614
G1 X82.597 Y61.639 E24.04352
G1 X84.455 Y63.345 E24.12741
G1 X86.375 Y65.01 E24.21194
G1 X88.335 Y66.618 E24.29626
G1 X90.316 Y68.15 E24.37955
G1 X92.357 Y69.636 E24.46352
G1 X94.459 Y71.078 E24.5483
G1 X96.592 Y72.456 E24.63277
G1 X98.735 Y73.755 E24.71611
G1 X100.961 Y75.02 E24.80127
G1 X103.175 Y76.197 E24.88467
G1 X105.419 Y77.309 E24.96797
G1 X107.749 Y78.381 E25.05327
G1 X110.062 Y79.37 E25.13694
G1 X112.417 Y80.299 E25.22114
G1 X114.796 Y81.158 E25.30527
G1 X117.204 Y81.951 E25.38959
G1 X119.608 Y82.671 E25.47305
G1 X122.044 Y83.324 E25.55694
G1 X124.529 Y83.916 E25.6419
G1 X127.003 Y84.432 E25.72596
G1 X129.465 Y84.872 E25.80914
G1 X131.989 Y85.251 E25.89403
G1 X134.495 Y85.555 E25.97799
G1 X137.025 Y85.79 E26.0625
G1 X139.531 Y85.95 E26.14602
G1 X142.209 Y86.045 E26.23515
G1 X142.766 Y86.058 E26.25368
G1 X143.684 Y86.119 E26.28428
G1 X144.594 Y86.259 E26.3149
G1 X145.489 Y86.478 E26.34555
G1 X146.36 Y86.774 E26.37615
G1 X147.203 Y87.144 E26.40677
G1 X148.011 Y87.586 E26.4374
G1 X148.777 Y88.097 E26.46802
G1 X149.772 Y88.921 E26.51099
G1 X150.011 Y89.145 E26.52189
G1 X150.257 Y89.384 E26.53329
G1 X175.412 Y114.539 E27.71651
G1 X175.928 Y115.07 E27.74114
G1 X176.54 Y115.757 E27.77174
G1 X177.091 Y116.495 E27.80237
G1 X177.575 Y117.278 E27.83299
G1 X177.989 Y118.1 E27.8636
G1 X178.331 Y118.955 E27.89423
G1 X178.597 Y119.837 E27.92487
G1 X178.786 Y120.738 E27.95549
G1 X178.919 Y122.071 E28.00004
G1 X178.949 Y122.92 E28.0283
G1 X178.975 Y124.16 E28.06955
G1 X179.099 Y126.667 E28.15303
G1 X179.297 Y129.205 E28.2377
G1 X179.565 Y131.714 E28.32163
G1 X179.902 Y134.204 E28.4052
G1 X180.313 Y136.712 E28.48973
G1 X180.793 Y139.192 E28.57375
G1 X181.34 Y141.647 E28.6574
G1 X181.958 Y144.099 E28.74151
G1 X182.644 Y146.522 E28.82526
G1 X183.416 Y148.981 E28.91099
G1 X184.226 Y151.327 E28.99353
G1 X185.126 Y153.71 E29.07826
G1 X186.091 Y156.066 E29.16294
G1 X187.11 Y158.364 E29.24655
G1 X188.196 Y160.639 E29.33039
G1 X189.345 Y162.877 E29.41407
G1 X190.572 Y165.114 E29.49893
G1 X191.861 Y167.311 E29.58365
G1 X193.192 Y169.441 E29.66718
G1 X194.577 Y171.523 E29.75035
G1 X196.063 Y173.626 E29.836
G1 X197.562 Y175.624 E29.91908
G1 X199.13 Y177.595 E30.00285
G1 X200.773 Y179.546 E30.08768
G1 X202.437 Y181.411 E30.17081
G1 X204.235 Y183.317 E30.25796
G1 X205.1 Y184.195 E30.29896
G1 X210.356 Y189.451 E30.54618
G1 X210.825 Y189.931 E30.5685
G1 X211.439 Y190.617 E30.59912
G1 X211.991 Y191.353 E30.62972
G1 X212.478 Y192.135 E30.66036
G1 X212.894 Y192.956 E30.69098
G1 X213.238 Y193.81 E30.7216
G1 X213.507 Y194.691 E30.75224
G1 X213.698 Y195.591 E30.78284
G1 X213.81 Y196.505 E30.81346
G1 X213.843 Y197.425 E30.84408
G1 X213.795 Y198.345 E30.87472
G1 X213.668 Y199.256 E30.90532
G1 X213.462 Y200.154 E30.93596
G1 X213.18 Y201.03 E30.96657
G1 X212.822 Y201.878 E30.99718
G1 X212.392 Y202.692 E31.0278
G1 X211.893 Y203.466 E31.05843
G1 X211.544 Y203.931 E31.07777
G1 X210.97 Y204.654 E31.10847
G1 X209.362 Y206.739 E31.19605
G1 X207.898 Y208.752 E31.27884
G1 X206.466 Y210.844 E31.36316
G1 X205.083 Y212.991 E31.4481
G1 X204.446 Y214.042 E31.48897
G1 X204.058 Y214.662 E31.5133
G1 X203.536 Y215.421 E31.54394
G1 X202.95 Y216.131 E31.57456
G1 X202.305 Y216.788 E31.60518
G1 X201.605 Y217.386 E31.6358
G1 X200.856 Y217.922 E31.66644
G1 X200.064 Y218.39 E31.69703
G1 X199.233 Y218.788 E31.72768
G1 X198.257 Y219.149 E31.76229
G1 X197.038 Y219.532 E31.80479
G1 X196.793 Y219.605 E31.81329
G1 X194.373 Y220.4 E31.89801
G1 X193.436 Y220.731 E31.93106
G1 X193.067 Y220.854 E31.944
G1 X192.18 Y221.098 E31.9746
G1 X191.274 Y221.264 E32.00523
G1 X190.357 Y221.35 E32.03587
G1 X189.437 Y221.357 E32.06647
G1 X188.519 Y221.284 E32.0971
G1 X187.611 Y221.131 E32.12772
G1 X186.367 Y220.786 E32.17066
G1 X185.288 Y220.413 E32.20863
G1 X184.506 Y220.132 E32.23627
G1 X182.101 Y219.345 E32.32043
G1 X179.672 Y218.625 E32.4047
G1 X177.212 Y217.97 E32.48937
G1 X174.761 Y217.39 E32.57314
G1 X172.262 Y216.876 E32.658
G1 X169.829 Y216.446 E32.74017
G1 X167.276 Y216.068 E32.82601
G1 X164.81 Y215.774 E32.90861
G1 X162.275 Y215.545 E32.99327
G1 X159.738 Y215.388 E33.07781
G1 X157.221 Y215.302 E33.16158
G1 X154.675 Y215.289 E33.24626
G1 X152.173 Y215.345 E33.3295
G1 X149.623 Y215.476 E33.41442
G1 X147.07 Y215.677 E33.4996
G1 X146.15 Y215.71 E33.53022
G1 X145.23 Y215.662 E33.56086
G1 X144.319 Y215.535 E33.59145
G1 X143.421 Y215.329 E33.62209
G1 X142.545 Y215.046 E33.65271
G1 X141.697 Y214.688 E33.68333
G1 X140.883 Y214.257 E33.71396
G1 X140.11 Y213.758 E33.74456
G1 X139.382 Y213.194 E33.77519
G1 X138.995 Y212.849 E33.79244
G1 X138.776 Y212.644 E33.80241
G1 X138.525 Y212.4 E33.81406
G1 X6.221 Y80.094 E40.03728
G1 X5.716 Y79.575 E40.06136
G1 X5.103 Y78.888 E40.09199
G1 X4.552 Y78.15 E40.12262
G1 X4.068 Y77.368 E40.15321
G1 X3.653 Y76.546 E40.18383
G1 X3.31 Y75.691 E40.21447
G1 X3.044 Y74.81 E40.24508
G1 X2.854 Y73.909 E40.27571
G1 X2.744 Y72.995 E40.30633
G1 X2.714 Y72.075 E40.33694
G1 X2.763 Y71.156 E40.36755
G1 X2.963 Y69.893 E40.41008
G1 X3.04 Y69.545 E40.42194
G1 X3.551 Y67.079 E40.5057
G1 X4 Y64.556 E40.59094
G1 X4.372 Y62.058 E40.67494
G1 X4.669 Y59.584 E40.75781
G1 X4.903 Y57.035 E40.84295
G1 X5.061 Y54.534 E40.9263
G1 X5.15 Y51.98 E41.0113
G1 X5.166 Y49.44 E41.09578
G1 X5.112 Y46.957 E41.17838
G1 X4.984 Y44.392 E41.2638
G1 X4.788 Y41.909 E41.34664
G1 X4.514 Y39.35 E41.43224
G1 X4.236 Y37.291 E41.50135
G1 X4.193 Y36.935 E41.51327
G1 X4.123 Y36.017 E41.54389
G1 X4.132 Y35.097 E41.57449
G1 X4.221 Y34.18 E41.60514
G1 X4.39 Y33.275 E41.63576
G1 X4.636 Y32.388 E41.66637
G1 X4.958 Y31.526 E41.69698
G1 X5.354 Y30.694 E41.72763
G1 X5.821 Y29.901 E41.75823
G1 X6.354 Y29.151 E41.78884
G1 X6.986 Y28.412 E41.82118
G1 X7.198 Y28.186 E41.83149
G1 X7.434 Y27.943 E41.84275
G1 X20.268 Y15.11 E42.4464
G0 F6000 X20.547 Y15.396
G1 F1200 X21.028 Y14.928 E42.46872
G1 X21.703 Y14.328 E42.49876
G1 X22.428 Y13.789 E42.52881
G1 X23.197 Y13.317 E42.55882
G1 X24.006 Y12.915 E42.58886
G1 X24.847 Y12.586 E42.6189
G1 X25.714 Y12.332 E42.64895
G1 X26.599 Y12.156 E42.67896
G1 X27.497 Y12.059 E42.709
G1 X28.4 Y12.042 E42.73904
G1 X29.301 Y12.105 E42.76908
G1 X30.193 Y12.248 E42.79913
G1 X31.069 Y12.468 E42.82917
G1 X31.921 Y12.765 E42.85918
G1 X32.745 Y13.137 E42.88925
G1 X33.532 Y13.58 E42.91929
G1 X34.276 Y14.091 E42.94931
G1 X35.14 Y14.819 E42.98688
G1 X35.369 Y15.035 E42.99735
G1 X35.582 Y15.243 E43.00726
G1 X80.398 Y60.059 E45.11526
G1 X82.33 Y61.937 E45.20488
G1 X84.205 Y63.658 E45.28953
G1 X86.107 Y65.308 E45.37328
G1 X88.078 Y66.925 E45.45807
G1 X90.081 Y68.473 E45.54227
G1 X92.124 Y69.961 E45.62633
G1 X94.238 Y71.411 E45.71159
G1 X96.373 Y72.791 E45.79614
G1 X98.552 Y74.111 E45.88088
G1 X100.74 Y75.355 E45.96459
G1 X102.989 Y76.55 E46.0493
G1 X105.253 Y77.673 E46.13335
G1 X107.573 Y78.741 E46.2183
G1 X109.938 Y79.751 E46.30383
G1 X112.27 Y80.671 E46.38721
G1 X114.672 Y81.538 E46.47215
G1 X117.079 Y82.332 E46.55645
G1 X119.495 Y83.054 E46.64032
G1 X121.945 Y83.711 E46.72468
G1 X124.434 Y84.304 E46.80979
G1 X126.95 Y84.829 E46.89527
G1 X129.413 Y85.269 E46.97849
G1 X131.913 Y85.644 E47.06257
G1 X134.481 Y85.956 E47.14861
G1 X136.961 Y86.186 E47.23145
G1 X139.493 Y86.349 E47.31584
G1 X142.266 Y86.447 E47.40812
G1 X142.757 Y86.458 E47.42446
G1 X143.658 Y86.518 E47.45449
G1 X144.55 Y86.658 E47.48452
G1 X145.426 Y86.877 E47.51456
G1 X146.28 Y87.172 E47.54461
G1 X147.104 Y87.541 E47.57464
G1 X147.892 Y87.982 E47.60467
G1 X148.638 Y88.491 E47.63471
G1 X149.498 Y89.213 E47.67206
G1 X149.737 Y89.437 E47.68295
G1 X149.974 Y89.666 E47.69391
G1 X175.125 Y114.818 E48.87696
G1 X175.641 Y115.349 E48.90159
G1 X176.241 Y116.023 E48.9316
G1 X176.779 Y116.749 E48.96166
G1 X177.251 Y117.519 E48.99169
G1 X177.653 Y118.328 E49.02174
G1 X177.981 Y119.169 E49.05176
G1 X178.234 Y120.036 E49.0818
G1 X178.41 Y120.922 E49.11185
G1 X178.519 Y122.086 E49.15073
G1 X178.549 Y122.929 E49.17879
G1 X178.575 Y124.188 E49.22067
G1 X178.699 Y126.682 E49.30372
G1 X178.899 Y129.242 E49.38913
G1 X179.165 Y131.738 E49.47262
G1 X179.509 Y134.285 E49.5581
G1 X179.919 Y136.781 E49.64223
G1 X180.398 Y139.256 E49.72608
G1 X180.956 Y141.76 E49.8114
