;FLAVOR:Marlin
;TIME:6819
;Filament used: 5.78606m
;Layer height: 0.16
;MINX:42.557
;MINY:40.5
;MINZ:0.2
;MAXX:192.605
;MAXY:194.5
;MAXZ:1
;Generated with Cura_SteamEngine 4.10.0
M140 S50
M105
M190 S50
M104 S200
M105
M109 S200
M82 ;absolute extrusion mode
; Ender 3 Custom Start G-code
G92 E0 ; Reset Extruder
G28 ; Home all axes
G1 Z2.0 F3000 ; Move Z Axis up little to prevent scratching of Heat Bed
G1 X0.1 Y20 Z0.3 F5000.0 ; Move to start position
G1 X0.1 Y200.0 Z0.3 F1500.0 E15 ; Draw the first line
G1 X0.4 Y200.0 Z0.3 F5000.0 ; Move to side a little
G1 X0.4 Y20 Z0.3 F1500.0 E30 ; Draw the second line
G92 E0 ; Reset Extruder
G1 Z2.0 F3000 ; Move Z Axis up little to prevent scratching of Heat Bed
G1 X5 Y20 Z0.3 F5000.0 ; Move over to prevent blob squish
G92 E0
G92 E0
G1 F2700 E-5
;LAYER_COUNT:7
;LAYER:0
M107
G0 F6000 X46.141 Y64.999 Z0.2
;TYPE:SKIRT
G1 F2700 E0
G1 F1200 X67.053 Y44.089 E0.98359
G1 X67.534 Y43.622 E1.00589
G1 X68.234 Y42.998 E1.03708
G1 X68.984 Y42.436 E1.06825
G1 X69.78 Y41.94 E1.09944
G1 X70.616 Y41.513 E1.13067
G1 X71.484 Y41.159 E1.16184
G1 X72.38 Y40.881 E1.19305
G1 X73.296 Y40.679 E1.22424
G1 X74.546 Y40.533 E1.2661
G1 X74.698 Y40.524 E1.27117
G1 X75.214 Y40.506 E1.28834
G1 X75.757 Y40.5 E1.3064
G1 X180.908 Y40.5 E4.80374
G1 X181.76 Y40.511 E4.83208
G1 X182.697 Y40.565 E4.86329
G1 X183.625 Y40.698 E4.89447
G1 X184.539 Y40.909 E4.92567
G1 X185.431 Y41.198 E4.95686
G1 X186.296 Y41.562 E4.98807
G1 X187.126 Y41.998 E5.01926
G1 X187.916 Y42.503 E5.05044
G1 X188.661 Y43.073 E5.08164
G1 X189.354 Y43.705 E5.11284
G1 X189.99 Y44.394 E5.14402
G1 X190.566 Y45.134 E5.17521
G1 X191.076 Y45.921 E5.2064
G1 X191.518 Y46.749 E5.23762
G1 X191.888 Y47.611 E5.26882
G1 X192.182 Y48.501 E5.3
G1 X192.4 Y49.413 E5.33118
G1 X192.54 Y50.341 E5.3624
G1 X192.6 Y51.277 E5.39359
G1 X192.579 Y52.214 E5.42477
G1 X192.48 Y53.147 E5.45597
G1 X192.393 Y53.644 E5.47275
G1 X192.199 Y54.619 E5.50582
G1 X192.009 Y55.502 E5.53586
G1 X191.544 Y58.004 E5.6205
G1 X191.158 Y60.466 E5.70339
G1 X190.842 Y62.945 E5.78651
G1 X190.593 Y65.44 E5.8699
G1 X190.413 Y67.994 E5.95506
G1 X190.308 Y70.479 E6.03779
G1 X190.272 Y73.01 E6.12198
G1 X190.308 Y75.526 E6.20567
G1 X190.416 Y78.059 E6.28999
G1 X190.592 Y80.534 E6.37252
G1 X190.841 Y83.041 E6.45631
G1 X191.167 Y85.582 E6.54152
G1 X191.546 Y88.002 E6.62299
G1 X192.165 Y91.257 E6.73319
G1 X192.375 Y92.27 E6.7676
G1 X192.526 Y93.196 E6.79881
G1 X192.598 Y94.131 E6.83
G1 X192.59 Y95.069 E6.86119
G1 X192.544 Y95.657 E6.88081
G1 X192.52 Y95.885 E6.88844
G1 X192.444 Y96.669 E6.91463
G1 X192.381 Y97.231 E6.93344
G1 X192.236 Y98.161 E6.96475
G1 X192.04 Y99.135 E6.99779
G1 X191.857 Y99.987 E7.02678
G1 X191.389 Y102.504 E7.11193
G1 X191.003 Y104.966 E7.19482
G1 X190.687 Y107.445 E7.27793
G1 X190.436 Y109.96 E7.362
G1 X190.258 Y112.494 E7.44649
G1 X190.153 Y114.979 E7.52921
G1 X190.117 Y117.51 E7.6134
G1 X190.153 Y120.026 E7.69709
G1 X190.261 Y122.559 E7.78142
G1 X190.437 Y125.034 E7.86395
G1 X190.686 Y127.541 E7.94774
G1 X191.012 Y130.082 E8.03295
G1 X191.391 Y132.502 E8.11442
G1 X192.017 Y135.797 E8.22597
G1 X192.218 Y136.757 E8.25859
G1 X192.373 Y137.696 E8.29024
G1 X192.416 Y138.07 E8.30277
G1 X192.547 Y139.345 E8.3454
G1 X192.566 Y139.569 E8.35287
G1 X192.605 Y140.506 E8.38406
G1 X192.564 Y141.443 E8.41526
G1 X192.393 Y142.649 E8.45577
G1 X192.195 Y143.635 E8.48922
G1 X192.012 Y144.487 E8.51821
G1 X191.544 Y147.004 E8.60336
G1 X191.158 Y149.466 E8.68624
G1 X190.842 Y151.945 E8.76936
G1 X190.591 Y154.46 E8.85343
G1 X190.413 Y156.994 E8.93792
G1 X190.308 Y159.479 E9.02064
G1 X190.272 Y162.01 E9.10483
G1 X190.308 Y164.526 E9.18852
G1 X190.416 Y167.059 E9.27285
G1 X190.592 Y169.534 E9.35537
G1 X190.841 Y172.041 E9.43917
G1 X191.167 Y174.582 E9.52437
G1 X191.546 Y177.002 E9.60584
G1 X192.172 Y180.297 E9.7174
G1 X192.368 Y181.233 E9.7492
G1 X192.521 Y182.158 E9.78039
G1 X192.594 Y183.093 E9.81158
G1 X192.587 Y184.031 E9.84278
G1 X192.501 Y184.965 E9.87397
G1 X192.335 Y185.888 E9.90517
G1 X192.091 Y186.794 E9.93637
G1 X191.771 Y187.675 E9.96755
G1 X191.377 Y188.526 E9.99874
G1 X190.912 Y189.341 E10.02995
G1 X190.379 Y190.113 E10.06115
G1 X189.782 Y190.836 E10.09234
G1 X189.126 Y191.506 E10.12352
G1 X188.415 Y192.118 E10.15472
G1 X187.655 Y192.667 E10.18591
G1 X186.85 Y193.15 E10.21713
G1 X186.008 Y193.562 E10.24831
G1 X185.133 Y193.9 E10.27951
G1 X184.233 Y194.163 E10.31069
G1 X183.314 Y194.349 E10.34188
G1 X182.382 Y194.455 E10.37308
G1 X181.807 Y194.481 E10.39222
G1 X180.898 Y194.498 E10.42246
G1 X180.692 Y194.5 E10.42931
G1 X75.745 Y194.499 E13.91986
G1 X75.043 Y194.489 E13.94322
G1 X74.107 Y194.436 E13.9744
G1 X73.179 Y194.303 E14.00558
G1 X72.265 Y194.091 E14.03678
G1 X71.372 Y193.803 E14.06799
G1 X70.508 Y193.439 E14.09918
G1 X69.677 Y193.003 E14.13039
G1 X68.887 Y192.498 E14.16157
G1 X68.143 Y191.928 E14.19275
G1 X67.719 Y191.555 E14.21153
G1 X67.567 Y191.414 E14.21842
G1 X67.351 Y191.207 E14.22837
G1 X67.075 Y190.936 E14.24124
G1 X46.285 Y170.145 E15.21916
G1 X45.815 Y169.661 E15.2416
G1 X45.19 Y168.961 E15.27281
G1 X44.628 Y168.21 E15.30401
G1 X44.132 Y167.415 E15.33518
G1 X43.705 Y166.579 E15.3664
G1 X43.352 Y165.711 E15.39756
G1 X43.073 Y164.815 E15.42878
G1 X42.872 Y163.899 E15.45997
G1 X42.749 Y162.969 E15.49117
G1 X42.706 Y162.033 E15.52233
G1 X42.743 Y161.095 E15.55356
G1 X42.86 Y160.165 E15.58473
G1 X42.967 Y159.617 E15.6033
G1 X42.994 Y159.497 E15.60739
G1 X43.522 Y156.95 E15.69391
G1 X43.968 Y154.444 E15.77857
G1 X44.338 Y151.958 E15.86216
G1 X44.639 Y149.466 E15.94565
G1 X44.868 Y146.961 E16.02931
G1 X45.026 Y144.446 E16.11313
G1 X45.114 Y141.95 E16.1962
G1 X45.13 Y139.392 E16.28128
G1 X45.077 Y136.91 E16.36385
G1 X44.949 Y134.376 E16.44824
G1 X44.753 Y131.871 E16.53181
G1 X44.486 Y129.376 E16.61527
G1 X44.147 Y126.872 E16.69931
G1 X43.74 Y124.406 E16.78244
G1 X43.261 Y121.932 E16.86625
G1 X42.906 Y120.339 E16.92054
G1 X42.78 Y119.731 E16.94119
G1 X42.629 Y118.806 E16.97236
G1 X42.557 Y117.87 E17.00358
G1 X42.566 Y116.933 E17.03475
G1 X42.654 Y115.999 E17.06595
G1 X42.813 Y115.111 E17.09596
G1 X42.996 Y114.287 E17.12403
G1 X43.52 Y111.765 E17.2097
G1 X43.958 Y109.308 E17.29271
G1 X44.33 Y106.813 E17.37661
G1 X44.631 Y104.317 E17.46023
G1 X44.86 Y101.81 E17.54396
G1 X45.021 Y99.281 E17.62825
G1 X45.108 Y96.794 E17.71102
G1 X45.125 Y94.234 E17.79617
G1 X45.071 Y91.747 E17.8789
G1 X44.947 Y89.251 E17.96202
G1 X44.749 Y86.721 E18.04643
G1 X44.479 Y84.195 E18.13092
G1 X44.144 Y81.725 E18.21383
G1 X43.736 Y79.244 E18.29745
G1 X43.256 Y76.76 E18.3816
G1 X43.197 Y76.493 E18.39069
G1 X42.937 Y75.245 E18.43309
G1 X42.785 Y74.32 E18.46427
G1 X42.713 Y73.385 E18.49546
G1 X42.72 Y72.447 E18.52666
G1 X42.807 Y71.513 E18.55786
G1 X42.974 Y70.59 E18.58906
G1 X43.218 Y69.685 E18.62023
G1 X43.539 Y68.804 E18.65142
G1 X43.933 Y67.953 E18.68261
G1 X44.399 Y67.139 E18.71381
G1 X44.932 Y66.367 E18.74501
G1 X45.718 Y65.44 E18.78543
G1 X45.931 Y65.215 E18.79574
G1 X46.141 Y64.999 E18.80576
G0 F6000 X46.424 Y65.282
G1 F1200 X67.331 Y44.376 E19.78914
G1 X67.812 Y43.909 E19.81143
G1 X68.5 Y43.297 E19.84206
G1 X69.238 Y42.747 E19.87267
G1 X70.021 Y42.263 E19.90329
G1 X70.844 Y41.849 E19.93393
G1 X71.699 Y41.508 E19.96455
G1 X72.58 Y41.242 E19.99515
G1 X73.481 Y41.054 E20.02577
G1 X74.569 Y40.933 E20.06218
G1 X74.721 Y40.924 E20.06724
G1 X75.218 Y40.906 E20.08378
G1 X75.757 Y40.9 E20.10171
G1 X180.908 Y40.9 E23.59905
G1 X181.755 Y40.911 E23.62722
G1 X182.674 Y40.964 E23.65784
G1 X183.585 Y41.097 E23.68846
G1 X184.481 Y41.308 E23.71908
G1 X185.355 Y41.597 E23.74969
G1 X186.201 Y41.96 E23.78031
G1 X187.013 Y42.395 E23.81095
G1 X187.783 Y42.899 E23.84156
G1 X188.507 Y43.468 E23.87219
G1 X189.179 Y44.097 E23.9028
G1 X189.794 Y44.783 E23.93344
G1 X190.346 Y45.519 E23.96404
G1 X190.833 Y46.3 E23.99466
G1 X191.251 Y47.121 E24.0253
G1 X191.595 Y47.975 E24.05592
G1 X191.864 Y48.855 E24.08652
G1 X192.056 Y49.755 E24.11713
G1 X192.169 Y50.669 E24.14776
G1 X192.202 Y51.589 E24.17838
G1 X192.155 Y52.509 E24.20902
G1 X192.001 Y53.566 E24.24455
G1 X191.808 Y54.535 E24.27741
G1 X191.61 Y55.457 E24.30878
G1 X191.155 Y57.9 E24.39143
G1 X190.765 Y60.391 E24.47529
G1 X190.441 Y62.926 E24.56029
G1 X190.193 Y65.425 E24.64381
G1 X190.015 Y67.949 E24.72797
G1 X189.908 Y70.492 E24.81263
G1 X189.872 Y73.01 E24.89638
G1 X189.908 Y75.549 E24.98084
G1 X190.016 Y78.068 E25.0647
G1 X190.193 Y80.569 E25.14809
G1 X190.444 Y83.095 E25.23252
G1 X190.769 Y85.623 E25.31729
G1 X191.154 Y88.078 E25.39994
G1 X191.775 Y91.346 E25.51058
G1 X191.983 Y92.351 E25.54472
G1 X192.131 Y93.26 E25.57535
G1 X192.199 Y94.178 E25.60597
G1 X192.187 Y95.099 E25.6366
G1 X192.146 Y95.615 E25.65382
G1 X192.122 Y95.843 E25.66144
G1 X192.046 Y96.625 E25.68758
G1 X191.983 Y97.187 E25.70638
G1 X191.844 Y98.082 E25.73651
G1 X191.649 Y99.051 E25.76938
G1 X191.457 Y99.942 E25.7997
G1 X191 Y102.4 E25.88285
G1 X190.61 Y104.891 E25.96671
G1 X190.286 Y107.426 E26.05171
G1 X190.038 Y109.925 E26.13524
G1 X189.86 Y112.449 E26.2194
G1 X189.753 Y114.992 E26.30405
G1 X189.717 Y117.51 E26.38781
G1 X189.753 Y120.049 E26.47227
G1 X189.861 Y122.568 E26.55613
G1 X190.038 Y125.069 E26.63952
G1 X190.289 Y127.595 E26.72395
G1 X190.614 Y130.123 E26.80872
G1 X190.999 Y132.578 E26.89137
G1 X191.619 Y135.843 E27.00191
G1 X191.827 Y136.839 E27.03575
G1 X191.975 Y137.744 E27.06625
G1 X192.018 Y138.111 E27.07854
G1 X192.129 Y139.179 E27.11425
G1 X192.167 Y139.603 E27.12841
G1 X192.205 Y140.523 E27.15904
G1 X192.163 Y141.443 E27.18967
G1 X192.001 Y142.571 E27.22757
G1 X191.804 Y143.551 E27.26082
G1 X191.612 Y144.442 E27.29113
G1 X191.155 Y146.9 E27.37429
G1 X190.765 Y149.391 E27.45815
G1 X190.441 Y151.926 E27.54315
G1 X190.193 Y154.425 E27.62667
G1 X190.015 Y156.949 E27.71083
G1 X189.908 Y159.492 E27.79548
G1 X189.872 Y162.01 E27.87924
G1 X189.908 Y164.549 E27.9637
G1 X190.016 Y167.068 E28.04756
G1 X190.193 Y169.569 E28.13095
G1 X190.444 Y172.095 E28.21538
G1 X190.769 Y174.623 E28.30015
G1 X191.154 Y177.078 E28.3828
G1 X191.774 Y180.343 E28.49334
G1 X191.977 Y181.315 E28.52636
G1 X192.126 Y182.223 E28.55697
G1 X192.195 Y183.141 E28.58759
G1 X192.185 Y184.062 E28.61822
G1 X192.095 Y184.978 E28.64883
G1 X191.926 Y185.883 E28.67945
G1 X191.678 Y186.77 E28.71009
G1 X191.355 Y187.632 E28.7407
G1 X190.958 Y188.463 E28.77134
G1 X190.491 Y189.256 E28.80195
G1 X189.957 Y190.006 E28.83257
G1 X189.359 Y190.706 E28.86319
G1 X188.703 Y191.352 E28.89381
G1 X187.993 Y191.939 E28.92445
G1 X187.236 Y192.461 E28.95503
G1 X186.435 Y192.916 E28.98567
G1 X185.598 Y193.3 E29.0163
G1 X184.732 Y193.61 E29.0469
G1 X183.841 Y193.844 E29.07754
G1 X182.934 Y193.999 E29.10814
G1 X181.799 Y194.081 E29.14599
G1 X180.692 Y194.1 E29.18281
G1 X75.751 Y194.099 E32.67316
G1 X75.049 Y194.089 E32.69652
G1 X74.13 Y194.036 E32.72713
G1 X73.219 Y193.903 E32.75775
G1 X72.323 Y193.692 E32.78837
G1 X71.448 Y193.404 E32.81901
G1 X70.602 Y193.041 E32.84963
G1 X69.791 Y192.606 E32.88024
G1 X69.02 Y192.102 E32.91087
G1 X67.991 Y191.261 E32.95507
G1 X67.839 Y191.12 E32.96197
G1 X67.631 Y190.922 E32.97152
G1 X67.358 Y190.654 E32.98425
G1 X46.571 Y169.867 E33.962
G1 X46.101 Y169.383 E33.98444
G1 X45.489 Y168.695 E34.01507
G1 X44.939 Y167.957 E34.04568
G1 X44.455 Y167.173 E34.07632
G1 X44.041 Y166.351 E34.10694
G1 X43.7 Y165.496 E34.13755
G1 X43.434 Y164.615 E34.16816
G1 X43.246 Y163.714 E34.19877
G1 X43.136 Y162.799 E34.22943
G1 X43.107 Y161.879 E34.26004
G1 X43.157 Y160.96 E34.29065
G1 X43.357 Y159.704 E34.33295
G1 X43.395 Y159.531 E34.33884
G1 X43.914 Y157.03 E34.4238
G1 X44.363 Y154.507 E34.50903
G1 X44.733 Y152.023 E34.59256
G1 X45.035 Y149.517 E34.67652
G1 X45.267 Y146.986 E34.76105
G1 X45.425 Y144.485 E34.8444
G1 X45.514 Y141.932 E34.92936
G1 X45.53 Y139.422 E35.01285
G1 X45.475 Y136.881 E35.09738
G1 X45.348 Y134.361 E35.1813
G1 X45.151 Y131.834 E35.26561
G1 X44.881 Y129.317 E35.3498
G1 X44.543 Y126.82 E35.43361
G1 X44.133 Y124.336 E35.51735
G1 X43.65 Y121.84 E35.60191
G1 X43.332 Y120.42 E35.6503
G1 X43.172 Y119.65 E35.67646
G1 X43.024 Y118.741 E35.70709
G1 X42.956 Y117.823 E35.73771
G1 X42.968 Y116.903 E35.76831
G1 X43.059 Y115.986 E35.79896
G1 X43.204 Y115.198 E35.82561
G1 X43.372 Y114.444 E35.8513
G1 X43.91 Y111.852 E35.93935
G1 X44.353 Y109.366 E36.02334
G1 X44.729 Y106.848 E36.10802
G1 X45.028 Y104.365 E36.1912
G1 X45.259 Y101.839 E36.27556
G1 X45.419 Y99.319 E36.35955
G1 X45.508 Y96.776 E36.44418
G1 X45.525 Y94.264 E36.52773
G1 X45.47 Y91.717 E36.61246
G1 X45.344 Y89.201 E36.69625
G1 X45.148 Y86.684 E36.78022
G1 X44.879 Y84.171 E36.86428
G1 X44.536 Y81.638 E36.9493
G1 X44.13 Y79.174 E37.03236
G1 X43.651 Y76.695 E37.11633
G1 X43.589 Y76.412 E37.12597
G1 X43.329 Y75.164 E37.16837
G1 X43.18 Y74.255 E37.19901
G1 X43.111 Y73.337 E37.22962
G1 X43.122 Y72.417 E37.26023
G1 X43.213 Y71.5 E37.29088
G1 X43.383 Y70.596 E37.32147
G1 X43.63 Y69.709 E37.35209
G1 X43.954 Y68.847 E37.38272
G1 X44.352 Y68.017 E37.41334
G1 X44.819 Y67.224 E37.44395
G1 X45.354 Y66.474 E37.47459
G1 X46.008 Y65.715 E37.50791
G1 X46.221 Y65.49 E37.51822
G1 X46.424 Y65.282 E37.52788
G0 F6000 X46.707 Y65.565
G1 F1200 X67.61 Y44.663 E38.51107
G1 X68.091 Y44.196 E38.53337
G1 X68.766 Y43.596 E38.56341
G1 X69.492 Y43.058 E38.59346
G1 X70.262 Y42.587 E38.62348
G1 X71.071 Y42.185 E38.65353
G1 X71.912 Y41.857 E38.68356
G1 X72.779 Y41.604 E38.71359
G1 X73.665 Y41.43 E38.74363
G1 X74.593 Y41.332 E38.77466
G1 X74.745 Y41.323 E38.77973
G1 X75.223 Y41.306 E38.79564
G1 X75.757 Y41.3 E38.8134
G1 X180.908 Y41.3 E42.31073
G1 X181.749 Y41.311 E42.33871
G1 X182.651 Y41.364 E42.36876
G1 X183.544 Y41.497 E42.39879
G1 X184.422 Y41.708 E42.42882
G1 X185.278 Y41.995 E42.45885
G1 X186.105 Y42.358 E42.48889
G1 X186.897 Y42.792 E42.51893
G1 X187.647 Y43.295 E42.54896
G1 X188.35 Y43.862 E42.579
G1 X189 Y44.488 E42.60902
G1 X189.593 Y45.17 E42.63908
G1 X190.122 Y45.902 E42.66912
G1 X190.585 Y46.678 E42.69917
G1 X190.977 Y47.491 E42.72919
G1 X191.296 Y48.336 E42.75923
G1 X191.538 Y49.206 E42.78927
G1 X191.703 Y50.094 E42.81931
G1 X191.789 Y50.993 E42.84934
G1 X191.795 Y51.896 E42.87938
G1 X191.721 Y52.796 E42.90941
G1 X191.608 Y53.489 E42.93277
G1 X191.417 Y54.45 E42.96536
G1 X191.22 Y55.364 E42.99645
G1 X190.761 Y57.836 E43.08008
G1 X190.367 Y60.349 E43.16468
G1 X190.045 Y62.868 E43.24915
G1 X189.794 Y65.394 E43.33357
G1 X189.614 Y67.94 E43.41847
G1 X189.508 Y70.469 E43.50266
G1 X189.472 Y73.01 E43.58718
G1 X189.508 Y75.538 E43.67127
G1 X189.618 Y78.114 E43.75702
G1 X189.794 Y80.598 E43.83985
G1 X190.048 Y83.153 E43.92525
G1 X190.371 Y85.665 E44.00948
G1 X190.76 Y88.148 E44.09308
G1 X191.389 Y91.458 E44.20514
G1 X191.591 Y92.433 E44.23826
G1 X191.735 Y93.324 E44.26828
G1 X191.8 Y94.225 E44.29832
G1 X191.748 Y95.573 E44.34319
G1 X191.649 Y96.58 E44.37684
G1 X191.586 Y97.142 E44.39565
G1 X191.451 Y98.004 E44.42467
G1 X191.258 Y98.967 E44.45734
G1 X191.067 Y99.856 E44.48758
G1 X190.606 Y102.336 E44.57148
G1 X190.212 Y104.849 E44.65608
G1 X189.89 Y107.368 E44.74055
G1 X189.639 Y109.894 E44.82498
G1 X189.459 Y112.44 E44.90987
G1 X189.353 Y114.969 E44.99406
G1 X189.317 Y117.51 E45.07858
G1 X189.353 Y120.038 E45.16267
G1 X189.463 Y122.614 E45.24843
G1 X189.639 Y125.098 E45.33125
G1 X189.893 Y127.653 E45.41665
G1 X190.216 Y130.165 E45.50089
G1 X190.605 Y132.648 E45.58448
G1 X191.233 Y135.953 E45.69637
G1 X191.435 Y136.921 E45.72926
G1 X191.578 Y137.792 E45.75862
G1 X191.62 Y138.153 E45.7707
G1 X191.75 Y139.413 E45.81284
G1 X191.769 Y139.637 E45.82031
G1 X191.805 Y140.539 E45.85034
G1 X191.761 Y141.441 E45.88037
G1 X191.608 Y142.492 E45.9157
G1 X191.413 Y143.467 E45.94877
G1 X191.224 Y144.345 E45.97864
G1 X190.761 Y146.836 E46.06291
G1 X190.367 Y149.349 E46.14751
G1 X190.045 Y151.868 E46.23198
G1 X189.794 Y154.394 E46.31641
G1 X189.614 Y156.94 E46.4013
G1 X189.508 Y159.469 E46.48549
G1 X189.472 Y162.01 E46.57001
G1 X189.508 Y164.538 E46.6541
G1 X189.618 Y167.114 E46.73986
G1 X189.794 Y169.598 E46.82268
G1 X190.048 Y172.153 E46.90808
G1 X190.371 Y174.665 E46.99232
G1 X190.76 Y177.148 E47.07591
G1 X191.388 Y180.453 E47.1878
G1 X191.585 Y181.397 E47.21987
G1 X191.731 Y182.288 E47.2499
