;FLAVOR:Marlin
;TIME:13068
;Filament used: 8.90777m
;Layer height: 0.2
;MINX:12.5
;MINY:69.65
;MINZ:0.2
;MAXX:222.5
;MAXY:165.35
;MAXZ:5.6
;Generated with Cura_SteamEngine 4.10.0
M140 S50
M105
M190 S50
M104 S200
M105
M109 S200
M82 ;absolute extrusion mode
; Ender 3 Custom Start G-code
G92 E0 ; Reset Extruder
G28 ; Home all axes
G1 Z2.0 F3000 ; Move Z Axis up little to prevent scratching of Heat Bed
G1 X0.1 Y20 Z0.3 F5000.0 ; Move to start position
G1 X0.1 Y200.0 Z0.3 F1500.0 E15 ; Draw the first line
G1 X0.4 Y200.0 Z0.3 F5000.0 ; Move to side a little
G1 X0.4 Y20 Z0.3 F1500.0 E30 ; Draw the second line
G92 E0 ; Reset Extruder
G1 Z2.0 F3000 ; Move Z Axis up little to prevent scratching of Heat Bed
G1 X5 Y20 Z0.3 F5000.0 ; Move over to prevent blob squish
G92 E0
G92 E0
G1 F2700 E-5
;LAYER_COUNT:29
;LAYER:0
M107
G0 F6000 X20.491 Y70.081 Z0.2
;TYPE:SKIRT
G1 F2700 E0
G1 F1200 X21.403 Y69.863 E0.03119
G1 X22.33 Y69.722 E0.06237
G1 X23.201 Y69.663 E0.09141
G1 X23.522 Y69.654 E0.10209
G1 X23.83 Y69.65 E0.11234
G1 X210.793 Y69.65 E6.33075
G1 X211.649 Y69.661 E6.35922
G1 X212.585 Y69.715 E6.39041
G1 X213.513 Y69.847 E6.42158
G1 X214.427 Y70.059 E6.45279
G1 X215.319 Y70.348 E6.48398
G1 X216.184 Y70.711 E6.51518
G1 X217.014 Y71.147 E6.54636
G1 X217.805 Y71.652 E6.57757
G1 X218.549 Y72.223 E6.60877
G1 X219.242 Y72.855 E6.63996
G1 X219.879 Y73.543 E6.67115
G1 X220.454 Y74.284 E6.70234
G1 X220.965 Y75.07 E6.73352
G1 X221.407 Y75.898 E6.76474
G1 X221.776 Y76.76 E6.79593
G1 X222.071 Y77.65 E6.82711
G1 X222.289 Y78.562 E6.8583
G1 X222.429 Y79.49 E6.88952
G1 X222.487 Y80.351 E6.91822
G1 X222.496 Y80.671 E6.92886
G1 X222.5 Y80.98 E6.93914
G1 X222.5 Y104.192 E7.71118
G1 X222.495 Y105.367 E7.75026
G1 X222.5 Y106.028 E7.77224
G1 X222.5 Y129.292 E8.54601
G1 X222.495 Y130.467 E8.58509
G1 X222.5 Y131.128 E8.60707
G1 X222.499 Y153.75 E9.35949
G1 X222.49 Y154.477 E9.38367
G1 X222.439 Y155.414 E9.41488
G1 X222.307 Y156.342 E9.44605
G1 X222.098 Y157.256 E9.47724
G1 X221.811 Y158.149 E9.50844
G1 X221.449 Y159.015 E9.53965
G1 X221.015 Y159.846 E9.57084
G1 X220.511 Y160.637 E9.60203
G1 X219.942 Y161.382 E9.63321
G1 X219.311 Y162.077 E9.66443
G1 X218.624 Y162.715 E9.69562
G1 X217.885 Y163.292 E9.7268
G1 X217.099 Y163.804 E9.758
G1 X216.273 Y164.247 E9.78917
G1 X215.411 Y164.619 E9.8204
G1 X214.522 Y164.915 E9.85156
G1 X213.61 Y165.135 E9.88277
G1 X212.683 Y165.276 E9.91395
G1 X211.799 Y165.337 E9.94343
G1 X211.478 Y165.346 E9.95411
G1 X211.17 Y165.35 E9.96435
G1 X24.065 Y165.349 E16.18749
G1 X23.367 Y165.34 E16.21071
G1 X22.431 Y165.288 E16.24189
G1 X21.502 Y165.156 E16.2731
G1 X20.588 Y164.946 E16.30429
G1 X19.695 Y164.659 E16.33548
G1 X18.83 Y164.296 E16.36669
G1 X17.999 Y163.862 E16.39787
G1 X17.208 Y163.358 E16.42906
G1 X16.463 Y162.788 E16.46026
G1 X15.769 Y162.157 E16.49146
G1 X15.132 Y161.47 E16.52262
G1 X14.555 Y160.73 E16.55383
G1 X14.043 Y159.944 E16.58503
G1 X13.6 Y159.117 E16.61623
G1 X13.229 Y158.256 E16.64742
G1 X12.933 Y157.366 E16.67861
G1 X12.714 Y156.454 E16.70981
G1 X12.573 Y155.527 E16.74099
G1 X12.513 Y154.638 E16.77063
G1 X12.504 Y154.305 E16.78171
G1 X12.5 Y154.008 E16.79159
G1 X12.5 Y130.808 E17.56322
G1 X12.505 Y129.633 E17.6023
G1 X12.5 Y128.972 E17.62429
G1 X12.5 Y105.708 E18.39805
G1 X12.505 Y104.533 E18.43713
G1 X12.5 Y103.872 E18.45912
G1 X12.501 Y81.175 E19.21403
G1 X12.51 Y80.51 E19.23615
G1 X12.563 Y79.574 E19.26733
G1 X12.695 Y78.645 E19.29854
G1 X12.906 Y77.731 E19.32974
G1 X13.194 Y76.839 E19.36091
G1 X13.557 Y75.974 E19.39211
G1 X13.992 Y75.143 E19.42331
G1 X14.496 Y74.353 E19.45448
G1 X15.066 Y73.608 E19.48568
G1 X15.698 Y72.914 E19.5169
G1 X16.386 Y72.277 E19.54808
G1 X17.126 Y71.701 E19.57927
G1 X17.912 Y71.189 E19.61047
G1 X18.739 Y70.747 E19.64166
G1 X19.601 Y70.377 E19.67286
G1 X20.491 Y70.081 E19.70405
G0 F6000 X20.845 Y70.399
G1 F1200 X21.745 Y70.207 E19.73466
G1 X22.659 Y70.093 E19.7653
G1 X23.212 Y70.063 E19.78372
G1 X23.533 Y70.054 E19.7944
G1 X23.83 Y70.05 E19.80428
G1 X210.793 Y70.05 E26.02269
G1 X211.643 Y70.061 E26.05096
G1 X212.562 Y70.114 E26.08158
G1 X213.473 Y70.247 E26.1122
G1 X214.369 Y70.458 E26.14282
G1 X215.243 Y70.746 E26.17343
G1 X216.09 Y71.109 E26.20408
G1 X216.901 Y71.544 E26.23468
G1 X217.671 Y72.048 E26.26529
G1 X218.395 Y72.617 E26.29592
G1 X219.067 Y73.247 E26.32656
G1 X219.682 Y73.932 E26.35718
G1 X220.235 Y74.668 E26.38779
G1 X220.722 Y75.449 E26.41841
G1 X221.139 Y76.27 E26.44903
G1 X221.484 Y77.124 E26.47967
G1 X221.753 Y78.004 E26.51027
G1 X221.945 Y78.905 E26.54091
G1 X222.058 Y79.818 E26.57151
G1 X222.087 Y80.362 E26.58963
G1 X222.096 Y80.682 E26.60028
G1 X222.1 Y80.98 E26.61019
G1 X222.1 Y104.191 E27.38219
G1 X222.095 Y105.37 E27.42141
G1 X222.1 Y106.031 E27.44339
G1 X222.1 Y129.291 E28.21702
G1 X222.095 Y130.47 E28.25624
G1 X222.1 Y131.131 E28.27822
G1 X222.099 Y153.745 E29.03037
G1 X222.09 Y154.472 E29.05455
G1 X222.039 Y155.391 E29.08516
G1 X221.908 Y156.303 E29.11581
G1 X221.698 Y157.199 E29.14642
G1 X221.412 Y158.074 E29.17703
G1 X221.051 Y158.921 E29.20766
G1 X220.617 Y159.733 E29.23828
G1 X220.115 Y160.505 E29.26891
G1 X219.547 Y161.23 E29.29954
G1 X218.919 Y161.903 E29.33016
G1 X218.235 Y162.519 E29.36077
G1 X217.5 Y163.073 E29.39139
G1 X216.72 Y163.562 E29.422
G1 X215.9 Y163.981 E29.45263
G1 X215.047 Y164.327 E29.48325
G1 X214.167 Y164.598 E29.51387
G1 X213.267 Y164.791 E29.54449
G1 X212.353 Y164.906 E29.57513
G1 X211.788 Y164.937 E29.59395
G1 X211.467 Y164.946 E29.60463
G1 X211.17 Y164.95 E29.61451
G1 X24.07 Y164.949 E35.83748
G1 X23.372 Y164.94 E35.8607
G1 X22.453 Y164.888 E35.89131
G1 X21.542 Y164.757 E35.92192
G1 X20.646 Y164.547 E35.95253
G1 X19.771 Y164.26 E35.98316
G1 X18.924 Y163.898 E36.0138
G1 X18.112 Y163.464 E36.04442
G1 X17.341 Y162.962 E36.07502
G1 X16.616 Y162.394 E36.10565
G1 X15.943 Y161.765 E36.13629
G1 X15.328 Y161.081 E36.16688
G1 X14.774 Y160.346 E36.1975
G1 X14.286 Y159.565 E36.22813
G1 X13.867 Y158.745 E36.25875
G1 X13.521 Y157.892 E36.28937
G1 X13.251 Y157.012 E36.31999
G1 X13.058 Y156.111 E36.35063
G1 X12.944 Y155.198 E36.38124
G1 X12.913 Y154.627 E36.40026
G1 X12.904 Y154.294 E36.41133
G1 X12.9 Y154.008 E36.42085
G1 X12.9 Y130.809 E37.19245
G1 X12.905 Y129.63 E37.23166
G1 X12.9 Y128.969 E37.25365
G1 X12.9 Y105.709 E38.02728
G1 X12.905 Y104.53 E38.06649
G1 X12.9 Y103.869 E38.08848
G1 X12.901 Y81.181 E38.84309
G1 X12.91 Y80.516 E38.86521
G1 X12.962 Y79.596 E38.89585
G1 X13.094 Y78.685 E38.92647
G1 X13.305 Y77.789 E38.95709
G1 X13.592 Y76.914 E38.98771
G1 X13.955 Y76.068 E39.01833
G1 X14.389 Y75.256 E39.04896
G1 X14.892 Y74.485 E39.07957
G1 X15.461 Y73.761 E39.1102
G1 X16.089 Y73.089 E39.14079
G1 X16.774 Y72.473 E39.17143
G1 X17.51 Y71.92 E39.20205
G1 X18.291 Y71.432 E39.23268
G1 X19.111 Y71.014 E39.2633
G1 X19.965 Y70.669 E39.29393
G1 X20.845 Y70.399 E39.32455
G0 F6000 X20.327 Y70.968
G1 F1200 X21.196 Y70.725 E39.35456
G1 X22.084 Y70.559 E39.3846
G1 X23.223 Y70.463 E39.42262
G1 X23.544 Y70.454 E39.4333
G1 X23.83 Y70.45 E39.44282
G1 X210.793 Y70.45 E45.66123
G1 X211.637 Y70.461 E45.6893
G1 X212.539 Y70.514 E45.71936
G1 X213.432 Y70.646 E45.74938
G1 X214.31 Y70.857 E45.77941
G1 X215.166 Y71.145 E45.80945
G1 X215.993 Y71.507 E45.83948
G1 X216.785 Y71.942 E45.86953
G1 X217.536 Y72.444 E45.89958
G1 X218.239 Y73.011 E45.92962
G1 X218.889 Y73.638 E45.95966
G1 X219.481 Y74.32 E45.98969
G1 X220.011 Y75.051 E46.01972
G1 X220.473 Y75.827 E46.04976
G1 X220.866 Y76.64 E46.0798
G1 X221.184 Y77.485 E46.10982
G1 X221.427 Y78.355 E46.13987
G1 X221.592 Y79.243 E46.16991
G1 X221.687 Y80.373 E46.20763
G1 X221.696 Y80.693 E46.21827
G1 X221.7 Y80.98 E46.22782
G1 X221.7 Y104.189 E46.99975
G1 X221.695 Y105.373 E47.03913
G1 X221.7 Y106.034 E47.06112
G1 X221.7 Y129.289 E47.83458
G1 X221.695 Y130.473 E47.87396
G1 X221.7 Y131.134 E47.89595
G1 X221.699 Y153.74 E48.64783
G1 X221.69 Y154.467 E48.67201
G1 X221.639 Y155.369 E48.70206
G1 X221.508 Y156.263 E48.73211
G1 X221.299 Y157.141 E48.76213
G1 X221.013 Y157.998 E48.79218
G1 X220.652 Y158.826 E48.82222
G1 X220.22 Y159.618 E48.85223
G1 X219.719 Y160.37 E48.88228
G1 X219.153 Y161.074 E48.91233
G1 X218.528 Y161.725 E48.94234
G1 X217.847 Y162.319 E48.9724
G1 X217.116 Y162.85 E49.00245
G1 X216.342 Y163.314 E49.03246
G1 X215.529 Y163.708 E49.06251
G1 X214.685 Y164.028 E49.09253
G1 X213.815 Y164.273 E49.1226
G1 X212.928 Y164.439 E49.15261
G1 X211.777 Y164.537 E49.19103
G1 X211.456 Y164.546 E49.20171
G1 X211.17 Y164.55 E49.21122
G1 X24.075 Y164.549 E55.43403
G1 X23.377 Y164.54 E55.45725
G1 X22.476 Y164.489 E55.48726
G1 X21.582 Y164.357 E55.51732
G1 X20.704 Y164.148 E55.54734
G1 X19.847 Y163.861 E55.5774
G1 X19.02 Y163.5 E55.60741
G1 X18.227 Y163.067 E55.63746
G1 X17.476 Y162.566 E55.66749
G1 X16.772 Y162 E55.69753
G1 X16.121 Y161.374 E55.72757
G1 X15.528 Y160.693 E55.7576
G1 X14.998 Y159.962 E55.78764
G1 X14.534 Y159.187 E55.81768
G1 X14.14 Y158.374 E55.84773
G1 X13.82 Y157.53 E55.87775
G1 X13.576 Y156.66 E55.9078
G1 X13.41 Y155.772 E55.93785
G1 X13.313 Y154.617 E55.9764
G1 X13.304 Y154.284 E55.98748
G1 X13.3 Y154.008 E55.99666
G1 X13.3 Y130.811 E56.76819
G1 X13.305 Y129.627 E56.80758
G1 X13.3 Y128.966 E56.82956
G1 X13.3 Y105.711 E57.60303
G1 X13.305 Y104.527 E57.64241
G1 X13.3 Y103.866 E57.66439
G1 X13.301 Y81.186 E58.41873
G1 X13.31 Y80.521 E58.44085
G1 X13.362 Y79.619 E58.4709
G1 X13.494 Y78.726 E58.50093
G1 X13.704 Y77.848 E58.53095
G1 X13.991 Y76.991 E58.56101
G1 X14.353 Y76.164 E58.59104
G1 X14.786 Y75.372 E58.62106
G1 X15.288 Y74.621 E58.6511
G1 X15.855 Y73.917 E58.68117
G1 X16.481 Y73.267 E58.71118
G1 X17.162 Y72.674 E58.74122
G1 X17.894 Y72.144 E58.77128
G1 X18.669 Y71.681 E58.8013
G1 X19.482 Y71.288 E58.83134
G1 X20.327 Y70.968 E58.86139
G1 F2700 E53.86139
;MESH:Veneer4.stl(1)
G0 F6000 X24.31 Y79.985
G0 X24.31 Y81.46
G0 X24.282 Y103.368
G0 X210.9 Y103.55
;TYPE:WALL-INNER
G1 F2700 E58.86139
G1 F1200 X24.1 Y103.55 E65.07438
G1 X24.1 Y81.25 E65.81608
G1 X210.9 Y81.25 E72.02908
G1 X210.9 Y103.55 E72.77078
G0 F6000 X211.3 Y103.95
;TYPE:WALL-OUTER
G1 F1200 X23.7 Y103.95 E79.01038
G1 X23.7 Y80.85 E79.77869
G1 X211.3 Y80.85 E86.01829
G1 X211.3 Y103.95 E86.7866
G0 F6000 X211.03 Y103.68
G0 X210.79 Y103.16
G0 X210.51 Y103.16
;TYPE:SKIN
G1 F1200 X24.49 Y103.16 E92.97365
G1 X24.49 Y81.64 E93.68941
G1 X210.51 Y81.64 E99.87646
G1 X210.51 Y103.16 E100.59222
G0 F6000 X210.79 Y103.16
G0 X210.79 Y81.938
G0 X210.349 Y81.938
G1 F1200 X210.21 Y81.8 E100.59873
G0 F6000 X209.645 Y81.8
G1 F1200 X210.349 Y82.504 E100.63184
G0 F6000 X210.349 Y83.07
G1 F1200 X209.079 Y81.8 E100.69158
G0 F6000 X208.513 Y81.8
G1 F1200 X210.349 Y83.635 E100.77792
G0 F6000 X210.349 Y84.201
G1 F1200 X207.948 Y81.8 E100.89085
G0 F6000 X207.382 Y81.8
G1 F1200 X210.349 Y84.767 E101.03041
G0 F6000 X210.349 Y85.332
G1 F1200 X206.816 Y81.8 E101.19657
G0 F6000 X206.251 Y81.8
G1 F1200 X210.349 Y85.898 E101.38933
G0 F6000 X210.349 Y86.464
G1 F1200 X205.685 Y81.8 E101.60871
G0 F6000 X205.119 Y81.8
G1 F1200 X210.349 Y87.029 E101.85469
G0 F6000 X210.349 Y87.595
G1 F1200 X204.553 Y81.8 E102.12729
G0 F6000 X203.988 Y81.8
G1 F1200 X210.349 Y88.161 E102.42649
G0 F6000 X210.349 Y88.727
G1 F1200 X203.422 Y81.8 E102.75232
G0 F6000 X202.856 Y81.8
G1 F1200 X210.349 Y89.292 E103.10474
G0 F6000 X210.349 Y89.858
G1 F1200 X202.291 Y81.8 E103.48376
G0 F6000 X201.725 Y81.8
G1 F1200 X210.349 Y90.424 E103.88941
G0 F6000 X210.349 Y90.989
G1 F1200 X201.159 Y81.8 E104.32166
G0 F6000 X200.594 Y81.8
G1 F1200 X210.349 Y91.555 E104.7805
G0 F6000 X210.349 Y92.121
G1 F1200 X200.028 Y81.8 E105.26597
G0 F6000 X199.462 Y81.8
G1 F1200 X210.349 Y92.686 E105.77804
G0 F6000 X210.349 Y93.252
G1 F1200 X198.897 Y81.8 E106.3167
G0 F6000 X198.331 Y81.8
G1 F1200 X210.349 Y93.818 E106.88199
G0 F6000 X210.349 Y94.383
G1 F1200 X197.765 Y81.8 E107.47388
G0 F6000 X197.2 Y81.8
G1 F1200 X210.349 Y94.949 E108.09237
G0 F6000 X210.349 Y95.515
G1 F1200 X196.634 Y81.8 E108.73748
G0 F6000 X196.068 Y81.8
G1 F1200 X210.349 Y96.08 E109.40919
G0 F6000 X210.349 Y96.646
G1 F1200 X195.503 Y81.8 E110.1075
G0 F6000 X194.937 Y81.8
G1 F1200 X210.349 Y97.212 E110.83244
G0 F6000 X210.349 Y97.778
G1 F1200 X194.371 Y81.8 E111.58399
G0 F6000 X193.805 Y81.8
G1 F1200 X210.349 Y98.343 E112.36215
G0 F6000 X210.349 Y98.909
G1 F1200 X193.24 Y81.8 E113.1669
G0 F6000 X192.674 Y81.8
G1 F1200 X210.349 Y99.475 E113.99828
G0 F6000 X210.349 Y100.04
G1 F1200 X192.108 Y81.8 E114.85626
G0 F6000 X191.543 Y81.8
G1 F1200 X210.349 Y100.606 E115.74084
G0 F6000 X210.349 Y101.172
G1 F1200 X190.977 Y81.8 E116.65204
G0 F6000 X190.411 Y81.8
G1 F1200 X210.349 Y101.737 E117.58983
G0 F6000 X210.349 Y102.303
G1 F1200 X189.846 Y81.8 E118.55423
G0 F6000 X189.28 Y81.8
G1 F1200 X210.349 Y102.869 E119.54525
G0 F6000 X209.913 Y102.999
G1 F1200 X188.714 Y81.8 E120.54239
G0 F6000 X188.149 Y81.8
G1 F1200 X209.348 Y102.999 E121.53953
G0 F6000 X208.782 Y102.999
G1 F1200 X187.583 Y81.8 E122.53666
G0 F6000 X187.017 Y81.8
G1 F1200 X208.216 Y102.999 E123.5338
G0 F6000 X207.651 Y102.999
G1 F1200 X186.452 Y81.8 E124.53093
G0 F6000 X185.886 Y81.8
G1 F1200 X207.085 Y102.999 E125.52807
G0 F6000 X206.519 Y102.999
G1 F1200 X185.32 Y81.8 E126.52521
G0 F6000 X184.754 Y81.8
G1 F1200 X205.954 Y102.999 E127.52237
G0 F6000 X205.388 Y102.999
G1 F1200 X184.189 Y81.8 E128.5195
G0 F6000 X183.623 Y81.8
G1 F1200 X204.822 Y102.999 E129.51664
G0 F6000 X204.256 Y102.999
G1 F1200 X183.057 Y81.8 E130.51377
G0 F6000 X182.492 Y81.8
G1 F1200 X203.691 Y102.999 E131.51091
G0 F6000 X203.125 Y102.999
G1 F1200 X181.926 Y81.8 E132.50805
G0 F6000 X181.36 Y81.8
G1 F1200 X202.559 Y102.999 E133.50518
G0 F6000 X201.994 Y102.999
G1 F1200 X180.795 Y81.8 E134.50232
G0 F6000 X180.229 Y81.8
G1 F1200 X201.428 Y102.999 E135.49945
G0 F6000 X200.862 Y102.999
G1 F1200 X179.663 Y81.8 E136.49659
G0 F6000 X179.098 Y81.8
G1 F1200 X200.297 Y102.999 E137.49372
G0 F6000 X199.731 Y102.999
G1 F1200 X178.532 Y81.8 E138.49086
G0 F6000 X177.966 Y81.8
G1 F1200 X199.165 Y102.999 E139.488
G0 F6000 X198.6 Y102.999
G1 F1200 X177.401 Y81.8 E140.48513
G0 F6000 X176.835 Y81.8
G1 F1200 X198.034 Y102.999 E141.48227
G0 F6000 X197.468 Y102.999
G1 F1200 X176.269 Y81.8 E142.4794
G0 F6000 X175.704 Y81.8
G1 F1200 X196.903 Y102.999 E143.47654
G0 F6000 X196.337 Y102.999
G1 F1200 X175.138 Y81.8 E144.47368
G0 F6000 X174.572 Y81.8
G1 F1200 X195.771 Y102.999 E145.47081
G0 F6000 X195.206 Y102.999
G1 F1200 X174.006 Y81.8 E146.46797
G0 F6000 X173.441 Y81.8
G1 F1200 X194.64 Y102.999 E147.46511
G0 F6000 X194.074 Y102.999
G1 F1200 X172.875 Y81.8 E148.46224
G0 F6000 X172.309 Y81.8
G1 F1200 X193.508 Y102.999 E149.45938
G0 F6000 X192.943 Y102.999
G1 F1200 X171.744 Y81.8 E150.45652
G0 F6000 X171.178 Y81.8
G1 F1200 X192.377 Y102.999 E151.45365
G0 F6000 X191.811 Y102.999
G1 F1200 X170.612 Y81.8 E152.45079
G0 F6000 X170.047 Y81.8
G1 F1200 X191.246 Y102.999 E153.44792
G0 F6000 X190.68 Y102.999
G1 F1200 X169.481 Y81.8 E154.44506
G0 F6000 X168.915 Y81.8
G1 F1200 X190.114 Y102.999 E155.4422
G0 F6000 X189.549 Y102.999
G1 F1200 X168.35 Y81.8 E156.43933
G0 F6000 X167.784 Y81.8
G1 F1200 X188.983 Y102.999 E157.43647
G0 F6000 X188.417 Y102.999
G1 F1200 X167.218 Y81.8 E158.4336
G0 F6000 X166.653 Y81.8
G1 F1200 X187.852 Y102.999 E159.43074
G0 F6000 X187.286 Y102.999
G1 F1200 X166.087 Y81.8 E160.42788
G0 F6000 X165.521 Y81.8
G1 F1200 X186.72 Y102.999 E161.42501
G0 F6000 X186.155 Y102.999
G1 F1200 X164.955 Y81.8 E162.42217
G0 F6000 X164.39 Y81.8
G1 F1200 X185.589 Y102.999 E163.41931
G0 F6000 X185.023 Y102.999
G1 F1200 X163.824 Y81.8 E164.41644
G0 F6000 X163.258 Y81.8
G1 F1200 X184.457 Y102.999 E165.41358
G0 F6000 X183.892 Y102.999
G1 F1200 X162.693 Y81.8 E166.41071
G0 F6000 X162.127 Y81.8
G1 F1200 X183.326 Y102.999 E167.40785
G0 F6000 X182.76 Y102.999
G1 F1200 X161.561 Y81.8 E168.40499
G0 F6000 X160.996 Y81.8
G1 F1200 X182.195 Y102.999 E169.40212
G0 F6000 X181.629 Y102.999
G1 F1200 X160.43 Y81.8 E170.39926
G0 F6000 X159.864 Y81.8
G1 F1200 X181.063 Y102.999 E171.39639
G0 F6000 X180.498 Y102.999
G1 F1200 X159.299 Y81.8 E172.39353
G0 F6000 X158.733 Y81.8
G1 F1200 X179.932 Y102.999 E173.39067
G0 F6000 X179.366 Y102.999
G1 F1200 X158.167 Y81.8 E174.3878
