;FLAVOR:Marlin
;TIME:2665
;Filament used: 2.48073m
;Layer height: 0.28
;MINX:60.349
;MINY:77.234
;MINZ:0.28
;MAXX:178.449
;MAXY:140.626
;MAXZ:9.52
;Generated with Cura_SteamEngine 4.10.0
M140 S50
M105
M190 S50
M104 S200
M105
M109 S200
M82 ;absolute extrusion mode
; Ender 3 Custom Start G-code
G92 E0 ; Reset Extruder
G28 ; Home all axes
G1 Z2.0 F3000 ; Move Z Axis up little to prevent scratching of Heat Bed
G1 X0.1 Y20 Z0.3 F5000.0 ; Move to start position
G1 X0.1 Y200.0 Z0.3 F1500.0 E15 ; Draw the first line
G1 X0.4 Y200.0 Z0.3 F5000.0 ; Move to side a little
G1 X0.4 Y20 Z0.3 F1500.0 E30 ; Draw the second line
G92 E0 ; Reset Extruder
G1 Z2.0 F3000 ; Move Z Axis up little to prevent scratching of Heat Bed
G1 X5 Y20 Z0.3 F5000.0 ; Move over to prevent blob squish
G92 E0
G92 E0
G1 F2700 E-5
;LAYER_COUNT:34
;LAYER:0
M107
G0 F6000 X63.371 Y86.618 Z0.28
;TYPE:SKIRT
G1 F2700 E0
G1 F1200 X64.019 Y86.167 E0.03676
G1 X64.71 Y85.783 E0.07357
G1 X65.435 Y85.471 E0.11033
G1 X66.188 Y85.234 E0.14708
G1 X66.962 Y85.075 E0.18388
G1 X67.747 Y84.994 E0.22062
G1 X68.149 Y84.984 E0.23935
G1 X152.852 Y84.984 E4.18347
G1 X152.889 Y84.245 E4.21793
G1 X153.008 Y83.465 E4.25467
G1 X153.206 Y82.7 E4.29146
G1 X153.48 Y81.96 E4.32821
G1 X153.828 Y81.251 E4.36498
G1 X154.246 Y80.58 E4.4018
G1 X154.729 Y79.956 E4.43854
G1 X155.272 Y79.383 E4.4753
G1 X155.871 Y78.868 E4.51208
G1 X156.519 Y78.417 E4.54884
G1 X157.21 Y78.033 E4.58565
G1 X157.935 Y77.721 E4.62241
G1 X158.688 Y77.484 E4.65916
G1 X159.462 Y77.325 E4.69596
G1 X160.247 Y77.244 E4.73271
G1 X160.649 Y77.234 E4.75143
G1 X170.649 Y77.234 E5.21707
G1 X171.438 Y77.274 E5.25386
G1 X172.218 Y77.393 E5.2906
G1 X172.983 Y77.591 E5.32739
G1 X173.723 Y77.865 E5.36414
G1 X174.432 Y78.213 E5.40091
G1 X175.103 Y78.631 E5.43773
G1 X175.727 Y79.114 E5.47447
G1 X176.3 Y79.657 E5.51123
G1 X176.815 Y80.256 E5.54801
G1 X177.266 Y80.904 E5.58477
G1 X177.65 Y81.595 E5.62158
G1 X177.962 Y82.32 E5.65834
G1 X178.199 Y83.073 E5.69509
G1 X178.358 Y83.847 E5.73189
G1 X178.439 Y84.632 E5.76863
G1 X178.449 Y85.034 E5.78736
G1 X178.449 Y105.034 E6.71864
G1 X178.409 Y105.823 E6.75543
G1 X178.29 Y106.603 E6.79217
G1 X178.092 Y107.368 E6.82896
G1 X177.818 Y108.108 E6.86571
G1 X177.47 Y108.817 E6.90248
G1 X177.052 Y109.488 E6.9393
G1 X176.569 Y110.112 E6.97604
G1 X176.026 Y110.685 E7.0128
G1 X175.427 Y111.2 E7.04958
G1 X174.779 Y111.651 E7.08634
G1 X174.088 Y112.035 E7.12315
G1 X173.363 Y112.347 E7.15991
G1 X172.61 Y112.584 E7.19667
G1 X171.836 Y112.743 E7.23346
G1 X171.051 Y112.824 E7.27021
G1 X170.649 Y112.834 E7.28893
G1 X160.649 Y112.834 E7.75457
G1 X159.86 Y112.794 E7.79136
G1 X159.08 Y112.675 E7.8281
G1 X158.315 Y112.477 E7.86489
G1 X157.575 Y112.203 E7.90164
G1 X156.866 Y111.855 E7.93841
G1 X156.195 Y111.437 E7.97523
G1 X155.571 Y110.954 E8.01197
G1 X154.998 Y110.411 E8.04873
G1 X154.483 Y109.812 E8.08551
G1 X154.032 Y109.164 E8.12227
G1 X153.648 Y108.473 E8.15908
G1 X153.336 Y107.748 E8.19584
G1 X153.099 Y106.995 E8.23259
G1 X152.94 Y106.221 E8.26939
G1 X152.859 Y105.436 E8.30613
G1 X152.85 Y105.084 E8.32253
G1 X123.997 Y105.084 E9.66605
G1 X126.379 Y106.679 E9.79953
G1 X133.77 Y110.34 E10.18359
G1 X141.563 Y113.001 E10.56704
G1 X149.645 Y114.631 E10.95095
G1 X158.379 Y115.228 E11.35859
G1 X159.163 Y115.322 E11.39536
G1 X159.934 Y115.494 E11.43214
G1 X160.683 Y115.744 E11.46891
G1 X161.403 Y116.068 E11.50567
G1 X162.087 Y116.463 E11.54245
G1 X162.727 Y116.925 E11.57921
G1 X163.318 Y117.45 E11.61602
G1 X163.852 Y118.032 E11.6528
G1 X164.324 Y118.664 E11.68953
G1 X164.73 Y119.341 E11.72629
G1 X165.066 Y120.056 E11.76307
G1 X165.328 Y120.801 E11.79984
G1 X165.513 Y121.569 E11.83663
G1 X165.619 Y122.352 E11.87342
G1 X165.647 Y123.01 E11.90409
G1 X165.647 Y132.826 E12.36116
G1 X165.607 Y133.615 E12.39795
G1 X165.488 Y134.395 E12.43469
G1 X165.29 Y135.16 E12.47148
G1 X165.016 Y135.9 E12.50823
G1 X164.668 Y136.609 E12.545
G1 X164.25 Y137.28 E12.58182
G1 X163.767 Y137.904 E12.61856
G1 X163.224 Y138.477 E12.65532
G1 X162.625 Y138.992 E12.6921
G1 X161.977 Y139.443 E12.72886
G1 X161.286 Y139.827 E12.76567
G1 X160.561 Y140.139 E12.80243
G1 X159.808 Y140.376 E12.83918
G1 X159.034 Y140.535 E12.87598
G1 X158.249 Y140.616 E12.91272
G1 X157.847 Y140.626 E12.93145
G1 X77.152 Y140.625 E16.68895
G1 X76.363 Y140.585 E16.72573
G1 X75.583 Y140.465 E16.76248
G1 X74.818 Y140.268 E16.79926
G1 X74.078 Y139.994 E16.83601
G1 X73.369 Y139.646 E16.87278
G1 X72.698 Y139.228 E16.9096
G1 X72.074 Y138.745 E16.94634
G1 X71.501 Y138.201 E16.98313
G1 X70.986 Y137.603 E17.01988
G1 X70.535 Y136.955 E17.05664
G1 X70.151 Y136.264 E17.09345
G1 X69.839 Y135.539 E17.1302
G1 X69.602 Y134.786 E17.16696
G1 X69.443 Y134.012 E17.20375
G1 X69.362 Y133.227 E17.2405
G1 X69.362 Y132.437 E17.27729
G1 X69.441 Y131.651 E17.31407
G1 X69.599 Y130.878 E17.35081
G1 X69.835 Y130.124 E17.3876
G1 X70.145 Y129.398 E17.42436
G1 X70.528 Y128.707 E17.46114
G1 X70.978 Y128.058 E17.49792
G1 X71.637 Y127.31 E17.54434
G1 X93.863 Y105.084 E19.00796
G1 X68.149 Y105.084 E20.20531
G1 X67.36 Y105.044 E20.2421
G1 X66.58 Y104.925 E20.27884
G1 X65.815 Y104.727 E20.31563
G1 X65.075 Y104.453 E20.35237
G1 X64.366 Y104.105 E20.38915
G1 X63.695 Y103.687 E20.42596
G1 X63.071 Y103.204 E20.46271
G1 X62.498 Y102.661 E20.49946
G1 X61.983 Y102.062 E20.53625
G1 X61.532 Y101.414 E20.57301
G1 X61.148 Y100.723 E20.60982
G1 X60.836 Y99.998 E20.64657
G1 X60.599 Y99.245 E20.68333
G1 X60.44 Y98.471 E20.72012
G1 X60.359 Y97.686 E20.75687
G1 X60.349 Y97.284 E20.7756
G1 X60.349 Y92.784 E20.98514
G1 X60.389 Y91.995 E21.02192
G1 X60.508 Y91.215 E21.05866
G1 X60.706 Y90.45 E21.09546
G1 X60.98 Y89.71 E21.1322
G1 X61.328 Y89.001 E21.16898
G1 X61.746 Y88.33 E21.20579
G1 X62.229 Y87.706 E21.24253
G1 X62.772 Y87.133 E21.27929
G1 X63.371 Y86.618 E21.31607
G0 F6000 X63.76 Y86.826
G1 F1200 X64.402 Y86.403 E21.35187
G1 X65.085 Y86.048 E21.38772
G1 X65.8 Y85.767 E21.42349
G1 X66.542 Y85.561 E21.45935
G1 X67.3 Y85.433 E21.49514
G1 X68.149 Y85.384 E21.53474
G1 X153.249 Y85.384 E25.49735
G1 X153.249 Y85.034 E25.51365
G1 X153.289 Y84.266 E25.54946
G1 X153.408 Y83.506 E25.58528
G1 X153.606 Y82.763 E25.62108
G1 X153.88 Y82.044 E25.65691
G1 X154.227 Y81.358 E25.69271
G1 X154.643 Y80.711 E25.72853
G1 X155.124 Y80.111 E25.76434
G1 X155.665 Y79.564 E25.80016
G1 X156.26 Y79.076 E25.83599
G1 X156.902 Y78.653 E25.87179
G1 X157.585 Y78.298 E25.90763
G1 X158.3 Y78.017 E25.94341
G1 X159.042 Y77.811 E25.97926
G1 X159.8 Y77.683 E26.01506
G1 X160.649 Y77.634 E26.05466
G1 X170.649 Y77.634 E26.5203
G1 X171.417 Y77.674 E26.55611
G1 X172.177 Y77.793 E26.59193
G1 X172.92 Y77.991 E26.62773
G1 X173.639 Y78.265 E26.66356
G1 X174.325 Y78.612 E26.69936
G1 X174.972 Y79.028 E26.73518
G1 X175.572 Y79.509 E26.77098
G1 X176.119 Y80.05 E26.80681
G1 X176.607 Y80.645 E26.84264
G1 X177.03 Y81.287 E26.87844
G1 X177.385 Y81.97 E26.91428
G1 X177.666 Y82.685 E26.95006
G1 X177.872 Y83.427 E26.98591
G1 X178 Y84.185 E27.02171
G1 X178.049 Y85.034 E27.06131
G1 X178.049 Y105.034 E27.99259
G1 X178.009 Y105.802 E28.0284
G1 X177.89 Y106.562 E28.06422
G1 X177.692 Y107.305 E28.10002
G1 X177.418 Y108.024 E28.13585
G1 X177.071 Y108.71 E28.17165
G1 X176.655 Y109.357 E28.20747
G1 X176.174 Y109.957 E28.24328
G1 X175.633 Y110.504 E28.2791
G1 X175.038 Y110.992 E28.31493
G1 X174.396 Y111.415 E28.35073
G1 X173.713 Y111.77 E28.38657
G1 X172.998 Y112.051 E28.42235
G1 X172.256 Y112.257 E28.4582
G1 X171.498 Y112.385 E28.494
G1 X170.649 Y112.434 E28.5336
G1 X160.649 Y112.434 E28.99924
G1 X159.881 Y112.394 E29.03505
G1 X159.121 Y112.275 E29.07087
G1 X158.378 Y112.077 E29.10667
G1 X157.659 Y111.803 E29.1425
G1 X156.973 Y111.456 E29.1783
G1 X156.326 Y111.04 E29.21412
G1 X155.726 Y110.559 E29.24992
G1 X155.179 Y110.018 E29.28575
G1 X154.691 Y109.423 E29.32158
G1 X154.268 Y108.781 E29.35738
G1 X153.913 Y108.098 E29.39322
G1 X153.632 Y107.383 E29.429
G1 X153.426 Y106.641 E29.46485
G1 X153.298 Y105.883 E29.50065
G1 X153.249 Y105.034 E29.54025
G1 X153.249 Y104.684 E29.55654
G1 X122.68 Y104.684 E30.97996
G1 X126.177 Y107.027 E31.17597
G1 X133.607 Y110.706 E31.56203
G1 X141.462 Y113.389 E31.94854
G1 X149.592 Y115.028 E32.33472
G1 X158.352 Y115.627 E32.74358
G1 X159.116 Y115.72 E32.77942
G1 X159.865 Y115.891 E32.81519
G1 X160.594 Y116.139 E32.85105
G1 X161.292 Y116.461 E32.88684
G1 X161.953 Y116.854 E32.92265
G1 X162.57 Y117.313 E32.95846
G1 X163.136 Y117.834 E32.99428
G1 X163.644 Y118.411 E33.03007
G1 X164.091 Y119.038 E33.06593
G1 X164.469 Y119.707 E33.10171
G1 X164.776 Y120.413 E33.13756
G1 X165.008 Y121.146 E33.17336
G1 X165.163 Y121.899 E33.20916
G1 X165.247 Y123.01 E33.26104
G1 X165.247 Y132.826 E33.71811
G1 X165.207 Y133.594 E33.75392
G1 X165.088 Y134.354 E33.78974
G1 X164.89 Y135.097 E33.82554
G1 X164.616 Y135.816 E33.86137
G1 X164.269 Y136.502 E33.89717
G1 X163.853 Y137.149 E33.93299
G1 X163.372 Y137.749 E33.9688
G1 X162.831 Y138.296 E34.00462
G1 X162.236 Y138.784 E34.04045
G1 X161.594 Y139.207 E34.07625
G1 X160.911 Y139.562 E34.11209
G1 X160.196 Y139.843 E34.14787
G1 X159.454 Y140.049 E34.18372
G1 X158.696 Y140.177 E34.21952
G1 X157.847 Y140.226 E34.25912
G1 X77.152 Y140.225 E38.01662
G1 X76.384 Y140.185 E38.05242
G1 X75.624 Y140.066 E38.08824
G1 X74.881 Y139.868 E38.12405
G1 X74.162 Y139.594 E38.15988
G1 X73.475 Y139.247 E38.19572
G1 X72.829 Y138.831 E38.23149
G1 X72.229 Y138.35 E38.2673
G1 X71.682 Y137.809 E38.30313
G1 X71.194 Y137.214 E38.33896
G1 X70.771 Y136.572 E38.37476
G1 X70.416 Y135.889 E38.4106
G1 X70.135 Y135.173 E38.44642
G1 X69.929 Y134.432 E38.48223
G1 X69.801 Y133.674 E38.51802
G1 X69.752 Y132.906 E38.55386
G1 X69.784 Y132.138 E38.58965
G1 X69.895 Y131.377 E38.62546
G1 X70.085 Y130.631 E38.66131
G1 X70.351 Y129.91 E38.69709
G1 X70.69 Y129.219 E38.73293
G1 X71.099 Y128.568 E38.76873
G1 X71.574 Y127.963 E38.80455
G1 X71.919 Y127.592 E38.82814
G1 X94.827 Y104.684 E40.33667
G1 X68.149 Y104.684 E41.57891
G1 X67.381 Y104.644 E41.61472
G1 X66.621 Y104.525 E41.65054
G1 X65.878 Y104.327 E41.68634
G1 X65.159 Y104.053 E41.72217
G1 X64.473 Y103.706 E41.75797
G1 X63.826 Y103.29 E41.79378
G1 X63.226 Y102.809 E41.82959
G1 X62.679 Y102.268 E41.86542
G1 X62.191 Y101.673 E41.90125
G1 X61.768 Y101.031 E41.93705
G1 X61.413 Y100.348 E41.97289
G1 X61.132 Y99.633 E42.00866
G1 X60.926 Y98.891 E42.04452
G1 X60.798 Y98.133 E42.08032
G1 X60.749 Y97.284 E42.11991
G1 X60.749 Y92.784 E42.32945
G1 X60.789 Y92.016 E42.36526
G1 X60.908 Y91.256 E42.40108
G1 X61.106 Y90.513 E42.43689
G1 X61.38 Y89.794 E42.47272
G1 X61.727 Y89.108 E42.50851
G1 X62.143 Y88.461 E42.54433
G1 X62.624 Y87.861 E42.58014
G1 X63.165 Y87.314 E42.61596
G1 X63.76 Y86.826 E42.65179
G0 F6000 X64.147 Y87.041
G1 F1200 X64.783 Y86.646 E42.68666
G1 X65.457 Y86.322 E42.72148
G1 X66.162 Y86.072 E42.75631
G1 X66.89 Y85.898 E42.79116
G1 X67.632 Y85.803 E42.826
G1 X68.149 Y85.784 E42.85009
G1 X153.649 Y85.784 E46.83132
G1 X153.649 Y85.034 E46.86625
G1 X153.689 Y84.287 E46.90108
G1 X153.808 Y83.549 E46.93589
G1 X154.006 Y82.827 E46.97075
G1 X154.279 Y82.131 E47.00556
G1 X154.626 Y81.468 E47.04041
G1 X155.041 Y80.845 E47.07526
G1 X155.52 Y80.271 E47.11007
G1 X156.057 Y79.75 E47.14491
G1 X156.647 Y79.291 E47.17972
G1 X157.283 Y78.896 E47.21458
G1 X157.957 Y78.572 E47.24941
G1 X158.662 Y78.322 E47.28424
G1 X159.39 Y78.148 E47.31909
G1 X160.132 Y78.053 E47.35392
G1 X160.649 Y78.034 E47.37801
G1 X170.649 Y78.034 E47.84365
G1 X171.396 Y78.074 E47.87849
G1 X172.134 Y78.193 E47.9133
G1 X172.856 Y78.391 E47.94816
G1 X173.552 Y78.664 E47.98297
G1 X174.215 Y79.011 E48.01781
G1 X174.838 Y79.426 E48.05267
G1 X175.412 Y79.905 E48.08748
G1 X175.933 Y80.442 E48.12232
G1 X176.392 Y81.032 E48.15713
G1 X176.787 Y81.668 E48.19199
G1 X177.111 Y82.342 E48.22681
G1 X177.361 Y83.047 E48.26164
G1 X177.535 Y83.775 E48.2965
G1 X177.63 Y84.517 E48.33133
G1 X177.649 Y85.034 E48.35542
G1 X177.649 Y105.034 E49.2867
G1 X177.609 Y105.781 E49.32154
G1 X177.49 Y106.519 E49.35634
G1 X177.292 Y107.241 E49.39121
G1 X177.019 Y107.937 E49.42602
G1 X176.672 Y108.6 E49.46086
G1 X176.257 Y109.223 E49.49572
G1 X175.778 Y109.797 E49.53053
G1 X175.241 Y110.318 E49.56537
G1 X174.651 Y110.777 E49.60018
G1 X174.015 Y111.172 E49.63504
G1 X173.341 Y111.496 E49.66986
G1 X172.636 Y111.746 E49.70469
G1 X171.908 Y111.92 E49.73955
G1 X171.166 Y112.015 E49.77438
G1 X170.649 Y112.034 E49.79847
G1 X160.649 Y112.034 E50.26411
G1 X159.902 Y111.994 E50.29894
G1 X159.164 Y111.875 E50.33375
G1 X158.442 Y111.677 E50.36861
G1 X157.746 Y111.404 E50.40343
G1 X157.083 Y111.057 E50.43827
G1 X156.46 Y110.642 E50.47313
G1 X155.886 Y110.163 E50.50794
G1 X155.365 Y109.626 E50.54278
G1 X154.906 Y109.036 E50.57759
G1 X154.511 Y108.4 E50.61245
G1 X154.187 Y107.726 E50.64727
G1 X153.937 Y107.021 E50.6821
G1 X153.763 Y106.293 E50.71695
G1 X153.668 Y105.551 E50.75179
G1 X153.649 Y105.034 E50.77588
G1 X153.649 Y104.284 E50.8108
G1 X121.364 Y104.284 E52.31412
G1 X125.973 Y107.371 E52.57243
G1 X133.46 Y111.079 E52.96147
G1 X141.354 Y113.775 E53.34989
G1 X149.539 Y115.425 E53.73869
G1 X158.325 Y116.026 E54.14876
G1 X159.067 Y116.117 E54.18357
G1 X159.796 Y116.287 E54.21842
G1 X160.502 Y116.533 E54.25323
G1 X161.178 Y116.853 E54.28806
G1 X161.816 Y117.244 E54.3229
G1 X162.409 Y117.701 E54.35776
G1 X162.949 Y118.218 E54.39258
G1 X163.432 Y118.79 E54.42744
G1 X163.85 Y119.41 E54.46225
G1 X164.2 Y120.071 E54.49708
G1 X164.477 Y120.765 E54.53188
G1 X164.679 Y121.486 E54.56674
G1 X164.803 Y122.224 E54.60159
G1 X164.847 Y123.01 E54.63824
G1 X164.847 Y132.826 E55.09532
G1 X164.807 Y133.573 E55.13015
G1 X164.688 Y134.311 E55.16496
G1 X164.49 Y135.033 E55.19982
G1 X164.217 Y135.729 E55.23463
G1 X163.87 Y136.392 E55.26948
G1 X163.455 Y137.015 E55.30433
G1 X162.976 Y137.589 E55.33915
G1 X162.439 Y138.11 E55.37399
G1 X161.849 Y138.569 E55.40879
G1 X161.213 Y138.964 E55.44365
G1 X160.539 Y139.288 E55.47848
G1 X159.834 Y139.538 E55.51331
G1 X159.106 Y139.712 E55.54816
G1 X158.364 Y139.807 E55.58299
G1 X157.847 Y139.826 E55.60708
G1 X77.152 Y139.825 E59.36458
G1 X76.405 Y139.785 E59.39941
G1 X75.666 Y139.666 E59.43427
G1 X74.945 Y139.468 E59.46908
G1 X74.249 Y139.195 E59.5039
G1 X73.586 Y138.848 E59.53874
G1 X72.963 Y138.433 E59.5736
G1 X72.389 Y137.954 E59.60841
G1 X71.868 Y137.417 E59.64325
G1 X71.409 Y136.827 E59.67806
G1 X71.014 Y136.191 E59.71292
G1 X70.69 Y135.517 E59.74774
G1 X70.44 Y134.812 E59.78257
G1 X70.266 Y134.084 E59.81742
G1 X70.171 Y133.342 E59.85226
G1 X70.156 Y132.594 E59.88709
G1 X70.22 Y131.849 E59.92191
G1 X70.364 Y131.115 E59.95674
G1 X70.585 Y130.4 E59.99159
G1 X70.882 Y129.713 E60.02644
G1 X71.249 Y129.062 E60.06124
G1 X71.685 Y128.454 E60.09608
G1 X72.202 Y127.875 E60.13222
G1 X95.793 Y104.284 E61.68573
G1 X68.149 Y104.284 E62.97295
G1 X67.402 Y104.244 E63.00778
G1 X66.664 Y104.125 E63.04259
G1 X65.942 Y103.927 E63.07745
G1 X65.246 Y103.654 E63.11226
G1 X64.583 Y103.307 E63.14711
G1 X63.96 Y102.892 E63.18197
G1 X63.386 Y102.413 E63.21678
G1 X62.865 Y101.876 E63.25162
G1 X62.406 Y101.286 E63.28642
G1 X62.011 Y100.65 E63.32129
G1 X61.687 Y99.976 E63.35611
G1 X61.437 Y99.271 E63.39094
G1 X61.263 Y98.543 E63.42579
G1 X61.168 Y97.801 E63.46062
G1 X61.149 Y97.284 E63.48471
G1 X61.149 Y92.784 E63.69425
G1 X61.189 Y92.037 E63.72909
G1 X61.308 Y91.299 E63.76389
G1 X61.506 Y90.577 E63.79876
G1 X61.779 Y89.881 E63.83357
G1 X62.126 Y89.218 E63.86841
G1 X62.541 Y88.595 E63.90327
G1 X63.02 Y88.021 E63.93808
G1 X63.557 Y87.5 E63.97292
G1 X64.147 Y87.041 E64.00773
G0 F6000 X63.948 Y87.693
G1 F1200 X64.533 Y87.263 E64.04154
G1 X65.162 Y86.899 E64.07537
G1 X65.827 Y86.606 E64.10921
G1 X66.52 Y86.388 E64.14304
G1 X67.232 Y86.248 E64.17683
G1 X68.149 Y86.184 E64.21963
G1 X154.049 Y86.184 E68.2195
G1 X154.049 Y85.034 E68.27304
G1 X154.089 Y84.309 E68.30686
G1 X154.208 Y83.592 E68.3407
G1 X154.406 Y82.893 E68.37453
G1 X154.679 Y82.22 E68.40835
G1 X155.024 Y81.581 E68.44216
G1 X155.438 Y80.984 E68.47599
G1 X155.914 Y80.436 E68.50979
G1 X156.448 Y79.943 E68.54363
G1 X157.033 Y79.513 E68.57744
G1 X157.662 Y79.149 E68.61128
G1 X158.327 Y78.856 E68.64511
G1 X159.02 Y78.638 E68.67894
G1 X159.732 Y78.498 E68.71273
