;FLAVOR:Marlin
;TIME:26128
;Filament used: 23.5445m
;Layer height: 0.2
;MINX:24.541
;MINY:65.5
;MINZ:0.2
;MAXX:211
;MAXY:169.5
;MAXZ:30
;Generated with Cura_SteamEngine 4.10.0
M140 S50
M105
M190 S50
M104 S200
M105
M109 S200
M82 ;absolute extrusion mode
; Ender 3 Custom Start G-code
G92 E0 ; Reset Extruder
G28 ; Home all axes
G1 Z2.0 F3000 ; Move Z Axis up little to prevent scratching of Heat Bed
G1 X0.1 Y20 Z0.3 F5000.0 ; Move to start position
G1 X0.1 Y200.0 Z0.3 F1500.0 E15 ; Draw the first line
G1 X0.4 Y200.0 Z0.3 F5000.0 ; Move to side a little
G1 X0.4 Y20 Z0.3 F1500.0 E30 ; Draw the second line
G92 E0 ; Reset Extruder
G1 Z2.0 F3000 ; Move Z Axis up little to prevent scratching of Heat Bed
G1 X5 Y20 Z0.3 F5000.0 ; Move over to prevent blob squish
G92 E0
G92 E0
G1 F2700 E-5
;LAYER_COUNT:150
;LAYER:0
M107
G0 F6000 X49.119 Y73.044 Z0.2
;TYPE:SKIRT
G1 F2700 E0
G1 F1200 X49.908 Y72.537 E0.03119
G1 X50.799 Y72.069 E0.06467
G1 X51.733 Y71.632 E0.09896
G1 X51.921 Y71.546 E0.10584
G1 X58.355 Y68.682 E0.34008
G1 X58.945 Y68.429 E0.36143
G1 X59.822 Y68.097 E0.39262
G1 X60.775 Y67.828 E0.42556
G1 X61.797 Y67.589 E0.46046
G1 X62.014 Y67.541 E0.46786
G1 X68.153 Y66.236 E0.6766
G1 X68.872 Y66.094 E0.70098
G1 X69.799 Y65.952 E0.73217
G1 X70.734 Y65.889 E0.76334
G1 X71.349 Y65.891 E0.78379
G1 X72.301 Y65.921 E0.81547
G1 X73.291 Y65.965 E0.84843
G1 X75.797 Y66.006 E0.9318
G1 X78.32 Y65.976 E1.01572
G1 X79.718 Y65.918 E1.06225
G1 X80.696 Y65.891 E1.09479
G1 X81.634 Y65.905 E1.126
G1 X82.84 Y66.042 E1.16637
G1 X83.501 Y66.154 E1.18866
G1 X86.03 Y66.548 E1.27379
G1 X88.572 Y66.87 E1.35902
G1 X91.063 Y67.115 E1.44227
G1 X93.544 Y67.288 E1.52499
G1 X96.099 Y67.394 E1.61004
G1 X98.588 Y67.427 E1.69283
G1 X101.112 Y67.388 E1.77679
G1 X103.63 Y67.279 E1.86062
G1 X106.163 Y67.097 E1.94508
G1 X108.628 Y66.849 E2.02748
G1 X111.167 Y66.522 E2.11263
G1 X113.616 Y66.135 E2.19509
G1 X115.932 Y65.704 E2.27345
G1 X116.181 Y65.662 E2.28184
G1 X117.112 Y65.546 E2.31305
G1 X117.701 Y65.513 E2.33267
G1 X118.02 Y65.504 E2.34328
G1 X118.33 Y65.5 E2.3536
G1 X153.293 Y65.5 E3.51647
G1 X154.164 Y65.511 E3.54544
G1 X154.479 Y65.52 E3.55592
G1 X155.121 Y65.547 E3.57729
G1 X157.759 Y65.622 E3.66507
G1 X160.248 Y65.622 E3.74785
G1 X162.823 Y65.549 E3.83353
G1 X163.18 Y65.531 E3.84542
G1 X163.422 Y65.522 E3.85348
G1 X164.015 Y65.505 E3.87321
G1 X164.33 Y65.5 E3.88369
G1 X199.451 Y65.501 E5.05182
G1 X200.149 Y65.511 E5.07503
G1 X201.085 Y65.565 E5.10622
G1 X202.013 Y65.697 E5.13739
G1 X202.927 Y65.909 E5.1686
G1 X203.819 Y66.198 E5.19979
G1 X204.684 Y66.561 E5.23099
G1 X205.514 Y66.997 E5.26217
G1 X206.305 Y67.502 E5.29338
G1 X207.049 Y68.073 E5.32458
G1 X207.742 Y68.705 E5.35577
G1 X208.379 Y69.393 E5.38696
G1 X208.954 Y70.134 E5.41815
G1 X209.465 Y70.92 E5.44933
G1 X209.907 Y71.748 E5.48055
G1 X210.276 Y72.61 E5.51174
G1 X210.571 Y73.5 E5.54292
G1 X210.789 Y74.412 E5.57411
G1 X210.929 Y75.34 E5.60533
G1 X210.987 Y76.201 E5.63403
G1 X210.996 Y76.521 E5.64467
G1 X211 Y76.83 E5.65495
G1 X210.999 Y111.949 E6.82302
G1 X210.989 Y112.655 E6.8465
G1 X210.98 Y112.96 E6.85665
G1 X210.954 Y113.573 E6.87706
G1 X210.878 Y116.259 E6.96643
G1 X210.878 Y118.749 E7.04925
G1 X210.951 Y121.321 E7.13483
G1 X210.969 Y121.679 E7.14675
G1 X210.978 Y121.922 E7.15484
G1 X210.995 Y122.515 E7.17457
G1 X211 Y122.83 E7.18504
G1 X210.999 Y157.9 E8.35148
G1 X210.99 Y158.627 E8.37566
G1 X210.939 Y159.564 E8.40687
G1 X210.807 Y160.492 E8.43805
G1 X210.598 Y161.406 E8.46923
G1 X210.311 Y162.299 E8.50043
G1 X209.949 Y163.165 E8.53165
G1 X209.515 Y163.996 E8.56283
G1 X209.011 Y164.787 E8.59402
G1 X208.442 Y165.532 E8.6252
G1 X207.811 Y166.227 E8.65642
G1 X207.124 Y166.865 E8.68761
G1 X206.385 Y167.442 E8.71879
G1 X205.599 Y167.954 E8.74999
G1 X204.773 Y168.397 E8.78117
G1 X203.911 Y168.769 E8.81239
G1 X203.022 Y169.065 E8.84356
G1 X202.11 Y169.285 E8.87476
G1 X201.183 Y169.426 E8.90595
G1 X200.299 Y169.487 E8.93542
G1 X199.978 Y169.496 E8.9461
G1 X199.67 Y169.5 E8.95634
G1 X164.554 Y169.499 E10.12431
G1 X163.837 Y169.489 E10.14816
G1 X163.522 Y169.48 E10.15864
G1 X162.879 Y169.453 E10.18004
G1 X160.241 Y169.378 E10.26782
G1 X157.753 Y169.378 E10.35057
G1 X155.179 Y169.451 E10.43622
G1 X154.821 Y169.469 E10.44814
G1 X154.578 Y169.478 E10.45623
G1 X153.985 Y169.495 E10.47596
G1 X153.67 Y169.5 E10.48644
G1 X118.55 Y169.499 E11.65453
G1 X117.849 Y169.489 E11.67785
G1 X116.913 Y169.436 E11.70903
G1 X116 Y169.306 E11.7397
G1 X114.765 Y169.077 E11.78148
G1 X112.287 Y168.653 E11.8651
G1 X109.792 Y168.298 E11.94892
G1 X107.26 Y168.01 E12.03367
G1 X104.8 Y167.801 E12.11579
G1 X102.26 Y167.658 E12.2004
G1 X99.728 Y167.586 E12.28465
G1 X97.24 Y167.586 E12.3674
G1 X94.682 Y167.658 E12.45252
G1 X92.198 Y167.799 E12.53527
G1 X89.688 Y168.013 E12.61905
G1 X87.224 Y168.293 E12.70153
G1 X83.604 Y168.83 E12.82325
G1 X82.824 Y168.961 E12.84956
G1 X81.894 Y169.077 E12.88073
G1 X80.649 Y169.109 E12.92215
G1 X79.698 Y169.079 E12.9538
G1 X78.709 Y169.035 E12.98673
G1 X76.203 Y168.994 E13.07009
G1 X73.68 Y169.024 E13.15401
G1 X72.294 Y169.081 E13.20015
G1 X71.32 Y169.109 E13.23255
G1 X70.382 Y169.096 E13.26376
G1 X69.448 Y169.003 E13.29497
G1 X68.815 Y168.897 E13.31632
G1 X68.237 Y168.782 E13.33592
G1 X61.554 Y167.36 E13.56318
G1 X60.93 Y167.217 E13.58447
G1 X60.025 Y166.969 E13.61568
G1 X59.113 Y166.631 E13.64803
G1 X58.143 Y166.222 E13.68304
G1 X57.944 Y166.136 E13.69025
G1 X51.671 Y163.344 E13.91862
G1 X50.952 Y163.013 E13.94495
G1 X50.117 Y162.585 E13.97616
G1 X49.261 Y162.043 E14.00986
G1 X48.226 Y161.319 E14.05187
G1 X42.664 Y157.278 E14.28053
G1 X42.022 Y156.798 E14.30719
G1 X41.296 Y156.204 E14.33839
G1 X40.597 Y155.523 E14.37085
G1 X39.882 Y154.761 E14.4056
G1 X39.729 Y154.594 E14.41314
G1 X35 Y149.34 E14.64825
G1 X34.592 Y148.873 E14.66887
G1 X34.006 Y148.141 E14.70006
G1 X33.462 Y147.326 E14.73265
G1 X32.912 Y146.416 E14.76802
G1 X32.799 Y146.225 E14.7754
G1 X29.28 Y140.126 E15.00959
G1 X28.982 Y139.593 E15.0299
G1 X28.559 Y138.756 E15.0611
G1 X28.193 Y137.836 E15.09403
G1 X27.851 Y136.852 E15.12868
G1 X27.78 Y136.641 E15.13608
G1 X25.608 Y129.953 E15.36996
G1 X25.414 Y129.326 E15.39179
G1 X25.175 Y128.419 E15.42299
G1 X25.007 Y127.438 E15.45609
G1 X24.874 Y126.373 E15.49179
G1 X24.85 Y126.162 E15.49885
G1 X24.641 Y124.166 E15.5656
G1 X24.579 Y123.472 E15.58878
G1 X24.542 Y122.092 E15.63469
G1 X24.635 Y119.536 E15.71976
G1 X24.656 Y117.009 E15.80381
G1 X24.606 Y114.473 E15.88818
G1 X24.555 Y113.354 E15.92543
G1 X24.541 Y112.887 E15.94097
G1 X24.579 Y111.59 E15.98413
G1 X24.682 Y110.431 E16.02283
G1 X24.88 Y108.549 E16.08577
G1 X24.976 Y107.738 E16.11293
G1 X25.126 Y106.812 E16.14413
G1 X25.372 Y105.843 E16.17738
G1 X25.683 Y104.817 E16.21304
G1 X25.749 Y104.607 E16.22036
G1 X27.922 Y97.924 E16.4541
G1 X28.119 Y97.344 E16.47447
G1 X28.459 Y96.47 E16.50566
G1 X28.899 Y95.577 E16.53877
G1 X29.389 Y94.687 E16.57256
G1 X29.498 Y94.493 E16.57996
G1 X33.033 Y88.372 E16.81506
G1 X33.371 Y87.807 E16.83696
G1 X33.887 Y87.023 E16.86818
G1 X34.487 Y86.263 E16.90038
G1 X35.173 Y85.469 E16.93528
G1 X35.323 Y85.299 E16.94282
G1 X40.016 Y80.088 E17.17607
G1 X40.453 Y79.615 E17.19749
G1 X41.119 Y78.954 E17.2287
G1 X41.896 Y78.308 E17.2623
G1 X42.722 Y77.683 E17.29676
G1 X42.893 Y77.556 E17.30384
G1 X48.606 Y73.406 E17.5387
G1 X49.119 Y73.044 E17.55958
G0 F6000 X49.349 Y73.371
G1 F1200 X50.124 Y72.874 E17.5902
G1 X50.969 Y72.431 E17.62193
G1 X51.903 Y71.994 E17.65623
G1 X52.083 Y71.912 E17.66281
G1 X58.512 Y69.05 E17.89687
G1 X59.102 Y68.797 E17.91822
G1 X59.964 Y68.471 E17.94887
G1 X60.866 Y68.217 E17.98004
G1 X61.888 Y67.978 E18.01495
G1 X62.097 Y67.932 E18.02207
G1 X68.23 Y66.629 E18.23061
G1 X68.949 Y66.487 E18.25498
G1 X69.859 Y66.348 E18.2856
G1 X70.778 Y66.288 E18.31623
G1 X71.337 Y66.291 E18.33482
G1 X72.422 Y66.326 E18.37093
G1 X73.268 Y66.363 E18.39909
G1 X75.83 Y66.406 E18.48432
G1 X78.308 Y66.376 E18.56674
G1 X79.729 Y66.318 E18.61405
G1 X80.707 Y66.291 E18.64659
G1 X81.628 Y66.306 E18.67722
G1 X82.773 Y66.436 E18.71555
G1 X83.439 Y66.549 E18.73802
G1 X85.99 Y66.946 E18.82389
G1 X88.519 Y67.267 E18.90868
G1 X91.032 Y67.514 E18.99266
G1 X93.533 Y67.689 E19.07605
G1 X96.078 Y67.794 E19.16077
G1 X98.589 Y67.827 E19.24429
G1 X101.135 Y67.788 E19.32898
G1 X103.643 Y67.679 E19.41248
G1 X106.195 Y67.495 E19.49758
G1 X108.683 Y67.246 E19.58074
G1 X111.214 Y66.919 E19.66562
G1 X113.675 Y66.531 E19.74849
G1 X115.815 Y66.131 E19.8209
G1 X116.248 Y66.057 E19.83551
G1 X117.162 Y65.943 E19.86614
G1 X117.712 Y65.913 E19.88446
G1 X118.031 Y65.904 E19.89508
G1 X118.33 Y65.9 E19.90502
G1 X153.293 Y65.9 E21.0679
G1 X154.159 Y65.911 E21.0967
G1 X154.462 Y65.92 E21.10678
G1 X155.092 Y65.947 E21.12776
G1 X157.748 Y66.022 E21.21613
G1 X160.259 Y66.022 E21.29965
G1 X162.854 Y65.949 E21.38599
G1 X163.433 Y65.921 E21.40527
G1 X164.026 Y65.904 E21.425
G1 X164.33 Y65.9 E21.43511
G1 X199.445 Y65.901 E22.60304
G1 X200.143 Y65.911 E22.62626
G1 X201.062 Y65.964 E22.65688
G1 X201.973 Y66.097 E22.6875
G1 X202.869 Y66.308 E22.71812
G1 X203.743 Y66.596 E22.74872
G1 X204.59 Y66.959 E22.77937
G1 X205.401 Y67.394 E22.80998
G1 X206.171 Y67.898 E22.84059
G1 X206.895 Y68.467 E22.87122
G1 X207.567 Y69.097 E22.90185
G1 X208.182 Y69.782 E22.93247
G1 X208.735 Y70.518 E22.96309
G1 X209.222 Y71.299 E22.9937
G1 X209.639 Y72.12 E23.02433
G1 X209.984 Y72.974 E23.05497
G1 X210.253 Y73.854 E23.08557
G1 X210.445 Y74.755 E23.11621
G1 X210.558 Y75.668 E23.14681
G1 X210.587 Y76.212 E23.16493
G1 X210.596 Y76.532 E23.17558
G1 X210.6 Y76.83 E23.18549
G1 X210.599 Y111.943 E24.35335
G1 X210.589 Y112.649 E24.37684
G1 X210.581 Y112.943 E24.38662
G1 X210.552 Y113.638 E24.40975
G1 X210.478 Y116.248 E24.4966
G1 X210.478 Y118.76 E24.58015
G1 X210.551 Y121.352 E24.66639
G1 X210.579 Y121.933 E24.68574
G1 X210.596 Y122.526 E24.70547
G1 X210.6 Y122.83 E24.71558
G1 X210.599 Y157.895 E25.88185
G1 X210.59 Y158.622 E25.90603
G1 X210.539 Y159.541 E25.93664
G1 X210.408 Y160.453 E25.96729
G1 X210.198 Y161.349 E25.9979
G1 X209.912 Y162.224 E26.02852
G1 X209.551 Y163.071 E26.05914
G1 X209.117 Y163.883 E26.08976
G1 X208.615 Y164.655 E26.12039
G1 X208.047 Y165.38 E26.15102
G1 X207.419 Y166.053 E26.18164
G1 X206.735 Y166.669 E26.21225
G1 X206 Y167.223 E26.24287
G1 X205.22 Y167.712 E26.27349
G1 X204.4 Y168.131 E26.30411
G1 X203.547 Y168.477 E26.33473
G1 X202.667 Y168.748 E26.36535
G1 X201.767 Y168.941 E26.39597
G1 X200.853 Y169.056 E26.42661
G1 X200.288 Y169.087 E26.44543
G1 X199.967 Y169.096 E26.45611
G1 X199.67 Y169.1 E26.46599
G1 X164.559 Y169.099 E27.63379
G1 X163.842 Y169.089 E27.65764
G1 X163.539 Y169.08 E27.66772
G1 X162.908 Y169.053 E27.68872
G1 X160.252 Y168.978 E27.7771
G1 X157.742 Y168.978 E27.86058
G1 X155.148 Y169.051 E27.94689
G1 X154.567 Y169.079 E27.96624
G1 X153.974 Y169.096 E27.98597
G1 X153.67 Y169.1 E27.99608
G1 X118.556 Y169.099 E29.16398
G1 X117.855 Y169.089 E29.1873
G1 X116.936 Y169.036 E29.21791
G1 X116.073 Y168.912 E29.24691
G1 X114.908 Y168.696 E29.28632
G1 X112.339 Y168.256 E29.37301
G1 X109.822 Y167.898 E29.45757
G1 X107.338 Y167.616 E29.54072
G1 X104.787 Y167.399 E29.62587
G1 X102.295 Y167.258 E29.70889
G1 X99.739 Y167.186 E29.79393
G1 X97.229 Y167.186 E29.87742
G1 X94.684 Y167.258 E29.9621
G1 X92.179 Y167.4 E30.04555
G1 X89.642 Y167.616 E30.13023
G1 X87.177 Y167.897 E30.21275
G1 X83.536 Y168.436 E30.33517
G1 X82.758 Y168.567 E30.36141
G1 X81.844 Y168.68 E30.39204
G1 X80.662 Y168.709 E30.43137
G1 X79.578 Y168.674 E30.46744
G1 X78.732 Y168.637 E30.49561
G1 X76.17 Y168.594 E30.58083
G1 X73.692 Y168.624 E30.66325
G1 X72.283 Y168.682 E30.71016
G1 X71.309 Y168.71 E30.74257
G1 X70.388 Y168.696 E30.7732
G1 X69.505 Y168.607 E30.80272
G1 X68.894 Y168.504 E30.82333
G1 X68.18 Y168.361 E30.84755
G1 X61.643 Y166.97 E31.06984
G1 X61.019 Y166.827 E31.09113
G1 X60.132 Y166.583 E31.12173
G1 X59.269 Y166.262 E31.15235
G1 X58.299 Y165.853 E31.18737
G1 X58.107 Y165.77 E31.19432
G1 X51.707 Y162.921 E31.42733
G1 X51.119 Y162.65 E31.44886
G1 X50.301 Y162.228 E31.47947
G1 X49.489 Y161.715 E31.51142
G1 X48.625 Y161.112 E31.54646
G1 X48.462 Y160.996 E31.55312
G1 X42.773 Y156.861 E31.78703
G1 X42.262 Y156.478 E31.80827
G1 X41.55 Y155.894 E31.8389
G1 X40.889 Y155.249 E31.86962
G1 X40.174 Y154.487 E31.90437
G1 X40.027 Y154.327 E31.9116
G1 X35.301 Y149.077 E32.14655
G1 X34.893 Y148.61 E32.16717
G1 X34.318 Y147.891 E32.19779
G1 X33.804 Y147.119 E32.22864
G1 X33.254 Y146.209 E32.264
G1 X33.146 Y146.025 E32.2711
G1 X29.629 Y139.931 E32.50512
G1 X29.331 Y139.398 E32.52543
G1 X28.917 Y138.576 E32.55604
G1 X28.571 Y137.705 E32.58721
G1 X28.229 Y136.721 E32.62186
G1 X28.16 Y136.517 E32.62903
G1 X25.99 Y129.835 E32.8627
G1 X25.796 Y129.208 E32.88452
G1 X25.562 Y128.318 E32.91513
G1 X25.404 Y127.389 E32.94647
G1 X25.247 Y126.12 E32.989
G1 X25.055 Y124.297 E33.04997
G1 X24.977 Y123.436 E33.07873
G1 X24.942 Y122.106 E33.12298
G1 X25.035 Y119.554 E33.20791
G1 X25.056 Y117.004 E33.29273
G1 X25.006 Y114.486 E33.3765
G1 X24.961 Y113.515 E33.40883
G1 X24.941 Y112.875 E33.43012
G1 X24.977 Y111.626 E33.47168
G1 X25.08 Y110.473 E33.51018
G1 X25.294 Y108.451 E33.57781
G1 X25.373 Y107.785 E33.60012
G1 X25.521 Y106.877 E33.63072
G1 X25.755 Y105.959 E33.66223
G1 X26.066 Y104.933 E33.69788
G1 X26.129 Y104.731 E33.70492
G1 X28.301 Y98.053 E33.93849
G1 X28.498 Y97.473 E33.95886
G1 X28.832 Y96.615 E33.98948
G1 X29.249 Y95.77 E34.02082
G1 X29.739 Y94.88 E34.05461
G1 X29.845 Y94.693 E34.06176
G1 X33.376 Y88.577 E34.29665
G1 X33.714 Y88.012 E34.31855
G1 X34.221 Y87.243 E34.34918
G1 X34.79 Y86.524 E34.37968
G1 X35.476 Y85.73 E34.41458
G1 X35.62 Y85.567 E34.42181
G1 X40.31 Y80.36 E34.65489
G1 X40.747 Y79.887 E34.67631
G1 X41.401 Y79.238 E34.70696
G1 X42.137 Y78.627 E34.73877
G1 X42.963 Y78.002 E34.77322
G1 X43.128 Y77.88 E34.78005
G1 X48.836 Y73.733 E35.01471
G1 X49.349 Y73.371 E35.0356
G0 F6000 X49.58 Y73.698
G1 F1200 X50.34 Y73.211 E35.06562
G1 X51.138 Y72.793 E35.09558
G1 X52.072 Y72.356 E35.12988
G1 X58.541 Y69.474 E35.36542
G1 X59.26 Y69.165 E35.39145
G1 X60.105 Y68.846 E35.42149
G1 X60.957 Y68.607 E35.45092
G1 X61.979 Y68.368 E35.48583
G1 X62.181 Y68.323 E35.49272
G1 X68.308 Y67.021 E35.70105
G1 X69.027 Y66.879 E35.72543
G1 X69.92 Y66.744 E35.75547
G1 X70.821 Y66.688 E35.78549
G1 X71.324 Y66.691 E35.80222
G1 X72.404 Y66.726 E35.83816
G1 X73.244 Y66.763 E35.86613
G1 X75.827 Y66.806 E35.95205
G1 X78.33 Y66.776 E36.03531
G1 X79.741 Y66.718 E36.08228
G1 X80.719 Y66.691 E36.11482
G1 X81.621 Y66.706 E36.14482
G1 X82.706 Y66.831 E36.18115
G1 X83.316 Y66.935 E36.20173
G1 X85.945 Y67.343 E36.29022
G1 X88.466 Y67.663 E36.37474
G1 X91.001 Y67.913 E36.45946
G1 X93.525 Y68.089 E36.54361
G1 X96.056 Y68.194 E36.62787
G1 X98.589 Y68.227 E36.71212
G1 X101.158 Y68.188 E36.79758
G1 X103.655 Y68.079 E36.88071
G1 X106.228 Y67.894 E36.96651
G1 X108.738 Y67.642 E37.05041
G1 X111.256 Y67.318 E37.13485
G1 X113.78 Y66.919 E37.21984
G1 X116.065 Y66.493 E37.29715
G1 X116.314 Y66.451 E37.30555
G1 X117.211 Y66.34 E37.33561
G1 X117.723 Y66.313 E37.35266
G1 X118.042 Y66.304 E37.36328
G1 X118.33 Y66.3 E37.37286
G1 X153.293 Y66.3 E38.53573
G1 X154.153 Y66.311 E38.56434
G1 X154.445 Y66.319 E38.57405
G1 X155.133 Y66.348 E38.59696
G1 X157.737 Y66.422 E38.6836
G1 X160.27 Y66.422 E38.76785
G1 X162.841 Y66.349 E38.85339
G1 X163.22 Y66.33 E38.86602
G1 X163.445 Y66.321 E38.87351
G1 X164.038 Y66.304 E38.89324
G1 X164.33 Y66.3 E38.90295
G1 X199.439 Y66.301 E40.07068
G1 X200.137 Y66.311 E40.0939
G1 X201.039 Y66.364 E40.12395
G1 X201.932 Y66.496 E40.15397
G1 X202.81 Y66.707 E40.18401
G1 X203.666 Y66.995 E40.21405
G1 X204.493 Y67.357 E40.24407
G1 X205.285 Y67.792 E40.27413
G1 X206.036 Y68.294 E40.30417
G1 X206.739 Y68.861 E40.33421
G1 X207.389 Y69.488 E40.36425
G1 X207.981 Y70.17 E40.39429
G1 X208.511 Y70.901 E40.42432
G1 X208.973 Y71.677 E40.45435
G1 X209.366 Y72.49 E40.48439
G1 X209.684 Y73.335 E40.51442
G1 X209.927 Y74.205 E40.54446
G1 X210.092 Y75.093 E40.5745
G1 X210.187 Y76.223 E40.61222
G1 X210.196 Y76.543 E40.62287
G1 X210.2 Y76.83 E40.63241
G1 X210.199 Y111.937 E41.80008
G1 X210.189 Y112.643 E41.82356
G1 X210.181 Y112.926 E41.83298
