;FLAVOR:Marlin
;TIME:6046
;Filament used: 6.86093m
;Layer height: 0.16
;MINX:29
;MINY:43.119
;MINZ:0.2
;MAXX:206
;MAXY:184.053
;MAXZ:13.8
;Generated with Cura_SteamEngine 4.10.0
M140 S50
M105
M190 S50
M104 S200
M105
M109 S200
M82 ;absolute extrusion mode
; Ender 3 Custom Start G-code
G92 E0 ; Reset Extruder
G28 ; Home all axes
G1 Z2.0 F3000 ; Move Z Axis up little to prevent scratching of Heat Bed
G1 X0.1 Y20 Z0.3 F5000.0 ; Move to start position
G1 X0.1 Y200.0 Z0.3 F1500.0 E15 ; Draw the first line
G1 X0.4 Y200.0 Z0.3 F5000.0 ; Move to side a little
G1 X0.4 Y20 Z0.3 F1500.0 E30 ; Draw the second line
G92 E0 ; Reset Extruder
G1 Z2.0 F3000 ; Move Z Axis up little to prevent scratching of Heat Bed
G1 X5 Y20 Z0.3 F5000.0 ; Move over to prevent blob squish
G92 E0
G92 E0
G1 F2700 E-5
;LAYER_COUNT:70
;LAYER:0
M107
G0 F6000 X33.64 Y45.16 Z0.2
;TYPE:SKIRT
G1 F2700 E0
G1 F1200 X34.427 Y44.65 E0.03119
G1 X35.255 Y44.209 E0.06239
G1 X36.117 Y43.84 E0.09358
G1 X37.008 Y43.546 E0.12479
G1 X37.92 Y43.328 E0.15597
G1 X38.847 Y43.19 E0.18715
G1 X39.701 Y43.132 E0.21562
G1 X40.021 Y43.123 E0.22626
G1 X40.33 Y43.119 E0.23654
G1 X194.293 Y43.119 E5.35737
G1 X195.149 Y43.13 E5.38584
G1 X196.085 Y43.184 E5.41703
G1 X197.013 Y43.316 E5.4482
G1 X197.927 Y43.528 E5.47941
G1 X198.819 Y43.817 E5.5106
G1 X199.684 Y44.18 E5.5418
G1 X200.514 Y44.616 E5.57298
G1 X201.305 Y45.121 E5.60419
G1 X202.049 Y45.692 E5.63539
G1 X202.742 Y46.324 E5.66658
G1 X203.379 Y47.012 E5.69777
G1 X203.954 Y47.753 E5.72896
G1 X204.465 Y48.539 E5.76014
G1 X204.907 Y49.367 E5.79136
G1 X205.276 Y50.229 E5.82255
G1 X205.571 Y51.119 E5.85373
G1 X205.789 Y52.031 E5.88492
G1 X205.929 Y52.959 E5.91614
G1 X205.987 Y53.82 E5.94484
G1 X205.996 Y54.14 E5.95549
G1 X206 Y54.449 E5.96576
G1 X205.999 Y172.453 E9.89059
G1 X205.99 Y173.18 E9.91477
G1 X205.939 Y174.117 E9.94599
G1 X205.807 Y175.045 E9.97716
G1 X205.598 Y175.959 E10.00835
G1 X205.311 Y176.852 E10.03954
G1 X204.949 Y177.718 E10.07076
G1 X204.515 Y178.549 E10.10194
G1 X204.011 Y179.34 E10.13314
G1 X203.442 Y180.085 E10.16432
G1 X202.811 Y180.78 E10.19554
G1 X202.124 Y181.418 E10.22672
G1 X201.385 Y181.995 E10.25791
G1 X200.599 Y182.507 E10.28911
G1 X199.773 Y182.95 E10.32028
G1 X198.911 Y183.322 E10.35151
G1 X198.022 Y183.618 E10.38267
G1 X197.11 Y183.838 E10.41388
G1 X196.183 Y183.979 E10.44506
G1 X195.299 Y184.04 E10.47453
G1 X194.978 Y184.049 E10.48521
G1 X194.67 Y184.053 E10.49546
G1 X40.548 Y184.053 E15.62158
G1 X39.862 Y184.043 E15.6444
G1 X38.925 Y183.989 E15.67561
G1 X37.997 Y183.856 E15.70679
G1 X37.083 Y183.644 E15.738
G1 X36.191 Y183.355 E15.76919
G1 X35.327 Y182.992 E15.80036
G1 X34.496 Y182.555 E15.83159
G1 X33.706 Y182.05 E15.86277
G1 X32.962 Y181.479 E15.89396
G1 X32.269 Y180.847 E15.92516
G1 X31.633 Y180.159 E15.95632
G1 X30.799 Y179.039 E16.00277
G1 X30.309 Y178.211 E16.03477
G1 X29.902 Y177.366 E16.06596
G1 X29.569 Y176.49 E16.09713
G1 X29.312 Y175.588 E16.12833
G1 X29.132 Y174.667 E16.15954
G1 X29.014 Y173.35 E16.20352
G1 X29.005 Y173.046 E16.21363
G1 X29 Y172.72 E16.22448
G1 X29.001 Y54.628 E20.15223
G1 X29.011 Y53.963 E20.17435
G1 X29.065 Y53.026 E20.20557
G1 X29.199 Y52.098 E20.23676
G1 X29.411 Y51.184 E20.26796
G1 X29.7 Y50.292 E20.29915
G1 X30.065 Y49.428 E20.33034
G1 X30.501 Y48.598 E20.36153
G1 X31.007 Y47.808 E20.39273
G1 X31.578 Y47.064 E20.42392
G1 X32.21 Y46.371 E20.45512
G1 X32.899 Y45.735 E20.48631
G1 X33.64 Y45.16 E20.5175
G0 F6000 X34.024 Y45.38
G1 F1200 X34.806 Y44.893 E20.54814
G1 X35.627 Y44.477 E20.57875
G1 X36.481 Y44.133 E20.60938
G1 X37.361 Y43.864 E20.63998
G1 X38.262 Y43.673 E20.67061
G1 X39.176 Y43.561 E20.70124
G1 X39.712 Y43.532 E20.7191
G1 X40.032 Y43.523 E20.72974
G1 X40.33 Y43.519 E20.73966
G1 X194.293 Y43.519 E25.86049
G1 X195.143 Y43.53 E25.88876
G1 X196.062 Y43.583 E25.91938
G1 X196.973 Y43.716 E25.95
G1 X197.869 Y43.927 E25.98061
G1 X198.743 Y44.215 E26.01122
G1 X199.59 Y44.578 E26.04187
G1 X200.401 Y45.013 E26.07248
G1 X201.171 Y45.517 E26.10309
G1 X201.895 Y46.086 E26.13371
G1 X202.567 Y46.716 E26.16435
G1 X203.182 Y47.401 E26.19497
G1 X203.735 Y48.137 E26.22559
G1 X204.222 Y48.918 E26.2562
G1 X204.639 Y49.739 E26.28683
G1 X204.984 Y50.593 E26.31746
G1 X205.253 Y51.473 E26.34807
G1 X205.445 Y52.374 E26.37871
G1 X205.558 Y53.287 E26.40931
G1 X205.587 Y53.831 E26.42743
G1 X205.596 Y54.151 E26.43807
G1 X205.6 Y54.449 E26.44799
G1 X205.599 Y172.448 E30.37265
G1 X205.59 Y173.175 E30.39683
G1 X205.539 Y174.094 E30.42744
G1 X205.408 Y175.006 E30.45809
G1 X205.198 Y175.902 E30.4887
G1 X204.912 Y176.777 E30.51932
G1 X204.551 Y177.624 E30.54994
G1 X204.117 Y178.436 E30.58056
G1 X203.615 Y179.208 E30.61119
G1 X203.047 Y179.933 E30.64182
G1 X202.419 Y180.606 E30.67244
G1 X201.735 Y181.222 E30.70305
G1 X201 Y181.776 E30.73367
G1 X200.22 Y182.265 E30.76429
G1 X199.4 Y182.684 E30.79491
G1 X198.547 Y183.03 E30.82553
G1 X197.667 Y183.301 E30.85615
G1 X196.767 Y183.494 E30.88677
G1 X195.853 Y183.609 E30.91741
G1 X195.288 Y183.64 E30.93623
G1 X194.967 Y183.649 E30.94691
G1 X194.67 Y183.653 E30.95679
G1 X40.553 Y183.653 E36.08274
G1 X39.867 Y183.643 E36.10556
G1 X38.948 Y183.589 E36.13618
G1 X38.037 Y183.457 E36.1668
G1 X37.141 Y183.245 E36.19742
G1 X36.267 Y182.957 E36.22803
G1 X35.421 Y182.593 E36.25866
G1 X34.61 Y182.158 E36.28927
G1 X33.839 Y181.654 E36.3199
G1 X33.116 Y181.085 E36.3505
G1 X32.444 Y180.456 E36.38112
G1 X31.829 Y179.77 E36.41176
G1 X31.121 Y178.801 E36.45168
G1 X30.654 Y178.008 E36.48229
G1 X30.257 Y177.177 E36.51292
G1 X29.933 Y176.315 E36.54355
G1 X29.685 Y175.429 E36.57415
G1 X29.516 Y174.524 E36.60477
G1 X29.414 Y173.338 E36.64436
G1 X29.405 Y173.034 E36.65448
G1 X29.4 Y172.72 E36.66492
G1 X29.401 Y54.634 E40.59248
G1 X29.411 Y53.969 E40.6146
G1 X29.465 Y53.05 E40.64522
G1 X29.598 Y52.139 E40.67584
G1 X29.81 Y51.243 E40.70646
G1 X30.099 Y50.368 E40.73711
G1 X30.463 Y49.523 E40.76771
G1 X30.898 Y48.712 E40.79832
G1 X31.403 Y47.941 E40.82898
G1 X31.972 Y47.218 E40.85958
G1 X32.602 Y46.546 E40.89021
G1 X33.288 Y45.932 E40.92083
G1 X34.024 Y45.38 E40.95143
G0 F6000 X34.407 Y45.604
G1 F1200 X35.183 Y45.142 E40.98147
G1 X35.997 Y44.751 E41.01151
G1 X36.842 Y44.432 E41.04155
G1 X37.712 Y44.19 E41.07158
G1 X38.6 Y44.026 E41.10162
G1 X39.723 Y43.932 E41.1391
G1 X40.043 Y43.923 E41.14975
G1 X40.33 Y43.919 E41.15929
G1 X194.293 Y43.919 E46.28012
G1 X195.137 Y43.93 E46.3082
G1 X196.039 Y43.983 E46.33825
G1 X196.932 Y44.115 E46.36827
G1 X197.81 Y44.326 E46.39831
G1 X198.666 Y44.614 E46.42835
G1 X199.493 Y44.976 E46.45837
G1 X200.285 Y45.411 E46.48843
G1 X201.036 Y45.913 E46.51847
G1 X201.739 Y46.48 E46.54851
G1 X202.389 Y47.107 E46.57855
G1 X202.981 Y47.789 E46.60859
G1 X203.511 Y48.52 E46.63862
G1 X203.973 Y49.296 E46.66865
G1 X204.366 Y50.109 E46.69869
G1 X204.684 Y50.954 E46.72872
G1 X204.927 Y51.824 E46.75876
G1 X205.092 Y52.712 E46.7888
G1 X205.187 Y53.842 E46.82652
G1 X205.196 Y54.162 E46.83717
G1 X205.2 Y54.449 E46.84671
G1 X205.199 Y172.443 E50.77121
G1 X205.19 Y173.17 E50.79539
G1 X205.139 Y174.072 E50.82544
G1 X205.008 Y174.966 E50.85549
G1 X204.799 Y175.844 E50.88551
G1 X204.513 Y176.701 E50.91556
G1 X204.152 Y177.529 E50.9456
G1 X203.72 Y178.321 E50.97561
G1 X203.219 Y179.073 E51.00566
G1 X202.653 Y179.777 E51.03571
G1 X202.028 Y180.428 E51.06572
G1 X201.347 Y181.022 E51.09578
G1 X200.616 Y181.553 E51.12583
G1 X199.842 Y182.017 E51.15584
G1 X199.029 Y182.411 E51.18589
G1 X198.185 Y182.731 E51.21591
G1 X197.315 Y182.976 E51.24598
G1 X196.428 Y183.142 E51.27599
G1 X195.277 Y183.24 E51.31441
G1 X194.956 Y183.249 E51.32509
G1 X194.67 Y183.253 E51.3346
G1 X40.559 Y183.253 E56.46036
G1 X39.873 Y183.243 E56.48318
G1 X38.972 Y183.19 E56.51319
G1 X38.078 Y183.057 E56.54326
G1 X37.2 Y182.846 E56.57329
G1 X36.344 Y182.558 E56.60333
G1 X35.517 Y182.195 E56.63337
G1 X34.726 Y181.761 E56.66338
G1 X33.975 Y181.258 E56.69344
G1 X33.272 Y180.691 E56.72348
G1 X32.622 Y180.064 E56.75352
G1 X32.03 Y179.382 E56.78355
G1 X31.457 Y178.583 E56.81626
G1 X30.999 Y177.805 E56.84628
G1 X30.611 Y176.989 E56.87634
G1 X30.297 Y176.142 E56.90638
G1 X30.06 Y175.271 E56.9364
G1 X29.9 Y174.382 E56.96645
G1 X29.813 Y173.326 E57.00169
G1 X29.804 Y173.022 E57.0118
G1 X29.8 Y172.72 E57.02185
G1 X29.801 Y54.64 E60.94921
G1 X29.811 Y53.975 E60.97133
G1 X29.865 Y53.073 E61.00138
G1 X29.998 Y52.18 E61.03141
G1 X30.209 Y51.302 E61.06144
G1 X30.498 Y50.446 E61.09149
G1 X30.861 Y49.619 E61.12153
G1 X31.295 Y48.828 E61.15154
G1 X31.798 Y48.077 E61.18161
G1 X32.366 Y47.375 E61.21164
G1 X32.993 Y46.725 E61.24168
G1 X33.675 Y46.133 E61.27171
G1 X34.407 Y45.604 E61.30175
G1 F2700 E56.30175
;MESH:ControlPanelFrontInside.stl
G0 F6000 X42.653 Y57.082
G0 X41.6 Y56.029
G0 X41.572 Y171.171
G0 X193.401 Y171.344
;TYPE:WALL-INNER
G1 F2700 E61.30175
G1 F1200 X193.6 Y171.344 E61.30837
G1 X193.6 Y171.145 E61.31265
G1 X193.6 Y55.829 E65.14808
G1 X41.4 Y55.829 E70.21027
G1 X41.4 Y171.343 E74.05228
G1 X193.401 Y171.344 E79.10786
G0 F6000 X193.2 Y170.944
;TYPE:WALL-OUTER
G1 F1200 X193.2 Y56.229 E82.92329
G1 X41.8 Y56.229 E87.95888
G1 X41.8 Y170.943 E91.77428
G1 X193.2 Y170.944 E96.80987
G1 F2700 E91.80987
G0 F6000 X193.199 Y171.243
G0 X41.572 Y171.171
G0 X41 Y55.429
;TYPE:WALL-INNER
G1 F2700 E96.80987
G1 F1200 X41 Y55.119 E96.82018
G1 X194 Y55.119 E101.90898
G1 X194 Y55.429 E101.91929
G1 X41 Y55.429 E105.87299
G1 F2700 E100.87299
G0 F6000 X41 Y172.054
G1 F2700 E105.87299
G1 F1200 X41 Y171.743 E105.88334
G1 X194 Y171.744 E110.97214
G1 X194 Y172.053 E110.98241
G1 X41 Y172.054 E114.93612
G0 F6000 X40.6 Y172.454
G1 F1200 X40.6 Y172.255 E114.94274
G1 X40.6 Y54.719 E118.852
G1 X194.4 Y54.719 E123.96741
G1 X194.4 Y172.453 E127.88326
G1 X40.799 Y172.454 E132.99205
G1 X40.6 Y172.454 E132.99633
G0 F6000 X40.2 Y172.854
;TYPE:WALL-OUTER
G1 F1200 X40.2 Y54.319 E136.93882
G1 X194.8 Y54.319 E142.08084
G1 X194.8 Y172.853 E146.0233
G1 X40.2 Y172.854 E151.16531
G0 F6000 X40.47 Y172.584
G0 X40.908 Y171.582
G0 X40.841 Y171.514
;TYPE:SKIN
G1 F1200 X40.982 Y171.373 E151.17278
G1 X40.999 Y167.713 E151.30984
G1 X40.999 Y55.99 E155.4936
G1 X41.194 Y55.619 E155.50929
G1 F2700 E150.50929
G0 F6000 X41.225 Y55.65
G0 X193.774 Y55.746
G0 X193.999 Y55.971
G1 F2700 E155.50929
G1 F1200 X194.061 Y55.751 E155.51782
G1 X194.203 Y55.61 E155.52528
G1 X193.999 Y56.254 E155.55048
G1 X193.999 Y171.088 E159.83409
G1 X193.851 Y171.506 E159.85063
G0 F6000 X193.928 Y171.583
;MESH:NONMESH
G0 F300 X193.928 Y171.583 Z0.4
G0 F6000 X193.401 Y171.46
;TIME_ELAPSED:258.823733
;LAYER:1
M106 S85
;TYPE:WALL-INNER
;MESH:ControlPanelFrontInside.stl
G1 F1800 X193.6 Y171.46 E159.85725
G1 X193.6 Y171.261 E159.86153
G1 X193.6 Y55.945 E163.69695
G1 X41.4 Y55.945 E168.75915
G1 X41.4 Y171.459 E172.60116
G1 X193.401 Y171.46 E177.65673
G0 F9000 X193.2 Y171.06
;TYPE:WALL-OUTER
G1 F1800 X193.2 Y56.345 E181.47217
G1 X41.8 Y56.345 E186.50775
G1 X41.8 Y171.059 E190.32316
G1 X193.2 Y171.06 E195.35874
G1 F2700 E190.35874
G0 F9000 X193.199 Y171.359
G0 X41.572 Y171.287
G0 X41 Y55.545
;TYPE:WALL-INNER
G1 F2700 E195.35874
G1 F1800 X41 Y55.235 E195.36905
G1 X194 Y55.235 E200.45785
G1 X194 Y55.545 E200.46816
G1 X41 Y55.545 E204.42187
G1 F2700 E199.42187
G0 F9000 X41 Y172.17
G1 F2700 E204.42187
G1 F1800 X41 Y171.859 E204.43221
G1 X194 Y171.86 E209.52101
G1 X194 Y172.169 E209.53129
G1 X41 Y172.17 E213.48499
G0 F9000 X40.6 Y172.57
G1 F1800 X40.6 Y172.371 E213.49161
G1 X40.6 Y54.835 E217.40088
G1 X194.4 Y54.835 E222.51628
G1 X194.4 Y172.569 E226.43213
G1 X40.799 Y172.57 E231.54092
G1 X40.6 Y172.57 E231.54521
G0 F9000 X40.2 Y172.97
;TYPE:WALL-OUTER
G1 F1800 X40.2 Y54.435 E235.4877
G1 X194.8 Y54.435 E240.62971
G1 X194.8 Y172.969 E244.57217
G1 X40.2 Y172.97 E249.71419
G0 F9000 X40.47 Y172.7
G0 X40.774 Y171.64
G0 X40.999 Y171.414
;TYPE:SKIN
G1 F1800 X40.999 Y171.132 E249.72479
G1 X40.999 Y56.015 E254.05447
G1 X40.901 Y55.83 E254.06234
G1 F2700 E249.06234
G0 F9000 X40.774 Y55.957
G0 X41.225 Y171.472
G1 F2700 E254.06234
G1 F1800 X40.998 Y171.698 E254.06767
G1 F2700 E249.06767
G0 F9000 X193.774 Y171.658
G0 X193.999 Y171.433
G1 F2700 E254.06767
G1 F1800 X193.999 Y171.15 E254.0783
G1 X193.999 Y56.033 E258.40431
G1 X193.909 Y55.839 E258.41234
G1 F2700 E253.41234
G0 F9000 X193.774 Y55.975
G0 X194.224 Y171.491
G1 F2700 E258.41234
G1 F1800 X194.015 Y171.7 E258.41726
;MESH:NONMESH
G0 F300 X194.015 Y171.7 Z0.6
G0 F9000 X193.401 Y171.575
;TIME_ELAPSED:368.862336
;LAYER:2
M106 S170
;TYPE:WALL-INNER
;MESH:ControlPanelFrontInside.stl
G1 F2400 X193.6 Y171.575 E258.42388
G1 X193.6 Y171.376 E258.42816
G1 X193.6 Y56.06 E262.26359
G1 X41.4 Y56.06 E267.32578
G1 X41.4 Y171.574 E271.16779
G1 X193.401 Y171.575 E276.22336
G0 F12000 X193.2 Y171.175
;TYPE:WALL-OUTER
G1 F2400 X193.2 Y56.46 E280.0388
G1 X41.8 Y56.46 E285.07438
G1 X41.8 Y171.174 E288.88979
G1 X193.2 Y171.175 E293.92537
G1 F2700 E288.92537
G0 F12000 X193.199 Y171.474
G0 X41.572 Y171.402
G0 X41 Y55.66
;TYPE:WALL-INNER
G1 F2700 E293.92537
G1 F2400 X41 Y55.35 E293.93568
G1 X194 Y55.35 E299.02448
G1 X194 Y55.66 E299.03479
G1 X41 Y55.66 E302.9885
G1 F2700 E297.9885
G0 F12000 X41 Y172.285
G1 F2700 E302.9885
G1 F2400 X41 Y171.974 E302.99884
G1 X194 Y171.975 E308.08764
G1 X194 Y172.284 E308.09792
G1 X41 Y172.285 E312.05163
G0 F12000 X40.6 Y172.685
G1 F2400 X40.6 Y172.486 E312.05824
G1 X40.6 Y54.95 E315.96751
G1 X194.4 Y54.95 E321.08292
G1 X194.4 Y172.684 E324.99876
G1 X40.799 Y172.685 E330.10755
G1 X40.6 Y172.685 E330.11184
G0 F12000 X40.2 Y173.085
;TYPE:WALL-OUTER
G1 F2400 X40.2 Y54.55 E334.05433
G1 X194.8 Y54.55 E339.19634
G1 X194.8 Y173.084 E343.1388
G1 X40.2 Y173.085 E348.28082
G0 F12000 X40.47 Y172.815
G0 X40.857 Y171.813
G0 X40.815 Y171.771
;TYPE:SKIN
G1 F2400 X40.957 Y171.63 E348.28831
G1 X40.999 Y170.258 E348.33971
G1 X40.999 Y56.273 E352.60762
G1 X41.168 Y55.875 E352.62381
G1 F2700 E347.62381
G0 F12000 X41.225 Y55.932
G0 X193.774 Y56.029
G0 X193.999 Y56.254
G1 F2700 E352.62381
G1 F2400 X193.999 Y56.537 E352.63444
G1 X193.999 Y171.371 E356.94601
G1 X193.825 Y171.763 E356.96211
G1 F2700 E351.96211
G0 F12000 X193.774 Y171.712
G0 X194.224 Y56.197
G0 X194.035 Y56.008
G1 F2700 E356.96211
G1 F2400 X194.177 Y55.867 E356.97318
G0 F12000 X194.2 Y55.914
G1 F2700 E351.97318
;MESH:NONMESH
G0 F300 X194.2 Y55.914 Z0.8
G0 F12000 X193.401 Y171.691
;TIME_ELAPSED:453.373221
;LAYER:3
M106 S255
;TYPE:WALL-INNER
;MESH:ControlPanelFrontInside.stl
G1 F2700 E356.97318
G1 F2400 X193.6 Y171.691 E356.9798
G1 X193.6 Y171.492 E356.98408
G1 X193.6 Y56.176 E360.8195
G1 X41.4 Y56.176 E365.8817
G1 X41.4 Y171.69 E369.72371
G1 X193.401 Y171.691 E374.77928
G0 F12000 X193.2 Y171.291
;TYPE:WALL-OUTER
G1 F2400 X193.2 Y56.576 E378.59472
G1 X41.8 Y56.576 E383.6303
G1 X41.8 Y171.29 E387.44571
G1 X193.2 Y171.291 E392.48129
G1 F2700 E387.48129
G0 F12000 X193.199 Y171.59
G0 X41.572 Y171.518
G0 X41 Y55.776
;TYPE:WALL-INNER
G1 F2700 E392.48129
G1 F2400 X41 Y55.466 E392.4916
G1 X194 Y55.466 E397.5804
G1 X194 Y55.776 E397.59071
G1 X41 Y55.776 E401.54442
G1 F2700 E396.54442
G0 F12000 X41 Y172.401
G1 F2700 E401.54442
G1 F2400 X41 Y172.09 E401.55476
G1 X194 Y172.091 E406.64356
G1 X194 Y172.4 E406.65384
G1 X41 Y172.401 E410.60754
G0 F12000 X40.6 Y172.801
G1 F2400 X40.6 Y172.602 E410.61416
G1 X40.6 Y55.066 E414.52343
G1 X194.4 Y55.066 E419.63883
G1 X194.4 Y172.8 E423.55468
G1 X40.799 Y172.801 E428.66347
G1 X40.6 Y172.801 E428.66776
G0 F12000 X40.2 Y173.201
;TYPE:WALL-OUTER
G1 F2400 X40.2 Y54.666 E432.61025
G1 X194.8 Y54.666 E437.75226
G1 X194.8 Y173.2 E441.69472
G1 X40.2 Y173.201 E446.83674
G0 F12000 X40.47 Y172.931
G0 X40.775 Y171.922
;TYPE:SKIN
G1 F2400 X41.225 Y171.472 E446.84732
G0 F12000 X41.138 Y171.842
G1 F2400 X41 Y171.414 E446.86411
G1 X41 Y56.297 E451.16314
G1 X40.927 Y56.087 E451.17144
G1 F2700 E446.17144
G0 F12000 X41.079 Y55.935
G0 X193.774 Y55.975
G0 X193.794 Y55.955
G1 F2700 E451.17144
G1 F2400 X193.935 Y56.096 E451.17889
G1 X193.999 Y56.881 E451.20832
G1 X193.999 Y171.432 E455.48853
G1 X194.145 Y171.851 E455.5051
G0 F12000 X194.067 Y171.93
;MESH:NONMESH
G0 F300 X194.067 Y171.93 Z1
G0 F12000 X193.401 Y171.806
;TIME_ELAPSED:535.722090
;LAYER:4
;TYPE:WALL-INNER
;MESH:ControlPanelFrontInside.stl
