;FLAVOR:Marlin
;TIME:36025
;Filament used: 32.0924m
;Layer height: 0.16
;MINX:29.7
;MINY:55.7
;MINZ:0.2
;MAXX:205.3
;MAXY:179.3
;MAXZ:87.44
;Generated with Cura_SteamEngine 4.10.0
M140 S50
M105
M190 S50
M104 S200
M105
M109 S200
M82 ;absolute extrusion mode
; Ender 3 Custom Start G-code
G92 E0 ; Reset Extruder
G28 ; Home all axes
G1 Z2.0 F3000 ; Move Z Axis up little to prevent scratching of Heat Bed
G1 X0.1 Y20 Z0.3 F5000.0 ; Move to start position
G1 X0.1 Y200.0 Z0.3 F1500.0 E15 ; Draw the first line
G1 X0.4 Y200.0 Z0.3 F5000.0 ; Move to side a little
G1 X0.4 Y20 Z0.3 F1500.0 E30 ; Draw the second line
G92 E0 ; Reset Extruder
G1 Z2.0 F3000 ; Move Z Axis up little to prevent scratching of Heat Bed
G1 X5 Y20 Z0.3 F5000.0 ; Move over to prevent blob squish
G92 E0
G92 E0
G1 F2700 E-5
;LAYER_COUNT:647
;LAYER:0
M107
G0 F6000 X33.37 Y56.883 Z0.2
;TYPE:SKIRT
G1 F2700 E0
G1 F1200 X34.061 Y56.499 E0.02629
G1 X34.786 Y56.187 E0.05254
G1 X35.539 Y55.95 E0.0788
G1 X36.313 Y55.791 E0.10508
G1 X37.098 Y55.71 E0.13133
G1 X37.5 Y55.7 E0.1447
G1 X197.5 Y55.7 E5.46633
G1 X198.289 Y55.74 E5.4926
G1 X199.069 Y55.859 E5.51885
G1 X199.834 Y56.057 E5.54513
G1 X200.574 Y56.331 E5.57137
G1 X201.283 Y56.679 E5.59764
G1 X201.954 Y57.097 E5.62394
G1 X202.578 Y57.58 E5.65018
G1 X203.151 Y58.123 E5.67644
G1 X203.666 Y58.722 E5.70271
G1 X204.117 Y59.37 E5.72897
G1 X204.501 Y60.061 E5.75526
G1 X204.813 Y60.786 E5.78151
G1 X205.05 Y61.539 E5.80777
G1 X205.209 Y62.313 E5.83405
G1 X205.29 Y63.098 E5.8603
G1 X205.3 Y63.5 E5.87367
G1 X205.3 Y171.5 E9.46577
G1 X205.26 Y172.289 E9.49204
G1 X205.141 Y173.069 E9.51829
G1 X204.943 Y173.834 E9.54457
G1 X204.669 Y174.574 E9.57082
G1 X204.321 Y175.283 E9.59708
G1 X203.903 Y175.954 E9.62338
G1 X203.42 Y176.578 E9.64962
G1 X202.877 Y177.151 E9.67588
G1 X202.278 Y177.666 E9.70215
G1 X201.63 Y178.117 E9.72841
G1 X200.939 Y178.501 E9.75471
G1 X200.214 Y178.813 E9.78096
G1 X199.461 Y179.05 E9.80721
G1 X198.687 Y179.209 E9.83349
G1 X197.902 Y179.29 E9.85974
G1 X197.5 Y179.3 E9.87312
G1 X37.5 Y179.3 E15.19474
G1 X36.711 Y179.26 E15.22101
G1 X35.931 Y179.141 E15.24726
G1 X35.166 Y178.943 E15.27354
G1 X34.426 Y178.669 E15.29979
G1 X33.717 Y178.321 E15.32605
G1 X33.046 Y177.903 E15.35235
G1 X32.422 Y177.42 E15.37859
G1 X31.849 Y176.877 E15.40485
G1 X31.334 Y176.278 E15.43112
G1 X30.883 Y175.63 E15.45738
G1 X30.499 Y174.939 E15.48367
G1 X30.187 Y174.214 E15.50993
G1 X29.95 Y173.461 E15.53618
G1 X29.791 Y172.687 E15.56246
G1 X29.71 Y171.902 E15.58871
G1 X29.7 Y171.5 E15.60209
G1 X29.7 Y63.5 E19.19418
G1 X29.74 Y62.711 E19.22046
G1 X29.859 Y61.931 E19.2467
G1 X30.057 Y61.166 E19.27298
G1 X30.331 Y60.426 E19.29923
G1 X30.679 Y59.717 E19.3255
G1 X31.097 Y59.046 E19.35179
G1 X31.58 Y58.422 E19.37804
G1 X32.123 Y57.849 E19.40429
G1 X32.722 Y57.334 E19.43057
G1 X33.37 Y56.883 E19.45682
G0 F6000 X33.753 Y57.119
G1 F1200 X34.436 Y56.764 E19.48243
G1 X35.151 Y56.483 E19.50798
G1 X35.893 Y56.277 E19.53359
G1 X36.651 Y56.149 E19.55916
G1 X37.5 Y56.1 E19.58744
G1 X197.5 Y56.1 E24.90907
G1 X198.268 Y56.14 E24.93464
G1 X199.028 Y56.259 E24.96023
G1 X199.771 Y56.457 E24.9858
G1 X200.49 Y56.731 E25.0114
G1 X201.176 Y57.078 E25.03696
G1 X201.823 Y57.494 E25.06255
G1 X202.423 Y57.975 E25.08813
G1 X202.97 Y58.516 E25.11371
G1 X203.458 Y59.111 E25.13931
G1 X203.881 Y59.753 E25.16488
G1 X204.236 Y60.436 E25.19048
G1 X204.517 Y61.151 E25.21603
G1 X204.723 Y61.893 E25.24165
G1 X204.851 Y62.651 E25.26721
G1 X204.9 Y63.5 E25.2955
G1 X204.9 Y171.5 E28.88759
G1 X204.86 Y172.268 E28.91317
G1 X204.741 Y173.028 E28.93876
G1 X204.543 Y173.771 E28.96433
G1 X204.269 Y174.49 E28.98992
G1 X203.922 Y175.176 E29.01549
G1 X203.506 Y175.823 E29.04108
G1 X203.025 Y176.423 E29.06665
G1 X202.484 Y176.97 E29.09224
G1 X201.889 Y177.458 E29.11784
G1 X201.247 Y177.881 E29.14341
G1 X200.564 Y178.236 E29.16901
G1 X199.849 Y178.517 E29.19456
G1 X199.107 Y178.723 E29.22017
G1 X198.349 Y178.851 E29.24574
G1 X197.5 Y178.9 E29.27403
G1 X37.5 Y178.9 E34.59565
G1 X36.732 Y178.86 E34.62123
G1 X35.972 Y178.741 E34.64681
G1 X35.229 Y178.543 E34.67239
G1 X34.51 Y178.269 E34.69798
G1 X33.824 Y177.922 E34.72355
G1 X33.177 Y177.506 E34.74913
G1 X32.577 Y177.025 E34.77471
G1 X32.03 Y176.484 E34.8003
G1 X31.542 Y175.889 E34.82589
G1 X31.119 Y175.247 E34.85146
G1 X30.764 Y174.564 E34.87707
G1 X30.483 Y173.849 E34.90262
G1 X30.277 Y173.107 E34.92823
G1 X30.149 Y172.349 E34.9538
G1 X30.1 Y171.5 E34.98208
G1 X30.1 Y63.5 E38.57418
G1 X30.14 Y62.732 E38.59976
G1 X30.259 Y61.972 E38.62534
G1 X30.457 Y61.229 E38.65092
G1 X30.731 Y60.51 E38.67651
G1 X31.078 Y59.824 E38.70208
G1 X31.494 Y59.177 E38.72766
G1 X31.975 Y58.577 E38.75324
G1 X32.516 Y58.03 E38.77883
G1 X33.111 Y57.542 E38.80442
G1 X33.753 Y57.119 E38.82999
G0 F6000 X33.498 Y57.757
G1 F1200 X34.134 Y57.362 E38.85489
G1 X34.808 Y57.038 E38.87977
G1 X35.513 Y56.788 E38.90464
G1 X36.241 Y56.614 E38.92954
G1 X36.983 Y56.519 E38.95442
G1 X37.5 Y56.5 E38.97163
G1 X197.5 Y56.5 E44.29325
G1 X198.247 Y56.54 E44.31813
G1 X198.985 Y56.659 E44.34299
G1 X199.707 Y56.857 E44.36789
G1 X200.403 Y57.13 E44.39276
G1 X201.066 Y57.477 E44.41765
G1 X201.689 Y57.892 E44.44255
G1 X202.263 Y58.371 E44.46741
G1 X202.784 Y58.908 E44.4923
G1 X203.243 Y59.498 E44.51716
G1 X203.638 Y60.134 E44.54206
G1 X203.962 Y60.808 E44.56693
G1 X204.212 Y61.513 E44.59181
G1 X204.386 Y62.241 E44.61671
G1 X204.481 Y62.983 E44.64159
G1 X204.5 Y63.5 E44.6588
G1 X204.5 Y171.5 E48.25089
G1 X204.46 Y172.247 E48.27577
G1 X204.341 Y172.985 E48.30063
G1 X204.143 Y173.707 E48.32554
G1 X203.87 Y174.403 E48.3504
G1 X203.523 Y175.066 E48.37529
G1 X203.108 Y175.689 E48.40019
G1 X202.629 Y176.263 E48.42505
G1 X202.092 Y176.784 E48.44994
G1 X201.502 Y177.243 E48.4748
G1 X200.866 Y177.638 E48.4997
G1 X200.192 Y177.962 E48.52458
G1 X199.487 Y178.212 E48.54945
G1 X198.759 Y178.386 E48.57435
G1 X198.017 Y178.481 E48.59923
G1 X197.5 Y178.5 E48.61644
G1 X37.5 Y178.5 E53.93806
G1 X36.753 Y178.46 E53.96294
G1 X36.015 Y178.341 E53.9878
G1 X35.293 Y178.143 E54.0127
G1 X34.597 Y177.87 E54.03757
G1 X33.934 Y177.523 E54.06246
G1 X33.311 Y177.108 E54.08736
G1 X32.737 Y176.629 E54.11222
G1 X32.216 Y176.092 E54.13711
G1 X31.757 Y175.502 E54.16197
G1 X31.362 Y174.866 E54.18687
G1 X31.038 Y174.192 E54.21174
G1 X30.788 Y173.487 E54.23662
G1 X30.614 Y172.759 E54.26152
G1 X30.519 Y172.017 E54.2864
G1 X30.5 Y171.5 E54.30361
G1 X30.5 Y63.5 E57.8957
G1 X30.54 Y62.753 E57.92058
G1 X30.659 Y62.015 E57.94544
G1 X30.857 Y61.293 E57.97034
G1 X31.13 Y60.597 E57.99521
G1 X31.477 Y59.934 E58.0201
G1 X31.892 Y59.311 E58.045
G1 X32.371 Y58.737 E58.06986
G1 X32.908 Y58.216 E58.09475
G1 X33.498 Y57.757 E58.11961
G0 F6000 X33.884 Y57.979
G1 F1200 X34.513 Y57.615 E58.14378
G1 X35.178 Y57.322 E58.16795
G1 X35.871 Y57.104 E58.19211
G1 X36.583 Y56.964 E58.21625
G1 X37.5 Y56.9 E58.24682
G1 X197.5 Y56.9 E63.56844
G1 X198.225 Y56.94 E63.59259
G1 X198.942 Y57.059 E63.61677
G1 X199.641 Y57.257 E63.64093
G1 X200.314 Y57.53 E63.66509
G1 X200.953 Y57.875 E63.68924
G1 X201.55 Y58.289 E63.7134
G1 X202.098 Y58.765 E63.73755
G1 X202.591 Y59.299 E63.76172
G1 X203.021 Y59.884 E63.78587
G1 X203.385 Y60.513 E63.81004
G1 X203.678 Y61.178 E63.83421
G1 X203.896 Y61.871 E63.85837
G1 X204.036 Y62.583 E63.88251
G1 X204.1 Y63.5 E63.91308
G1 X204.1 Y171.5 E67.50517
G1 X204.06 Y172.225 E67.52932
G1 X203.941 Y172.942 E67.5535
G1 X203.743 Y173.641 E67.57766
G1 X203.47 Y174.314 E67.60182
G1 X203.125 Y174.953 E67.62597
G1 X202.711 Y175.55 E67.65013
G1 X202.235 Y176.098 E67.67428
G1 X201.701 Y176.591 E67.69845
G1 X201.116 Y177.021 E67.7226
G1 X200.487 Y177.385 E67.74677
G1 X199.822 Y177.678 E67.77094
G1 X199.129 Y177.896 E67.7951
G1 X198.417 Y178.036 E67.81924
G1 X197.5 Y178.1 E67.84981
G1 X37.5 Y178.1 E73.17143
G1 X36.775 Y178.06 E73.19558
G1 X36.058 Y177.941 E73.21975
G1 X35.359 Y177.743 E73.24392
G1 X34.686 Y177.47 E73.26807
G1 X34.047 Y177.125 E73.29223
G1 X33.45 Y176.711 E73.31639
G1 X32.902 Y176.235 E73.34053
G1 X32.409 Y175.701 E73.36471
G1 X31.979 Y175.116 E73.38885
G1 X31.615 Y174.487 E73.41302
G1 X31.322 Y173.822 E73.43719
G1 X31.104 Y173.129 E73.46136
G1 X30.964 Y172.417 E73.48549
G1 X30.9 Y171.5 E73.51607
G1 X30.9 Y63.5 E77.10816
G1 X30.94 Y62.775 E77.13231
G1 X31.059 Y62.058 E77.15648
G1 X31.257 Y61.359 E77.18065
G1 X31.53 Y60.686 E77.2048
G1 X31.875 Y60.047 E77.22896
G1 X32.289 Y59.45 E77.25312
G1 X32.765 Y58.902 E77.27726
G1 X33.299 Y58.409 E77.30143
G1 X33.884 Y57.979 E77.32558
G0 F6000 X34.268 Y58.209
G1 F1200 X34.889 Y57.877 E77.349
G1 X35.543 Y57.617 E77.37241
G1 X36.223 Y57.433 E77.39584
G1 X36.919 Y57.327 E77.41926
G1 X37.5 Y57.3 E77.4386
G1 X197.5 Y57.3 E82.76022
G1 X198.203 Y57.34 E82.78364
G1 X198.897 Y57.459 E82.80706
G1 X199.572 Y57.657 E82.83046
G1 X200.221 Y57.929 E82.85387
G1 X200.835 Y58.274 E82.87729
G1 X201.406 Y58.685 E82.90069
G1 X201.927 Y59.159 E82.92412
G1 X202.391 Y59.689 E82.94755
G1 X202.791 Y60.268 E82.97095
G1 X203.123 Y60.889 E82.99437
G1 X203.383 Y61.543 E83.01778
G1 X203.567 Y62.223 E83.04121
G1 X203.673 Y62.919 E83.06463
G1 X203.7 Y63.5 E83.08397
G1 X203.7 Y171.5 E86.67607
G1 X203.66 Y172.203 E86.69949
G1 X203.541 Y172.897 E86.72291
G1 X203.343 Y173.572 E86.7463
G1 X203.071 Y174.221 E86.76971
G1 X202.726 Y174.835 E86.79313
G1 X202.315 Y175.406 E86.81653
G1 X201.841 Y175.927 E86.83996
G1 X201.311 Y176.391 E86.86339
G1 X200.732 Y176.791 E86.88679
G1 X200.111 Y177.123 E86.91021
G1 X199.457 Y177.383 E86.93362
G1 X198.777 Y177.567 E86.95705
G1 X198.081 Y177.673 E86.98047
G1 X197.5 Y177.7 E86.99981
G1 X37.5 Y177.7 E92.32144
G1 X36.797 Y177.66 E92.34486
G1 X36.103 Y177.541 E92.36827
G1 X35.428 Y177.343 E92.39167
G1 X34.779 Y177.071 E92.41508
G1 X34.165 Y176.726 E92.4385
G1 X33.594 Y176.315 E92.4619
G1 X33.073 Y175.841 E92.48533
G1 X32.609 Y175.311 E92.50876
G1 X32.209 Y174.732 E92.53216
G1 X31.877 Y174.111 E92.55558
G1 X31.617 Y173.457 E92.57899
G1 X31.433 Y172.777 E92.60242
G1 X31.327 Y172.081 E92.62584
G1 X31.3 Y171.5 E92.64518
G1 X31.3 Y63.5 E96.23728
G1 X31.34 Y62.797 E96.2607
G1 X31.459 Y62.103 E96.28412
G1 X31.657 Y61.428 E96.30751
G1 X31.929 Y60.779 E96.33092
G1 X32.274 Y60.165 E96.35434
G1 X32.685 Y59.594 E96.37774
G1 X33.159 Y59.073 E96.40117
G1 X33.689 Y58.609 E96.4246
G1 X34.268 Y58.209 E96.448
G0 F6000 X34.65 Y58.448
G1 F1200 X35.262 Y58.149 E96.47066
G1 X35.904 Y57.924 E96.49329
G1 X36.569 Y57.775 E96.51595
G1 X37.5 Y57.7 E96.54702
G1 X197.5 Y57.7 E101.86864
G1 X198.18 Y57.74 E101.8913
G1 X198.85 Y57.859 E101.91393
G1 X199.502 Y58.056 E101.93658
G1 X200.126 Y58.328 E101.95922
G1 X200.714 Y58.672 E101.98188
G1 X201.258 Y59.082 E102.00454
G1 X201.749 Y59.553 E102.02717
G1 X202.183 Y60.078 E102.04982
G1 X202.552 Y60.65 E102.07246
G1 X202.851 Y61.262 E102.09512
G1 X203.076 Y61.904 E102.11774
G1 X203.225 Y62.569 E102.14041
G1 X203.3 Y63.5 E102.17148
G1 X203.3 Y171.5 E105.76357
G1 X203.26 Y172.18 E105.78623
G1 X203.141 Y172.85 E105.80886
G1 X202.944 Y173.502 E105.83151
G1 X202.672 Y174.126 E105.85415
G1 X202.328 Y174.714 E105.87681
G1 X201.918 Y175.258 E105.89947
G1 X201.447 Y175.749 E105.9221
G1 X200.922 Y176.183 E105.94475
G1 X200.35 Y176.552 E105.96739
G1 X199.738 Y176.851 E105.99005
G1 X199.096 Y177.076 E106.01267
G1 X198.431 Y177.225 E106.03534
G1 X197.5 Y177.3 E106.06641
G1 X37.5 Y177.3 E111.38803
G1 X36.82 Y177.26 E111.41068
G1 X36.15 Y177.141 E111.43332
G1 X35.498 Y176.944 E111.45597
G1 X34.874 Y176.672 E111.47861
G1 X34.286 Y176.328 E111.50127
G1 X33.742 Y175.918 E111.52393
G1 X33.251 Y175.447 E111.54656
G1 X32.817 Y174.922 E111.56921
G1 X32.448 Y174.35 E111.59185
G1 X32.149 Y173.738 E111.61451
G1 X31.924 Y173.096 E111.63713
G1 X31.775 Y172.431 E111.6598
G1 X31.7 Y171.5 E111.69086
G1 X31.7 Y63.5 E115.28296
G1 X31.74 Y62.82 E115.30561
G1 X31.859 Y62.15 E115.32825
G1 X32.056 Y61.498 E115.3509
G1 X32.328 Y60.874 E115.37354
G1 X32.672 Y60.286 E115.3962
G1 X33.082 Y59.742 E115.41886
G1 X33.553 Y59.251 E115.44149
G1 X34.078 Y58.817 E115.46414
G1 X34.65 Y58.448 E115.48678
G0 F6000 X34.465 Y59.034
G1 F1200 X35.029 Y58.698 E115.50862
G1 X35.631 Y58.434 E115.53048
G1 X36.26 Y58.244 E115.55233
G1 X36.907 Y58.133 E115.57417
G1 X37.5 Y58.1 E115.59392
G1 X197.5 Y58.1 E120.91554
G1 X198.156 Y58.14 E120.9374
G1 X198.802 Y58.259 E120.95925
G1 X199.429 Y58.456 E120.98111
G1 X200.027 Y58.728 E121.00296
G1 X200.588 Y59.07 E121.02481
G1 X201.103 Y59.478 E121.04667
G1 X201.565 Y59.945 E121.06851
G1 X201.966 Y60.465 E121.09036
G1 X202.302 Y61.029 E121.11219
G1 X202.566 Y61.631 E121.13405
G1 X202.756 Y62.26 E121.15591
G1 X202.867 Y62.907 E121.17774
G1 X202.9 Y63.5 E121.1975
G1 X202.9 Y171.5 E124.78959
G1 X202.86 Y172.156 E124.81145
G1 X202.741 Y172.802 E124.8333
G1 X202.544 Y173.429 E124.85516
G1 X202.272 Y174.027 E124.87701
G1 X201.93 Y174.588 E124.89886
G1 X201.522 Y175.103 E124.92071
G1 X201.055 Y175.565 E124.94256
G1 X200.535 Y175.966 E124.9644
G1 X199.971 Y176.302 E124.98624
G1 X199.369 Y176.566 E125.0081
G1 X198.74 Y176.756 E125.02995
G1 X198.093 Y176.867 E125.05179
G1 X197.5 Y176.9 E125.07154
G1 X37.5 Y176.9 E130.39316
G1 X36.844 Y176.86 E130.41502
G1 X36.198 Y176.741 E130.43687
G1 X35.571 Y176.544 E130.45873
G1 X34.973 Y176.272 E130.48058
G1 X34.412 Y175.93 E130.50243
G1 X33.897 Y175.522 E130.52429
G1 X33.435 Y175.055 E130.54613
G1 X33.034 Y174.535 E130.56798
G1 X32.698 Y173.971 E130.58981
G1 X32.434 Y173.369 E130.61167
G1 X32.244 Y172.74 E130.63353
G1 X32.133 Y172.093 E130.65536
G1 X32.1 Y171.5 E130.67512
G1 X32.1 Y63.5 E134.26721
G1 X32.14 Y62.844 E134.28907
G1 X32.259 Y62.198 E134.31092
G1 X32.456 Y61.571 E134.33278
G1 X32.728 Y60.973 E134.35463
G1 X33.07 Y60.412 E134.37648
G1 X33.478 Y59.897 E134.39833
G1 X33.945 Y59.435 E134.42018
G1 X34.465 Y59.034 E134.44202
G0 F6000 X34.85 Y59.26
G1 F1200 X35.406 Y58.96 E134.46303
G1 X35.995 Y58.732 E134.48404
G1 X36.609 Y58.58 E134.50508
G1 X37.5 Y58.5 E134.53483
G1 X197.5 Y58.5 E139.85646
G1 X198.131 Y58.54 E139.87748
G1 X198.752 Y58.659 E139.89851
G1 X199.352 Y58.856 E139.91952
G1 X199.924 Y59.127 E139.94057
G1 X200.456 Y59.467 E139.96157
G1 X200.941 Y59.873 E139.98261
G1 X201.371 Y60.336 E140.00362
G1 X201.74 Y60.85 E140.02467
G1 X202.04 Y61.406 E140.04568
G1 X202.268 Y61.995 E140.06669
G1 X202.42 Y62.609 E140.08773
G1 X202.5 Y63.5 E140.11748
G1 X202.5 Y171.5 E143.70957
G1 X202.46 Y172.131 E143.7306
G1 X202.341 Y172.752 E143.75163
G1 X202.144 Y173.352 E143.77264
G1 X201.873 Y173.924 E143.79369
G1 X201.533 Y174.456 E143.81469
G1 X201.127 Y174.941 E143.83573
G1 X200.664 Y175.371 E143.85674
G1 X200.15 Y175.74 E143.87779
G1 X199.594 Y176.04 E143.8988
G1 X199.005 Y176.268 E143.91981
G1 X198.391 Y176.42 E143.94085
G1 X197.5 Y176.5 E143.9706
G1 X37.5 Y176.5 E149.29222
G1 X36.869 Y176.46 E149.31325
G1 X36.248 Y176.341 E149.33428
G1 X35.648 Y176.144 E149.35529
G1 X35.076 Y175.873 E149.37634
G1 X34.544 Y175.533 E149.39734
G1 X34.059 Y175.127 E149.41837
G1 X33.629 Y174.664 E149.43939
G1 X33.26 Y174.15 E149.46044
G1 X32.96 Y173.594 E149.48145
G1 X32.732 Y173.005 E149.50246
G1 X32.58 Y172.391 E149.52349
G1 X32.5 Y171.5 E149.55325
G1 X32.5 Y63.5 E153.14534
G1 X32.54 Y62.869 E153.16637
G1 X32.659 Y62.248 E153.1874
G1 X32.856 Y61.648 E153.20841
G1 X33.127 Y61.076 E153.22946
G1 X33.467 Y60.544 E153.25046
G1 X33.873 Y60.059 E153.27149
G1 X34.336 Y59.629 E153.29251
G1 X34.85 Y59.26 E153.31356
G0 F6000 X35.232 Y59.498
G1 F1200 X35.778 Y59.234 E153.33373
G1 X36.354 Y59.045 E153.35389
G1 X36.95 Y58.933 E153.37406
G1 X37.5 Y58.9 E153.39239
G1 X197.5 Y58.9 E158.71401
G1 X198.105 Y58.94 E158.73417
G1 X198.699 Y59.059 E158.75432
G1 X199.273 Y59.255 E158.7745
G1 X199.816 Y59.526 E158.79468
G1 X200.319 Y59.865 E158.81486
G1 X200.772 Y60.267 E158.835
G1 X201.169 Y60.725 E158.85516
G1 X201.502 Y61.232 E158.87533
G1 X201.766 Y61.778 E158.89551
G1 X201.955 Y62.354 E158.91567
G1 X202.067 Y62.95 E158.93584
G1 X202.1 Y63.5 E158.95416
G1 X202.1 Y171.5 E162.54626
G1 X202.06 Y172.105 E162.56642
G1 X201.941 Y172.699 E162.58657
G1 X201.745 Y173.273 E162.60675
G1 X201.474 Y173.816 E162.62693
G1 X201.135 Y174.319 E162.64711
G1 X200.733 Y174.772 E162.66725
G1 X200.275 Y175.169 E162.68741
