;FLAVOR:Marlin
;TIME:16213
;Filament used: 17.3695m
;Layer height: 0.16
;MINX:24
;MINY:43
;MINZ:0.2
;MAXX:211
;MAXY:192
;MAXZ:3.4
;Generated with Cura_SteamEngine 4.10.0
M140 S50
M105
M190 S50
M104 S200
M105
M109 S200
M82 ;absolute extrusion mode
; Ender 3 Custom Start G-code
G92 E0 ; Reset Extruder
G28 ; Home all axes
G1 Z2.0 F3000 ; Move Z Axis up little to prevent scratching of Heat Bed
G1 X0.1 Y20 Z0.3 F5000.0 ; Move to start position
G1 X0.1 Y200.0 Z0.3 F1500.0 E15 ; Draw the first line
G1 X0.4 Y200.0 Z0.3 F5000.0 ; Move to side a little
G1 X0.4 Y20 Z0.3 F1500.0 E30 ; Draw the second line
G92 E0 ; Reset Extruder
G1 Z2.0 F3000 ; Move Z Axis up little to prevent scratching of Heat Bed
G1 X5 Y20 Z0.3 F5000.0 ; Move over to prevent blob squish
G92 E0
G92 E0
G1 F2700 E-5
;LAYER_COUNT:18
;LAYER:0
M107
G0 F6000 X29.412 Y44.539 Z0.2
;TYPE:SKIRT
G1 F2700 E0
G1 F1200 X30.239 Y44.097 E0.03119
G1 X31.101 Y43.727 E0.06239
G1 X31.991 Y43.431 E0.09358
G1 X32.903 Y43.213 E0.12477
G1 X33.83 Y43.072 E0.15596
G1 X34.701 Y43.013 E0.18499
G1 X35.022 Y43.004 E0.19567
G1 X35.33 Y43 E0.20592
G1 X199.293 Y43 E5.65935
G1 X200.149 Y43.011 E5.68782
G1 X201.085 Y43.065 E5.71901
G1 X202.013 Y43.197 E5.75018
G1 X202.927 Y43.409 E5.78139
G1 X203.819 Y43.698 E5.81258
G1 X204.684 Y44.061 E5.84378
G1 X205.514 Y44.497 E5.87496
G1 X206.305 Y45.002 E5.90617
G1 X207.049 Y45.573 E5.93737
G1 X207.742 Y46.205 E5.96856
G1 X208.379 Y46.893 E5.99975
G1 X208.954 Y47.634 E6.03094
G1 X209.465 Y48.42 E6.06212
G1 X209.907 Y49.248 E6.09334
G1 X210.276 Y50.11 E6.12453
G1 X210.571 Y51 E6.15571
G1 X210.789 Y51.912 E6.1869
G1 X210.929 Y52.84 E6.21812
G1 X210.987 Y53.701 E6.24682
G1 X210.996 Y54.021 E6.25747
G1 X211 Y54.33 E6.26774
G1 X210.999 Y180.4 E10.46085
G1 X210.99 Y181.127 E10.48503
G1 X210.939 Y182.064 E10.51624
G1 X210.807 Y182.992 E10.54742
G1 X210.598 Y183.906 E10.5786
G1 X210.311 Y184.799 E10.6098
G1 X209.949 Y185.665 E10.64102
G1 X209.515 Y186.496 E10.6722
G1 X209.011 Y187.287 E10.7034
G1 X208.442 Y188.032 E10.73457
G1 X207.811 Y188.727 E10.7658
G1 X207.124 Y189.365 E10.79698
G1 X206.385 Y189.942 E10.82816
G1 X205.599 Y190.454 E10.85936
G1 X204.773 Y190.897 E10.89054
G1 X203.911 Y191.269 E10.92176
G1 X203.022 Y191.565 E10.95293
G1 X202.11 Y191.785 E10.98413
G1 X201.183 Y191.926 E11.01532
G1 X200.299 Y191.987 E11.04479
G1 X199.978 Y191.996 E11.05547
G1 X199.67 Y192 E11.06572
G1 X35.565 Y191.999 E16.52387
G1 X34.867 Y191.99 E16.54709
G1 X33.931 Y191.938 E16.57827
G1 X33.002 Y191.806 E16.60948
G1 X32.088 Y191.596 E16.64067
G1 X31.195 Y191.309 E16.67187
G1 X30.33 Y190.946 E16.70307
G1 X29.499 Y190.512 E16.73425
G1 X28.708 Y190.008 E16.76544
G1 X27.963 Y189.438 E16.79664
G1 X27.269 Y188.807 E16.82784
G1 X26.632 Y188.12 E16.859
G1 X26.055 Y187.38 E16.89021
G1 X25.543 Y186.594 E16.92141
G1 X25.1 Y185.767 E16.95261
G1 X24.729 Y184.906 E16.9838
G1 X24.433 Y184.016 E17.01499
G1 X24.214 Y183.104 E17.04619
G1 X24.073 Y182.177 E17.07737
G1 X24.013 Y181.288 E17.10701
G1 X24.004 Y180.955 E17.11809
G1 X24 Y180.658 E17.12797
G1 X24.001 Y54.525 E21.32317
G1 X24.01 Y53.86 E21.34529
G1 X24.063 Y52.924 E21.37647
G1 X24.195 Y51.995 E21.40768
G1 X24.406 Y51.081 E21.43888
G1 X24.694 Y50.189 E21.47006
G1 X25.057 Y49.324 E21.50126
G1 X25.492 Y48.493 E21.53245
G1 X25.996 Y47.703 E21.56362
G1 X26.566 Y46.958 E21.59482
G1 X27.198 Y46.264 E21.62604
G1 X27.886 Y45.627 E21.65722
G1 X28.626 Y45.051 E21.68841
G1 X29.412 Y44.539 E21.71961
G0 F6000 X29.791 Y44.782
G1 F1200 X30.611 Y44.364 E21.75023
G1 X31.465 Y44.019 E21.78086
G1 X32.345 Y43.749 E21.81148
G1 X33.245 Y43.557 E21.84208
G1 X34.159 Y43.443 E21.87272
G1 X34.712 Y43.413 E21.89114
G1 X35.033 Y43.404 E21.90182
G1 X35.33 Y43.4 E21.9117
G1 X199.293 Y43.4 E27.36513
G1 X200.143 Y43.411 E27.3934
G1 X201.062 Y43.464 E27.42402
G1 X201.973 Y43.597 E27.45464
G1 X202.869 Y43.808 E27.48526
G1 X203.743 Y44.096 E27.51587
G1 X204.59 Y44.459 E27.54651
G1 X205.401 Y44.894 E27.57712
G1 X206.171 Y45.398 E27.60773
G1 X206.895 Y45.967 E27.63836
G1 X207.567 Y46.597 E27.669
G1 X208.182 Y47.282 E27.69962
G1 X208.735 Y48.018 E27.73023
G1 X209.222 Y48.799 E27.76085
G1 X209.639 Y49.62 E27.79147
G1 X209.984 Y50.474 E27.82211
G1 X210.253 Y51.354 E27.85271
G1 X210.445 Y52.255 E27.88335
G1 X210.558 Y53.168 E27.91395
G1 X210.587 Y53.712 E27.93207
G1 X210.596 Y54.032 E27.94272
G1 X210.6 Y54.33 E27.95263
G1 X210.599 Y180.395 E32.14557
G1 X210.59 Y181.122 E32.16975
G1 X210.539 Y182.041 E32.20037
G1 X210.408 Y182.953 E32.23101
G1 X210.198 Y183.849 E32.26162
G1 X209.912 Y184.724 E32.29224
G1 X209.551 Y185.571 E32.32286
G1 X209.117 Y186.383 E32.35348
G1 X208.615 Y187.155 E32.38411
G1 X208.047 Y187.88 E32.41474
G1 X207.419 Y188.553 E32.44536
G1 X206.735 Y189.169 E32.47598
G1 X206 Y189.723 E32.50659
G1 X205.22 Y190.212 E32.53721
G1 X204.4 Y190.631 E32.56783
G1 X203.547 Y190.977 E32.59845
G1 X202.667 Y191.248 E32.62908
G1 X201.767 Y191.441 E32.65969
G1 X200.853 Y191.556 E32.69033
G1 X200.288 Y191.587 E32.70915
G1 X199.967 Y191.596 E32.71983
G1 X199.67 Y191.6 E32.72971
G1 X35.57 Y191.599 E38.1877
G1 X34.872 Y191.59 E38.21092
G1 X33.953 Y191.538 E38.24153
G1 X33.042 Y191.407 E38.27214
G1 X32.146 Y191.197 E38.30275
G1 X31.271 Y190.91 E38.33338
G1 X30.424 Y190.548 E38.36402
G1 X29.612 Y190.114 E38.39464
G1 X28.841 Y189.612 E38.42524
G1 X28.116 Y189.044 E38.45587
G1 X27.443 Y188.415 E38.48651
G1 X26.828 Y187.731 E38.5171
G1 X26.274 Y186.996 E38.54772
G1 X25.786 Y186.215 E38.57835
G1 X25.367 Y185.395 E38.60897
G1 X25.021 Y184.542 E38.63959
G1 X24.751 Y183.662 E38.67021
G1 X24.558 Y182.761 E38.70085
G1 X24.444 Y181.848 E38.73146
G1 X24.413 Y181.277 E38.75047
G1 X24.404 Y180.944 E38.76155
G1 X24.4 Y180.658 E38.77107
G1 X24.401 Y54.531 E42.96607
G1 X24.41 Y53.866 E42.98819
G1 X24.462 Y52.946 E43.01884
G1 X24.594 Y52.035 E43.04945
G1 X24.805 Y51.139 E43.08007
G1 X25.092 Y50.264 E43.1107
G1 X25.455 Y49.418 E43.14132
G1 X25.889 Y48.606 E43.17194
G1 X26.392 Y47.835 E43.20256
G1 X26.961 Y47.111 E43.23318
G1 X27.589 Y46.439 E43.26378
G1 X28.274 Y45.823 E43.29442
G1 X29.01 Y45.27 E43.32504
G1 X29.791 Y44.782 E43.35567
G0 F6000 X30.169 Y45.031
G1 F1200 X30.982 Y44.638 E43.3857
G1 X31.827 Y44.318 E43.41575
G1 X32.696 Y44.075 E43.44576
G1 X33.584 Y43.909 E43.47581
G1 X34.723 Y43.813 E43.51383
G1 X35.044 Y43.804 E43.52451
G1 X35.33 Y43.8 E43.53402
G1 X199.293 Y43.8 E48.98745
G1 X200.137 Y43.811 E49.01553
G1 X201.039 Y43.864 E49.04558
G1 X201.932 Y43.996 E49.07561
G1 X202.81 Y44.207 E49.10564
G1 X203.666 Y44.495 E49.13568
G1 X204.493 Y44.857 E49.1657
G1 X205.285 Y45.292 E49.19576
G1 X206.036 Y45.794 E49.2258
G1 X206.739 Y46.361 E49.25584
G1 X207.389 Y46.988 E49.28588
G1 X207.981 Y47.67 E49.31592
G1 X208.511 Y48.401 E49.34595
G1 X208.973 Y49.177 E49.37599
G1 X209.366 Y49.99 E49.40602
G1 X209.684 Y50.835 E49.43605
G1 X209.927 Y51.705 E49.46609
G1 X210.092 Y52.593 E49.49613
G1 X210.187 Y53.723 E49.53385
G1 X210.196 Y54.043 E49.5445
G1 X210.2 Y54.33 E49.55404
G1 X210.199 Y180.39 E53.74682
G1 X210.19 Y181.117 E53.771
G1 X210.139 Y182.019 E53.80105
G1 X210.008 Y182.913 E53.8311
G1 X209.799 Y183.791 E53.86112
G1 X209.513 Y184.648 E53.89117
G1 X209.152 Y185.476 E53.92121
G1 X208.72 Y186.268 E53.95122
G1 X208.219 Y187.02 E53.98127
G1 X207.653 Y187.724 E54.01131
G1 X207.028 Y188.375 E54.04133
G1 X206.347 Y188.969 E54.07139
G1 X205.616 Y189.5 E54.10144
G1 X204.842 Y189.964 E54.13145
G1 X204.029 Y190.358 E54.1615
G1 X203.185 Y190.678 E54.19152
G1 X202.315 Y190.923 E54.22158
G1 X201.428 Y191.089 E54.2516
G1 X200.277 Y191.187 E54.29002
G1 X199.956 Y191.196 E54.3007
G1 X199.67 Y191.2 E54.31021
G1 X35.575 Y191.199 E59.76803
G1 X34.877 Y191.19 E59.79125
G1 X33.976 Y191.139 E59.82127
G1 X33.082 Y191.007 E59.85132
G1 X32.204 Y190.798 E59.88134
G1 X31.347 Y190.511 E59.9114
G1 X30.52 Y190.15 E59.94141
G1 X29.727 Y189.717 E59.97147
G1 X28.976 Y189.216 E60.00149
G1 X28.272 Y188.65 E60.03154
G1 X27.621 Y188.024 E60.06157
G1 X27.028 Y187.343 E60.09161
G1 X26.498 Y186.612 E60.12164
G1 X26.034 Y185.837 E60.15168
G1 X25.64 Y185.024 E60.18173
G1 X25.32 Y184.18 E60.21175
G1 X25.076 Y183.31 E60.24181
G1 X24.91 Y182.422 E60.27185
G1 X24.813 Y181.267 E60.3104
G1 X24.804 Y180.934 E60.32148
G1 X24.8 Y180.658 E60.33066
G1 X24.801 Y54.536 E64.5255
G1 X24.81 Y53.871 E64.54762
G1 X24.862 Y52.969 E64.57767
G1 X24.994 Y52.076 E64.60769
G1 X25.204 Y51.198 E64.63772
G1 X25.491 Y50.341 E64.66778
G1 X25.853 Y49.514 E64.6978
G1 X26.286 Y48.722 E64.72783
G1 X26.788 Y47.971 E64.75787
G1 X27.355 Y47.267 E64.78794
G1 X27.981 Y46.617 E64.81795
G1 X28.662 Y46.024 E64.84799
G1 X29.394 Y45.494 E64.87804
G1 X30.169 Y45.031 E64.90807
G1 F2700 E59.90807
;MESH:ControlPanelFront.stl
G0 F6000 X52.517 Y76.8
G0 X51.179 Y75.473
G0 X50.678 Y77.936
G0 X50.678 Y80.064
G0 X51.669 Y81.953
G0 X53.422 Y83.163
G0 X55.536 Y83.418
G0 X57.857 Y83.14
;TYPE:WALL-INNER
G1 F2700 E64.90807
G1 F1200 X59.454 Y81.337 E64.98818
G1 X60.03 Y79 E65.06823
G1 X59.454 Y76.663 E65.14829
G1 X57.857 Y74.86 E65.2284
G1 X55.607 Y74.007 E65.30843
G1 X53.217 Y74.297 E65.38851
G1 X51.236 Y75.664 E65.46856
G1 X50.116 Y77.796 E65.54866
G1 X50.116 Y80.204 E65.62875
G1 X51.236 Y82.336 E65.70885
G1 X51.317 Y82.391 E65.71211
G1 X53.217 Y83.703 E65.7889
G1 X55.607 Y83.993 E65.86898
G1 X57.857 Y83.14 E65.94901
G0 F6000 X57.623 Y82.801
G1 F1200 X59.089 Y81.146 E66.02255
G1 X59.618 Y79 E66.09606
G1 X59.089 Y76.854 E66.16957
G1 X57.623 Y75.199 E66.24311
G1 X55.557 Y74.416 E66.31659
G1 X53.363 Y74.682 E66.3901
G1 X51.544 Y75.937 E66.4636
G1 X50.516 Y77.895 E66.53715
G1 X50.516 Y80.105 E66.61066
G1 X51.544 Y82.063 E66.68421
G1 X53.363 Y83.318 E66.75772
G1 X55.557 Y83.584 E66.83122
G1 X57.623 Y82.801 E66.90471
G0 F6000 X57.389 Y82.462
;TYPE:WALL-OUTER
G1 F1200 X58.724 Y80.955 E66.97167
G1 X59.206 Y79 E67.03864
G1 X58.724 Y77.045 E67.10561
G1 X57.389 Y75.538 E67.17257
G1 X55.507 Y74.825 E67.23951
G1 X53.509 Y75.067 E67.30645
G1 X51.852 Y76.21 E67.3734
G1 X50.916 Y77.994 E67.44041
G1 X50.916 Y80.006 E67.50733
G1 X51.852 Y81.79 E67.57433
G1 X53.509 Y82.933 E67.64129
G1 X55.507 Y83.175 E67.70823
G1 X57.389 Y82.462 E67.77516
G0 F6000 X57.638 Y82.824
G1 F2700 E62.77516
G0 F6000 X59.629 Y81.429
G0 X57.937 Y80.542
G0 X89.517 Y81.2
G0 X88.088 Y82.466
G0 X92.607 Y83.993
;TYPE:WALL-INNER
G1 F2700 E67.77516
G1 F1200 X94.857 Y83.14 E67.8552
G1 X96.454 Y81.337 E67.93531
G1 X97.03 Y79 E68.01536
G1 X96.454 Y76.663 E68.09542
G1 X94.857 Y74.86 E68.17552
G1 X92.607 Y74.007 E68.25556
G1 X90.217 Y74.297 E68.33563
G1 X88.236 Y75.664 E68.41569
G1 X87.116 Y77.796 E68.49578
G1 X87.116 Y80.204 E68.57588
G1 X88.236 Y82.336 E68.65598
G1 X88.317 Y82.391 E68.65923
G1 X90.217 Y83.703 E68.73603
G1 X92.607 Y83.993 E68.8161
G0 F6000 X92.557 Y83.584
G1 F1200 X94.623 Y82.801 E68.88959
G1 X96.089 Y81.146 E68.96312
G1 X96.618 Y79 E69.03664
G1 X96.089 Y76.854 E69.11015
G1 X94.623 Y75.199 E69.18368
G1 X92.557 Y74.416 E69.25717
G1 X90.363 Y74.682 E69.33068
G1 X88.544 Y75.937 E69.40418
G1 X87.516 Y77.895 E69.47773
G1 X87.516 Y80.105 E69.55124
G1 X88.544 Y82.063 E69.62479
G1 X90.363 Y83.318 E69.69829
G1 X92.557 Y83.584 E69.7718
G0 F6000 X92.507 Y83.175
;TYPE:WALL-OUTER
G1 F1200 X94.389 Y82.462 E69.83874
G1 X95.724 Y80.955 E69.9057
G1 X96.206 Y79 E69.97267
G1 X95.724 Y77.045 E70.03964
G1 X94.389 Y75.538 E70.1066
G1 X92.507 Y74.825 E70.17354
G1 X90.509 Y75.067 E70.24048
G1 X88.852 Y76.21 E70.30743
G1 X87.916 Y77.994 E70.37444
G1 X87.916 Y80.006 E70.44136
G1 X88.852 Y81.79 E70.50836
G1 X90.509 Y82.933 E70.57532
G1 X92.507 Y83.175 E70.64226
G0 F6000 X92.56 Y83.611
G1 F2700 E65.64226
G0 F6000 X94.153 Y82.845
G0 X96.629 Y81.429
G0 X94.937 Y80.542
G0 X126.517 Y81.2
G0 X125.088 Y82.466
G0 X129.607 Y83.993
;TYPE:WALL-INNER
G1 F2700 E70.64226
G1 F1200 X131.857 Y83.14 E70.72229
G1 X133.454 Y81.337 E70.8024
G1 X134.03 Y79 E70.88245
G1 X133.454 Y76.663 E70.96251
G1 X131.857 Y74.86 E71.04262
G1 X129.607 Y74.007 E71.12265
G1 X127.217 Y74.297 E71.20273
G1 X125.236 Y75.664 E71.28278
G1 X124.116 Y77.796 E71.36288
G1 X124.116 Y80.204 E71.44297
G1 X125.236 Y82.336 E71.52307
G1 X125.317 Y82.391 E71.52632
G1 X127.217 Y83.703 E71.60312
G1 X129.607 Y83.993 E71.6832
G0 F6000 X129.557 Y83.584
G1 F1200 X131.623 Y82.801 E71.75668
G1 X133.089 Y81.146 E71.83022
G1 X133.618 Y79 E71.90373
G1 X133.089 Y76.854 E71.97724
G1 X131.623 Y75.199 E72.05078
G1 X129.557 Y74.416 E72.12426
G1 X127.363 Y74.682 E72.19777
G1 X125.544 Y75.937 E72.27127
G1 X124.516 Y77.895 E72.34483
G1 X124.516 Y80.105 E72.41833
G1 X125.544 Y82.063 E72.49188
G1 X127.363 Y83.318 E72.56539
G1 X129.557 Y83.584 E72.63889
G0 F6000 X129.507 Y83.175
;TYPE:WALL-OUTER
G1 F1200 X131.389 Y82.462 E72.70583
G1 X132.724 Y80.955 E72.77279
G1 X133.206 Y79 E72.83976
G1 X132.724 Y77.045 E72.90673
G1 X131.389 Y75.538 E72.9737
G1 X129.507 Y74.825 E73.04063
G1 X127.509 Y75.067 E73.10757
G1 X125.852 Y76.21 E73.17452
G1 X124.916 Y77.994 E73.24153
G1 X124.916 Y80.006 E73.30845
G1 X125.852 Y81.79 E73.37546
G1 X127.509 Y82.933 E73.44241
G1 X129.507 Y83.175 E73.50935
G0 F6000 X129.56 Y83.611
G1 F2700 E68.50935
G0 F6000 X131.153 Y82.845
G0 X133.629 Y81.429
G0 X131.937 Y80.542
G0 X163.517 Y81.2
G0 X162.088 Y82.466
G0 X164.217 Y83.703
;TYPE:WALL-INNER
G1 F2700 E73.50935
G1 F1200 X166.607 Y83.993 E73.58942
G1 X168.857 Y83.14 E73.66946
G1 X170.454 Y81.337 E73.74957
G1 X171.03 Y79 E73.82962
G1 X170.454 Y76.663 E73.90968
G1 X168.857 Y74.86 E73.98979
G1 X166.607 Y74.007 E74.06982
G1 X164.217 Y74.297 E74.14989
G1 X162.236 Y75.664 E74.22995
G1 X161.116 Y77.796 E74.31005
G1 X161.116 Y80.204 E74.39014
G1 X162.236 Y82.336 E74.47024
G1 X162.317 Y82.391 E74.47349
G1 X164.217 Y83.703 E74.55029
G0 F6000 X164.363 Y83.318
G1 F1200 X166.557 Y83.584 E74.6238
G1 X168.623 Y82.801 E74.69728
G1 X170.089 Y81.146 E74.77082
G1 X170.618 Y79 E74.84433
G1 X170.089 Y76.854 E74.91784
G1 X168.623 Y75.199 E74.99138
G1 X166.557 Y74.416 E75.06486
G1 X164.363 Y74.682 E75.13837
G1 X162.544 Y75.937 E75.21187
G1 X161.516 Y77.895 E75.28543
G1 X161.516 Y80.105 E75.35893
G1 X162.544 Y82.063 E75.43248
G1 X164.363 Y83.318 E75.50599
G0 F6000 X164.509 Y82.933
;TYPE:WALL-OUTER
G1 F1200 X166.507 Y83.175 E75.57293
G1 X168.389 Y82.462 E75.63986
G1 X169.724 Y80.955 E75.70683
G1 X170.206 Y79 E75.7738
G1 X169.724 Y77.045 E75.84077
G1 X168.389 Y75.538 E75.90773
G1 X166.507 Y74.825 E75.97467
G1 X164.509 Y75.067 E76.04161
G1 X162.852 Y76.21 E76.10856
G1 X161.916 Y77.994 E76.17556
G1 X161.916 Y80.006 E76.24248
G1 X162.852 Y81.79 E76.30949
G1 X164.509 Y82.933 E76.37644
G0 F6000 X164.354 Y83.344
G1 F2700 E71.37644
G0 F6000 X166.631 Y84.189
G0 X166.4 Y82.292
G0 X166.4 Y112.708
G0 X166.631 Y110.811
G0 X164.422 Y111.837
G0 X162.669 Y113.047
G0 X161.678 Y114.936
G0 X161.678 Y117.064
G0 X162.669 Y118.952
G0 X164.217 Y120.703
;TYPE:WALL-INNER
G1 F2700 E76.37644
G1 F1200 X166.607 Y120.993 E76.45652
G1 X168.857 Y120.14 E76.53655
G1 X170.454 Y118.337 E76.61666
G1 X171.03 Y116 E76.69671
G1 X170.454 Y113.663 E76.77677
G1 X168.857 Y111.86 E76.85688
G1 X166.607 Y111.007 E76.93691
G1 X164.217 Y111.297 E77.01699
G1 X162.236 Y112.664 E77.09704
G1 X161.116 Y114.796 E77.17714
G1 X161.116 Y117.204 E77.25723
G1 X162.236 Y119.335 E77.3373
G1 X164.217 Y120.703 E77.41737
G0 F6000 X164.363 Y120.318
G1 F1200 X166.557 Y120.584 E77.49088
G1 X168.623 Y119.801 E77.56436
G1 X170.089 Y118.146 E77.6379
G1 X170.618 Y116 E77.71141
G1 X170.089 Y113.854 E77.78493
G1 X168.623 Y112.199 E77.85846
G1 X166.557 Y111.416 E77.93195
G1 X164.363 Y111.682 E78.00545
G1 X162.544 Y112.937 E78.07896
G1 X161.516 Y114.895 E78.15251
G1 X161.516 Y117.105 E78.22601
G1 X162.544 Y119.062 E78.29954
G1 X164.363 Y120.318 E78.37306
G0 F6000 X164.509 Y119.933
;TYPE:WALL-OUTER
G1 F1200 X166.507 Y120.175 E78.44
G1 X168.389 Y119.462 E78.50694
G1 X169.724 Y117.955 E78.5739
G1 X170.206 Y116 E78.64087
G1 X169.724 Y114.045 E78.70784
G1 X168.389 Y112.538 E78.7748
G1 X166.507 Y111.825 E78.84174
G1 X164.509 Y112.067 E78.90868
G1 X162.852 Y113.21 E78.97563
G1 X161.916 Y114.994 E79.04264
G1 X161.916 Y117.006 E79.10956
G1 X162.852 Y118.789 E79.17653
G1 X164.509 Y119.933 E79.2435
G0 F6000 X164.354 Y120.344
G1 F2700 E74.2435
