;FLAVOR:Marlin
;TIME:8638
;Filament used: 5.55862m
;Layer height: 0.16
;MINX:39.7
;MINY:78.2
;MINZ:0.2
;MAXX:195.3
;MAXY:144.318
;MAXZ:19.96
;Generated with Cura_SteamEngine 4.10.0
M140 S50
M105
M190 S50
M104 S200
M105
M109 S200
M82 ;absolute extrusion mode
; Ender 3 Custom Start G-code
G92 E0 ; Reset Extruder
G28 ; Home all axes
G1 Z2.0 F3000 ; Move Z Axis up little to prevent scratching of Heat Bed
G1 X0.1 Y20 Z0.3 F5000.0 ; Move to start position
G1 X0.1 Y200.0 Z0.3 F1500.0 E15 ; Draw the first line
G1 X0.4 Y200.0 Z0.3 F5000.0 ; Move to side a little
G1 X0.4 Y20 Z0.3 F1500.0 E30 ; Draw the second line
G92 E0 ; Reset Extruder
G1 Z2.0 F3000 ; Move Z Axis up little to prevent scratching of Heat Bed
G1 X5 Y20 Z0.3 F5000.0 ; Move over to prevent blob squish
G92 E0
G92 E0
G1 F2700 E-5
;LAYER_COUNT:117
;LAYER:0
M107
G0 F6000 X100.33 Y81.039 Z0.2
;TYPE:SKIRT
G1 F2700 E0
G1 F1200 X100.735 Y80.602 E0.01982
G1 X100.852 Y80.485 E0.02532
G1 X101.438 Y79.955 E0.0516
G1 X102.074 Y79.488 E0.07784
G1 X102.754 Y79.087 E0.1041
G1 X103.472 Y78.757 E0.13038
G1 X104.219 Y78.502 E0.15664
G1 X104.988 Y78.323 E0.1829
G1 X105.772 Y78.223 E0.20918
G1 X106.367 Y78.2 E0.22899
G1 X128.633 Y78.2 E0.96956
G1 X129.422 Y78.24 E0.99583
G1 X130.202 Y78.359 E1.02208
G1 X130.967 Y78.557 E1.04836
G1 X131.707 Y78.831 E1.07461
G1 X132.416 Y79.179 E1.10087
G1 X133.087 Y79.597 E1.12717
G1 X133.711 Y80.08 E1.15341
G1 X134.148 Y80.485 E1.17323
G1 X134.265 Y80.602 E1.17873
G1 X134.795 Y81.188 E1.20501
G1 X135.262 Y81.824 E1.23126
G1 X135.663 Y82.504 E1.25751
G1 X135.993 Y83.222 E1.2838
G1 X136.248 Y83.969 E1.31005
G1 X136.427 Y84.738 E1.33631
G1 X136.527 Y85.522 E1.3626
G1 X136.55 Y86.117 E1.3824
G1 X136.55 Y105.883 E2.03982
G1 X136.502 Y106.827 E2.07126
G1 X136.527 Y107.022 E2.0778
G1 X136.55 Y107.617 E2.0976
G1 X136.55 Y123.684 E2.63199
G1 X187.383 Y123.684 E4.32271
G1 X188.172 Y123.724 E4.34898
G1 X188.952 Y123.843 E4.37522
G1 X189.717 Y124.041 E4.40151
G1 X190.457 Y124.315 E4.42775
G1 X191.166 Y124.663 E4.45402
G1 X191.837 Y125.08 E4.4803
G1 X192.461 Y125.564 E4.50656
G1 X192.898 Y125.969 E4.52638
G1 X193.015 Y126.086 E4.53188
G1 X193.545 Y126.672 E4.55816
G1 X194.012 Y127.308 E4.58441
G1 X194.413 Y127.988 E4.61066
G1 X194.743 Y128.706 E4.63695
G1 X194.998 Y129.453 E4.6632
G1 X195.177 Y130.222 E4.68946
G1 X195.277 Y131.006 E4.71575
G1 X195.3 Y131.601 E4.73555
G1 X195.3 Y131.799 E4.74214
G1 X195.28 Y132.196 E4.75536
G1 X195.3 Y132.716 E4.77267
G1 X195.3 Y135.282 E4.85801
G1 X195.279 Y135.692 E4.87167
G1 X195.29 Y135.797 E4.87518
G1 X195.3 Y136.199 E4.88855
G1 X195.3 Y136.401 E4.89527
G1 X195.26 Y137.19 E4.92155
G1 X195.141 Y137.97 E4.94779
G1 X194.943 Y138.735 E4.97407
G1 X194.669 Y139.475 E5.00032
G1 X194.321 Y140.184 E5.02659
G1 X193.903 Y140.855 E5.05288
G1 X193.42 Y141.479 E5.07912
G1 X193.015 Y141.916 E5.09894
G1 X192.898 Y142.033 E5.10445
G1 X192.312 Y142.563 E5.13072
G1 X191.676 Y143.03 E5.15697
G1 X190.996 Y143.431 E5.18322
G1 X190.278 Y143.761 E5.20951
G1 X189.531 Y144.016 E5.23576
G1 X188.762 Y144.195 E5.26202
G1 X187.978 Y144.295 E5.28831
G1 X187.383 Y144.318 E5.30811
G1 X47.617 Y144.318 E9.95675
G1 X46.828 Y144.278 E9.98302
G1 X46.048 Y144.159 E10.00927
G1 X45.283 Y143.961 E10.03555
G1 X44.543 Y143.687 E10.0618
G1 X43.834 Y143.339 E10.08806
G1 X43.163 Y142.921 E10.11436
G1 X42.539 Y142.438 E10.1406
G1 X42.102 Y142.033 E10.16042
G1 X41.985 Y141.916 E10.16592
G1 X41.455 Y141.33 E10.1922
G1 X40.988 Y140.694 E10.21845
G1 X40.587 Y140.014 E10.2447
G1 X40.257 Y139.296 E10.27099
G1 X40.002 Y138.549 E10.29724
G1 X39.823 Y137.78 E10.3235
G1 X39.723 Y136.996 E10.34979
G1 X39.7 Y136.401 E10.36959
G1 X39.7 Y136.199 E10.37631
G1 X39.72 Y135.797 E10.3897
G1 X39.7 Y135.282 E10.40684
G1 X39.7 Y132.717 E10.49215
G1 X39.721 Y132.307 E10.50581
G1 X39.71 Y132.202 E10.50932
G1 X39.7 Y131.8 E10.52269
G1 X39.7 Y131.602 E10.52928
G1 X39.74 Y130.813 E10.55555
G1 X39.859 Y130.033 E10.5818
G1 X40.057 Y129.268 E10.60808
G1 X40.331 Y128.528 E10.63432
G1 X40.679 Y127.819 E10.66059
G1 X41.097 Y127.148 E10.68689
G1 X41.58 Y126.524 E10.71313
G1 X41.985 Y126.087 E10.73295
G1 X42.102 Y125.97 E10.73845
G1 X42.688 Y125.44 E10.76473
G1 X43.324 Y124.973 E10.79098
G1 X44.004 Y124.572 E10.81723
G1 X44.722 Y124.242 E10.84351
G1 X45.469 Y123.987 E10.86977
G1 X46.238 Y123.808 E10.89603
G1 X47.022 Y123.708 E10.92232
G1 X47.617 Y123.685 E10.94212
G1 X98.45 Y123.685 E12.63283
G1 X98.45 Y107.617 E13.16726
G1 X98.497 Y106.672 E13.19873
G1 X98.473 Y106.478 E13.20523
G1 X98.45 Y105.883 E13.22503
G1 X98.45 Y86.117 E13.88245
G1 X98.49 Y85.328 E13.90873
G1 X98.609 Y84.548 E13.93497
G1 X98.807 Y83.783 E13.96125
G1 X99.081 Y83.043 E13.9875
G1 X99.429 Y82.334 E14.01377
G1 X99.847 Y81.663 E14.04006
G1 X100.33 Y81.039 E14.06631
G0 F6000 X100.725 Y81.194
G1 F1200 X101.017 Y80.884 E14.08047
G1 X101.134 Y80.767 E14.08598
G1 X101.706 Y80.253 E14.11155
G1 X102.328 Y79.8 E14.13715
G1 X102.993 Y79.414 E14.16272
G1 X103.695 Y79.099 E14.18831
G1 X104.426 Y78.859 E14.2139
G1 X105.177 Y78.696 E14.23946
G1 X105.942 Y78.612 E14.26506
G1 X106.367 Y78.6 E14.2792
G1 X128.633 Y78.6 E15.01977
G1 X129.401 Y78.64 E15.04535
G1 X130.161 Y78.759 E15.07093
G1 X130.904 Y78.957 E15.09651
G1 X131.623 Y79.231 E15.1221
G1 X132.309 Y79.578 E15.14767
G1 X132.956 Y79.994 E15.17325
G1 X133.556 Y80.475 E15.19883
G1 X133.866 Y80.767 E15.21299
G1 X133.983 Y80.884 E15.2185
G1 X134.497 Y81.456 E15.24407
G1 X134.95 Y82.078 E15.26967
G1 X135.336 Y82.743 E15.29524
G1 X135.651 Y83.445 E15.32083
G1 X135.891 Y84.176 E15.34642
G1 X136.054 Y84.927 E15.37198
G1 X136.138 Y85.692 E15.39758
G1 X136.15 Y86.117 E15.41172
G1 X136.15 Y105.883 E16.06914
G1 X136.11 Y106.651 E16.09472
G1 X136.092 Y106.769 E16.09869
G1 X136.138 Y107.192 E16.11284
G1 X136.15 Y107.617 E16.12698
G1 X136.15 Y124.084 E16.67468
G1 X187.383 Y124.084 E18.37869
G1 X188.151 Y124.124 E18.40427
G1 X188.911 Y124.243 E18.42986
G1 X189.654 Y124.441 E18.45543
G1 X190.373 Y124.715 E18.48102
G1 X191.059 Y125.062 E18.50659
G1 X191.706 Y125.478 E18.53218
G1 X192.306 Y125.959 E18.55775
G1 X192.616 Y126.251 E18.57192
G1 X192.733 Y126.368 E18.57742
G1 X193.247 Y126.94 E18.603
G1 X193.7 Y127.562 E18.62859
G1 X194.086 Y128.227 E18.65417
G1 X194.401 Y128.929 E18.67976
G1 X194.641 Y129.66 E18.70535
G1 X194.804 Y130.411 E18.73091
G1 X194.888 Y131.176 E18.7565
G1 X194.9 Y131.601 E18.77065
G1 X194.9 Y131.799 E18.77723
G1 X194.879 Y132.207 E18.79082
G1 X194.888 Y132.291 E18.79363
G1 X194.9 Y132.716 E18.80777
G1 X194.9 Y135.282 E18.89312
G1 X194.875 Y135.764 E18.90917
G1 X194.9 Y136.199 E18.92366
G1 X194.9 Y136.401 E18.93038
G1 X194.86 Y137.169 E18.95596
G1 X194.741 Y137.929 E18.98154
G1 X194.543 Y138.672 E19.00712
G1 X194.269 Y139.391 E19.03271
G1 X193.922 Y140.077 E19.05828
G1 X193.506 Y140.724 E19.08386
G1 X193.025 Y141.324 E19.10944
G1 X192.733 Y141.634 E19.1236
G1 X192.616 Y141.751 E19.12911
G1 X192.044 Y142.265 E19.15469
G1 X191.422 Y142.718 E19.18028
G1 X190.757 Y143.104 E19.20585
G1 X190.055 Y143.419 E19.23144
G1 X189.324 Y143.659 E19.25703
G1 X188.573 Y143.822 E19.28259
G1 X187.808 Y143.906 E19.30819
G1 X187.383 Y143.918 E19.32233
G1 X47.617 Y143.918 E23.97097
G1 X46.849 Y143.878 E23.99655
G1 X46.089 Y143.759 E24.02213
G1 X45.346 Y143.561 E24.04771
G1 X44.627 Y143.287 E24.0733
G1 X43.941 Y142.94 E24.09887
G1 X43.294 Y142.524 E24.12445
G1 X42.694 Y142.043 E24.15003
G1 X42.384 Y141.751 E24.16419
G1 X42.267 Y141.634 E24.1697
G1 X41.753 Y141.062 E24.19527
G1 X41.3 Y140.44 E24.22087
G1 X40.914 Y139.775 E24.24644
G1 X40.599 Y139.073 E24.27203
G1 X40.359 Y138.342 E24.29762
G1 X40.196 Y137.591 E24.32318
G1 X40.112 Y136.826 E24.34878
G1 X40.1 Y136.401 E24.36292
G1 X40.1 Y136.199 E24.36964
G1 X40.121 Y135.791 E24.38323
G1 X40.112 Y135.707 E24.38604
G1 X40.1 Y135.282 E24.40018
G1 X40.1 Y132.717 E24.48549
G1 X40.125 Y132.235 E24.50154
G1 X40.1 Y131.8 E24.51603
G1 X40.1 Y131.602 E24.52262
G1 X40.14 Y130.834 E24.5482
G1 X40.259 Y130.074 E24.57378
G1 X40.457 Y129.331 E24.59936
G1 X40.731 Y128.612 E24.62495
G1 X41.078 Y127.926 E24.65052
G1 X41.494 Y127.279 E24.6761
G1 X41.975 Y126.679 E24.70168
G1 X42.267 Y126.369 E24.71585
G1 X42.384 Y126.252 E24.72135
G1 X42.956 Y125.738 E24.74693
G1 X43.578 Y125.285 E24.77252
G1 X44.243 Y124.899 E24.79809
G1 X44.945 Y124.584 E24.82368
G1 X45.676 Y124.344 E24.84927
G1 X46.427 Y124.181 E24.87483
G1 X47.192 Y124.097 E24.90043
G1 X47.617 Y124.085 E24.91457
G1 X98.85 Y124.085 E26.61859
G1 X98.85 Y107.617 E27.16632
G1 X98.89 Y106.849 E27.1919
G1 X98.908 Y106.731 E27.19587
G1 X98.862 Y106.308 E27.21002
G1 X98.85 Y105.883 E27.22416
G1 X98.85 Y86.117 E27.88158
G1 X98.89 Y85.349 E27.90716
G1 X99.009 Y84.589 E27.93274
G1 X99.207 Y83.846 E27.95832
G1 X99.481 Y83.127 E27.98391
G1 X99.828 Y82.441 E28.00948
G1 X100.244 Y81.794 E28.03506
G1 X100.725 Y81.194 E28.06064
G0 F6000 X100.642 Y81.928
G1 F1200 X101.3 Y81.167 E28.0941
G1 X101.417 Y81.05 E28.0996
G1 X101.974 Y80.55 E28.1245
G1 X102.58 Y80.113 E28.14935
G1 X103.23 Y79.742 E28.17424
G1 X103.916 Y79.443 E28.19913
G1 X104.63 Y79.219 E28.22402
G1 X105.363 Y79.072 E28.24888
G1 X106.367 Y79 E28.28236
G1 X128.633 Y79 E29.02293
G1 X129.38 Y79.04 E29.04781
G1 X130.118 Y79.159 E29.07268
G1 X130.84 Y79.357 E29.09758
G1 X131.536 Y79.63 E29.12244
G1 X132.199 Y79.977 E29.14733
G1 X132.822 Y80.392 E29.17223
G1 X133.583 Y81.05 E29.20569
G1 X133.7 Y81.167 E29.21119
G1 X134.2 Y81.724 E29.23609
G1 X134.637 Y82.33 E29.26094
G1 X135.008 Y82.98 E29.28583
G1 X135.307 Y83.666 E29.31072
G1 X135.531 Y84.38 E29.33561
G1 X135.678 Y85.113 E29.36048
G1 X135.75 Y86.117 E29.39395
G1 X135.75 Y105.883 E30.05137
G1 X135.71 Y106.63 E30.07625
G1 X135.689 Y106.762 E30.0807
G1 X135.75 Y107.617 E30.10921
G1 X135.75 Y124.484 E30.67021
G1 X187.383 Y124.484 E32.38753
G1 X188.13 Y124.524 E32.41241
G1 X188.868 Y124.643 E32.43727
G1 X189.59 Y124.841 E32.46217
G1 X190.286 Y125.114 E32.48704
G1 X190.949 Y125.461 E32.51193
G1 X191.572 Y125.876 E32.53683
G1 X192.333 Y126.534 E32.57029
G1 X192.45 Y126.651 E32.57579
G1 X192.95 Y127.208 E32.60069
G1 X193.387 Y127.814 E32.62554
G1 X193.758 Y128.464 E32.65043
G1 X194.057 Y129.15 E32.67532
G1 X194.281 Y129.864 E32.70021
G1 X194.428 Y130.597 E32.72507
G1 X194.5 Y131.601 E32.75855
G1 X194.5 Y131.799 E32.76514
G1 X194.472 Y132.324 E32.78262
G1 X194.5 Y132.716 E32.79569
G1 X194.5 Y135.282 E32.88104
G1 X194.479 Y135.669 E32.89393
G1 X194.481 Y135.682 E32.89437
G1 X194.5 Y136.199 E32.91157
G1 X194.5 Y136.401 E32.91829
G1 X194.46 Y137.148 E32.94317
G1 X194.341 Y137.886 E32.96804
G1 X194.143 Y138.608 E32.99294
G1 X193.87 Y139.304 E33.0178
G1 X193.523 Y139.967 E33.04269
G1 X193.108 Y140.59 E33.06759
G1 X192.45 Y141.351 E33.10105
G1 X192.333 Y141.468 E33.10655
G1 X191.776 Y141.968 E33.13145
G1 X191.17 Y142.405 E33.1563
G1 X190.52 Y142.776 E33.18119
G1 X189.834 Y143.075 E33.20608
G1 X189.12 Y143.299 E33.23097
G1 X188.387 Y143.446 E33.25583
G1 X187.383 Y143.518 E33.28931
G1 X47.617 Y143.518 E37.93795
G1 X46.87 Y143.478 E37.96283
G1 X46.132 Y143.359 E37.98769
G1 X45.41 Y143.161 E38.01259
G1 X44.714 Y142.888 E38.03746
G1 X44.051 Y142.541 E38.06235
G1 X43.428 Y142.126 E38.08725
G1 X42.667 Y141.468 E38.12071
G1 X42.55 Y141.351 E38.12621
G1 X42.05 Y140.794 E38.15111
G1 X41.613 Y140.188 E38.17596
G1 X41.242 Y139.538 E38.20085
G1 X40.943 Y138.852 E38.22574
G1 X40.719 Y138.138 E38.25063
G1 X40.572 Y137.405 E38.27549
G1 X40.5 Y136.401 E38.30897
G1 X40.5 Y136.199 E38.31569
G1 X40.528 Y135.674 E38.33318
G1 X40.5 Y135.282 E38.34625
G1 X40.5 Y132.717 E38.43156
G1 X40.521 Y132.33 E38.44445
G1 X40.519 Y132.317 E38.44489
G1 X40.5 Y131.8 E38.46209
G1 X40.5 Y131.602 E38.46868
G1 X40.54 Y130.855 E38.49356
G1 X40.659 Y130.117 E38.51842
G1 X40.857 Y129.395 E38.54332
G1 X41.13 Y128.699 E38.56819
G1 X41.477 Y128.036 E38.59308
G1 X41.892 Y127.413 E38.61798
G1 X42.55 Y126.652 E38.65144
G1 X42.667 Y126.535 E38.65694
G1 X43.224 Y126.035 E38.68184
G1 X43.83 Y125.598 E38.70669
G1 X44.48 Y125.227 E38.73158
G1 X45.166 Y124.928 E38.75647
G1 X45.88 Y124.704 E38.78136
G1 X46.613 Y124.557 E38.80622
G1 X47.617 Y124.485 E38.8397
G1 X99.25 Y124.485 E40.55702
G1 X99.25 Y107.617 E41.11805
G1 X99.29 Y106.87 E41.14293
G1 X99.311 Y106.738 E41.14738
G1 X99.25 Y105.883 E41.17589
G1 X99.25 Y86.117 E41.83331
G1 X99.29 Y85.37 E41.85819
G1 X99.409 Y84.632 E41.88305
G1 X99.607 Y83.91 E41.90795
G1 X99.88 Y83.214 E41.93282
G1 X100.227 Y82.551 E41.95771
G1 X100.642 Y81.928 E41.98261
G0 F6000 X101.039 Y82.067
G1 F1200 X101.583 Y81.45 E42.00997
G1 X101.7 Y81.333 E42.01547
G1 X102.241 Y80.849 E42.03961
G1 X102.832 Y80.426 E42.06379
G1 X103.466 Y80.072 E42.08794
G1 X104.135 Y79.789 E42.1121
G1 X104.831 Y79.581 E42.13626
G1 X105.546 Y79.451 E42.16043
G1 X106.367 Y79.4 E42.18779
G1 X128.633 Y79.4 E42.92836
G1 X129.358 Y79.44 E42.95251
G1 X130.075 Y79.559 E42.97668
G1 X130.774 Y79.757 E43.00085
G1 X131.447 Y80.03 E43.025
G1 X132.086 Y80.375 E43.04915
G1 X132.683 Y80.789 E43.07332
G1 X133.3 Y81.333 E43.10068
G1 X133.417 Y81.45 E43.10618
G1 X133.901 Y81.991 E43.13032
G1 X134.324 Y82.582 E43.1545
G1 X134.678 Y83.216 E43.17865
G1 X134.961 Y83.885 E43.20281
G1 X135.169 Y84.581 E43.22697
G1 X135.299 Y85.296 E43.25114
G1 X135.35 Y86.117 E43.2785
G1 X135.35 Y105.883 E43.93592
G1 X135.31 Y106.608 E43.96007
G1 X135.299 Y106.796 E43.96633
G1 X135.35 Y107.617 E43.99369
G1 X135.35 Y124.884 E44.56799
G1 X187.383 Y124.884 E46.29862
G1 X188.108 Y124.924 E46.32277
G1 X188.825 Y125.043 E46.34694
G1 X189.524 Y125.241 E46.37111
G1 X190.197 Y125.514 E46.39526
G1 X190.836 Y125.859 E46.41941
G1 X191.433 Y126.273 E46.44358
G1 X192.05 Y126.817 E46.47094
G1 X192.167 Y126.934 E46.47644
G1 X192.651 Y127.475 E46.50058
G1 X193.074 Y128.066 E46.52476
G1 X193.428 Y128.7 E46.54891
G1 X193.711 Y129.369 E46.57307
G1 X193.919 Y130.065 E46.59723
G1 X194.049 Y130.78 E46.6214
G1 X194.1 Y131.601 E46.64876
G1 X194.1 Y131.799 E46.65534
G1 X194.073 Y132.285 E46.67153
G1 X194.1 Y132.716 E46.6859
G1 X194.1 Y135.282 E46.77124
G1 X194.072 Y135.794 E46.7883
G1 X194.1 Y136.199 E46.8018
G1 X194.1 Y136.401 E46.80852
G1 X194.06 Y137.126 E46.83267
G1 X193.941 Y137.843 E46.85684
G1 X193.743 Y138.542 E46.88101
G1 X193.47 Y139.215 E46.90516
G1 X193.125 Y139.854 E46.92931
G1 X192.711 Y140.451 E46.95348
G1 X192.167 Y141.068 E46.98084
G1 X192.05 Y141.185 E46.98634
G1 X191.509 Y141.669 E47.01048
G1 X190.918 Y142.092 E47.03466
G1 X190.284 Y142.446 E47.05881
G1 X189.615 Y142.729 E47.08297
G1 X188.919 Y142.937 E47.10713
G1 X188.204 Y143.067 E47.1313
G1 X187.383 Y143.118 E47.15866
G1 X47.617 Y143.118 E51.80729
G1 X46.892 Y143.078 E51.83145
G1 X46.175 Y142.959 E51.85562
G1 X45.476 Y142.761 E51.87978
G1 X44.803 Y142.488 E51.90394
G1 X44.164 Y142.143 E51.92809
G1 X43.567 Y141.729 E51.95225
G1 X42.95 Y141.185 E51.97961
G1 X42.833 Y141.068 E51.98512
G1 X42.349 Y140.527 E52.00926
G1 X41.926 Y139.936 E52.03343
G1 X41.572 Y139.302 E52.05758
G1 X41.289 Y138.633 E52.08174
G1 X41.081 Y137.937 E52.10591
G1 X40.951 Y137.222 E52.13008
G1 X40.9 Y136.401 E52.15744
G1 X40.9 Y136.199 E52.16415
G1 X40.927 Y135.713 E52.18034
G1 X40.9 Y135.282 E52.19471
G1 X40.9 Y132.717 E52.28002
G1 X40.928 Y132.205 E52.29707
G1 X40.9 Y131.8 E52.31058
G1 X40.9 Y131.602 E52.31716
G1 X40.94 Y130.877 E52.34131
G1 X41.059 Y130.16 E52.36549
G1 X41.257 Y129.461 E52.38965
G1 X41.53 Y128.788 E52.4138
G1 X41.875 Y128.149 E52.43796
G1 X42.289 Y127.552 E52.46212
G1 X42.833 Y126.935 E52.48948
G1 X42.95 Y126.818 E52.49498
G1 X43.491 Y126.334 E52.51913
G1 X44.082 Y125.911 E52.5433
G1 X44.716 Y125.557 E52.56745
G1 X45.385 Y125.274 E52.59161
G1 X46.081 Y125.066 E52.61577
G1 X46.796 Y124.936 E52.63994
G1 X47.617 Y124.885 E52.6673
G1 X99.65 Y124.885 E54.39793
G1 X99.65 Y107.617 E54.97226
G1 X99.69 Y106.892 E54.99641
G1 X99.701 Y106.704 E55.00268
G1 X99.65 Y105.883 E55.03004
G1 X99.65 Y86.117 E55.68746
G1 X99.69 Y85.392 E55.71161
G1 X99.809 Y84.675 E55.73578
G1 X100.007 Y83.976 E55.75994
G1 X100.28 Y83.303 E55.7841
G1 X100.625 Y82.664 E55.80825
G1 X101.039 Y82.067 E55.83242
G0 F6000 X101.435 Y82.211
G1 F1200 X101.866 Y81.733 E55.85382
G1 X101.983 Y81.616 E55.85933
G1 X102.508 Y81.147 E55.88274
