;FLAVOR:Marlin
;TIME:33036
;Filament used: 41.1707m
;Layer height: 0.28
;MINX:38.28
;MINY:24.761
;MINZ:0.28
;MAXX:196.68
;MAXY:210.26
;MAXZ:54.88
;Generated with Cura_SteamEngine 4.10.0
M140 S50
M105
M190 S50
M104 S200
M105
M109 S200
M82 ;absolute extrusion mode
; Ender 3 Custom Start G-code
G92 E0 ; Reset Extruder
G28 ; Home all axes
G1 Z2.0 F3000 ; Move Z Axis up little to prevent scratching of Heat Bed
G1 X0.1 Y20 Z0.3 F5000.0 ; Move to start position
G1 X0.1 Y200.0 Z0.3 F1500.0 E15 ; Draw the first line
G1 X0.4 Y200.0 Z0.3 F5000.0 ; Move to side a little
G1 X0.4 Y20 Z0.3 F1500.0 E30 ; Draw the second line
G92 E0 ; Reset Extruder
G1 Z2.0 F3000 ; Move Z Axis up little to prevent scratching of Heat Bed
G1 X5 Y20 Z0.3 F5000.0 ; Move over to prevent blob squish
G92 E0
G92 E0
G1 F2700 E-5
;LAYER_COUNT:196
;LAYER:0
M107
G0 F6000 X46.858 Y41.227 Z0.28
;TYPE:SKIRT
G1 F2700 E0
G1 F1200 X47.707 Y40.247 E0.06038
G1 X50.97 Y36.625 E0.28738
G1 X51.424 Y36.134 E0.31852
G1 X52.09 Y35.473 E0.36221
G1 X52.857 Y34.835 E0.40867
G1 X53.691 Y34.203 E0.45739
G1 X53.87 Y34.07 E0.46777
G1 X57.847 Y31.183 E0.69661
G1 X58.399 Y30.794 E0.72805
G1 X59.187 Y30.287 E0.77169
G1 X60.054 Y29.832 E0.81728
G1 X61.028 Y29.374 E0.8674
G1 X61.235 Y29.279 E0.878
G1 X65.593 Y27.339 E1.10013
G1 X66.315 Y27.029 E1.13671
G1 X67.192 Y26.696 E1.18039
G1 X68.152 Y26.426 E1.22683
G1 X69.196 Y26.183 E1.27674
G1 X69.403 Y26.137 E1.28662
G1 X74.228 Y25.113 E1.51629
G1 X74.832 Y24.993 E1.54497
G1 X75.759 Y24.849 E1.58865
G1 X76.755 Y24.784 E1.63513
G1 X77.802 Y24.763 E1.68389
G1 X78.023 Y24.761 E1.69418
G1 X82.809 Y24.761 E1.91704
G1 X83.609 Y24.771 E1.95429
G1 X84.545 Y24.824 E1.99795
G1 X85.523 Y24.966 E2.04396
G1 X86.563 Y25.165 E2.09327
G1 X86.783 Y25.209 E2.10371
G1 X91.595 Y26.233 E2.3328
G1 X92.241 Y26.38 E2.36365
G1 X93.145 Y26.627 E2.40729
G1 X94.078 Y26.972 E2.4536
G1 X95.035 Y27.376 E2.50197
G1 X95.23 Y27.461 E2.51188
G1 X99.737 Y29.467 E2.74159
G1 X100.331 Y29.741 E2.77205
G1 X101.165 Y30.17 E2.81572
G1 X102.02 Y30.711 E2.86284
G1 X103.033 Y31.42 E2.92041
G1 X106.922 Y34.245 E3.14424
G1 X107.561 Y34.723 E3.18139
G1 X108.287 Y35.317 E3.22507
G1 X108.989 Y36 E3.27068
G1 X109.703 Y36.761 E3.31927
G1 X109.857 Y36.929 E3.32988
G1 X113.161 Y40.601 E3.55989
G1 X113.599 Y41.103 E3.59091
G1 X114.184 Y41.835 E3.63455
G1 X114.724 Y42.645 E3.67988
G1 X115.28 Y43.565 E3.72993
G1 X115.391 Y43.753 E3.7401
G1 X117.864 Y48.037 E3.97043
G1 X118.176 Y48.597 E4.00028
G1 X118.378 Y48.977 E4.02032
G1 X118.73 Y49.732 E4.05911
G1 X119.172 Y50.788 E4.11241
G1 X119.393 Y51.338 E4.14001
G1 X120.382 Y53.616 E4.25565
G1 X121.462 Y55.921 E4.37418
G1 X122.59 Y58.162 E4.491
G1 X123.774 Y60.357 E4.60713
G1 X125.035 Y62.545 E4.72472
G1 X126.369 Y64.715 E4.84333
G1 X127.728 Y66.792 E4.95891
G1 X129.177 Y68.873 E5.07699
G1 X130.679 Y70.907 E5.19472
G1 X132.211 Y72.865 E5.31049
G1 X133.832 Y74.818 E5.42867
G1 X135.494 Y76.71 E5.54594
G1 X137.219 Y78.564 E5.66385
G1 X138.949 Y80.322 E5.7787
G1 X140.786 Y82.086 E5.89729
G1 X142.652 Y83.779 E6.01461
G1 X144.298 Y85.195 E6.11572
G1 X145.253 Y85.998 E6.17382
G1 X146.2 Y86.896 E6.23459
G1 X146.943 Y87.689 E6.28519
G1 X147.09 Y87.849 E6.2953
G1 X150.399 Y91.525 E6.52561
G1 X150.824 Y92.012 E6.55571
G1 X151.41 Y92.745 E6.5994
G1 X151.951 Y93.556 E6.6448
G1 X152.493 Y94.453 E6.6936
G1 X152.604 Y94.641 E6.70377
G1 X155.087 Y98.942 E6.93502
G1 X155.409 Y99.518 E6.96574
G1 X155.953 Y100.638 E7.02372
G1 X156.41 Y101.732 E7.07893
G1 X156.641 Y102.308 E7.10783
G1 X157.659 Y104.65 E7.22674
G1 X158.736 Y106.944 E7.34474
G1 X159.853 Y109.161 E7.46034
G1 X161.064 Y111.406 E7.57911
G1 X162.295 Y113.537 E7.69371
G1 X163.641 Y115.724 E7.81329
G1 X165.011 Y117.815 E7.92969
G1 X166.447 Y119.877 E8.04669
G1 X167.95 Y121.911 E8.16446
G1 X169.494 Y123.88 E8.28097
G1 X171.102 Y125.817 E8.39819
G1 X172.776 Y127.718 E8.51614
G1 X174.481 Y129.55 E8.63267
G1 X176.244 Y131.342 E8.74973
G1 X178.059 Y133.082 E8.86681
G1 X179.954 Y134.799 E8.98588
G1 X181.544 Y136.168 E9.08358
G1 X182.455 Y136.934 E9.139
G1 X183.395 Y137.825 E9.19931
G1 X184.123 Y138.601 E9.24885
G1 X184.277 Y138.768 E9.25943
G1 X187.581 Y142.44 E9.48944
G1 X188.019 Y142.942 E9.52046
G1 X188.604 Y143.674 E9.5641
G1 X189.144 Y144.484 E9.60943
G1 X189.7 Y145.404 E9.65948
G1 X189.811 Y145.592 E9.66965
G1 X192.275 Y149.859 E9.89908
G1 X192.576 Y150.397 E9.92779
G1 X192.998 Y151.234 E9.97144
G1 X193.368 Y152.16 E10.01787
G1 X193.728 Y153.197 E10.06898
G1 X193.799 Y153.409 E10.0794
G1 X195.293 Y158.015 E10.30487
G1 X195.498 Y158.675 E10.33705
G1 X195.738 Y159.582 E10.38074
G1 X195.909 Y160.579 E10.42784
G1 X196.038 Y161.615 E10.47645
G1 X196.062 Y161.822 E10.48616
G1 X196.558 Y166.532 E10.70669
G1 X196.636 Y167.39 E10.7468
G1 X196.68 Y168.326 E10.79044
G1 X196.641 Y169.299 E10.83578
G1 X196.551 Y170.365 E10.88559
G1 X196.529 Y170.592 E10.89621
G1 X196.017 Y175.449 E11.12363
G1 X195.939 Y176.109 E11.15457
G1 X195.789 Y177.035 E11.19826
G1 X195.539 Y178.018 E11.24549
G1 X195.228 Y179.041 E11.29527
G1 X195.166 Y179.239 E11.30493
G1 X193.651 Y183.902 E11.53324
G1 X193.444 Y184.512 E11.56323
G1 X193.105 Y185.386 E11.60688
G1 X192.661 Y186.285 E11.65357
G1 X192.034 Y187.42 E11.71395
G1 X189.659 Y191.533 E11.9351
G1 X189.231 Y192.25 E11.97399
G1 X188.716 Y193.033 E12.01762
G1 X188.116 Y193.793 E12.06271
G1 X187.435 Y194.581 E12.11121
G1 X187.286 Y194.749 E12.12167
G1 X184.009 Y198.387 E12.34966
G1 X183.553 Y198.881 E12.38096
G1 X182.888 Y199.542 E12.42462
G1 X182.1 Y200.197 E12.47234
G1 X181.27 Y200.824 E12.52077
G1 X181.107 Y200.945 E12.53022
G1 X177.117 Y203.844 E12.75988
G1 X176.579 Y204.224 E12.79055
G1 X175.791 Y204.732 E12.8342
G1 X174.901 Y205.199 E12.881
G1 X173.975 Y205.633 E12.92862
G1 X173.78 Y205.722 E12.93861
G1 X169.262 Y207.732 E13.16886
G1 X168.655 Y207.992 E13.19961
G1 X167.778 Y208.325 E13.24329
G1 X166.829 Y208.592 E13.2892
G1 X165.803 Y208.832 E13.33826
G1 X165.583 Y208.881 E13.34876
G1 X160.743 Y209.908 E13.57915
G1 X160.139 Y210.028 E13.60782
G1 X159.212 Y210.172 E13.6515
G1 X158.216 Y210.237 E13.69798
G1 X157.169 Y210.258 E13.74674
G1 X156.948 Y210.26 E13.75703
G1 X152.009 Y210.259 E13.98701
G1 X151.362 Y210.25 E14.01714
G1 X150.426 Y210.197 E14.0608
G1 X149.448 Y210.055 E14.10681
G1 X148.408 Y209.856 E14.15612
G1 X148.188 Y209.812 E14.16657
G1 X143.53 Y208.822 E14.38831
G1 X142.61 Y208.611 E14.43226
G1 X142.189 Y208.506 E14.45246
G1 X139.601 Y207.801 E14.57736
G1 X137.128 Y207.201 E14.69586
G1 X134.697 Y206.686 E14.81157
G1 X132.232 Y206.235 E14.92825
G1 X129.745 Y205.853 E15.04542
G1 X127.238 Y205.539 E15.16306
G1 X124.746 Y205.298 E15.27964
G1 X122.195 Y205.125 E15.3987
G1 X119.709 Y205.026 E15.51455
G1 X117.186 Y204.998 E15.63204
G1 X114.698 Y205.04 E15.74791
G1 X112.142 Y205.156 E15.86705
G1 X109.663 Y205.339 E15.9828
G1 X107.138 Y205.597 E16.10098
G1 X104.639 Y205.924 E16.21834
G1 X102.174 Y206.318 E16.33458
G1 X99.692 Y206.787 E16.45219
G1 X97.241 Y207.322 E16.56901
G1 X94.804 Y207.925 E16.68591
G1 X94.186 Y208.099 E16.7158
G1 X94.06 Y208.129 E16.72184
G1 X92.99 Y208.418 E16.77344
G1 X92.619 Y208.511 E16.79125
G1 X91.368 Y208.803 E16.85107
G1 X91.155 Y208.851 E16.86124
G1 X86.455 Y209.85 E17.08498
G1 X85.686 Y210.002 E17.12148
G1 X84.759 Y210.144 E17.16515
G1 X83.781 Y210.208 E17.21079
G1 X82.739 Y210.229 E17.25932
G1 X82.517 Y210.231 E17.26965
G1 X77.578 Y210.23 E17.49963
G1 X76.931 Y210.221 E17.52976
G1 X75.995 Y210.168 E17.57342
G1 X75.017 Y210.026 E17.61943
G1 X73.977 Y209.827 E17.66874
G1 X73.757 Y209.783 E17.67919
G1 X69.099 Y208.793 E17.90093
G1 X68.294 Y208.61 E17.93937
G1 X67.389 Y208.363 E17.98305
G1 X66.47 Y208.023 E18.02868
G1 X65.49 Y207.61 E18.0782
G1 X65.287 Y207.522 E18.0885
G1 X60.824 Y205.533 E18.31602
G1 X60.21 Y205.25 E18.3475
G1 X59.375 Y204.821 E18.39121
G1 X58.521 Y204.282 E18.43824
G1 X57.698 Y203.708 E18.48496
G1 X57.525 Y203.585 E18.49484
G1 X53.484 Y200.647 E18.72748
G1 X52.976 Y200.266 E18.75705
G1 X52.25 Y199.672 E18.80073
G1 X51.553 Y198.992 E18.84607
G1 X50.826 Y198.217 E18.89555
G1 X50.675 Y198.052 E18.90597
G1 X47.366 Y194.376 E19.13627
G1 X46.941 Y193.889 E19.16637
G1 X46.355 Y193.156 E19.21007
G1 X45.814 Y192.345 E19.25546
G1 X45.272 Y191.448 E19.30426
G1 X45.161 Y191.26 E19.31443
G1 X42.68 Y186.961 E19.54555
G1 X42.383 Y186.43 E19.57388
G1 X41.96 Y185.592 E19.61759
G1 X41.591 Y184.666 E19.66401
G1 X41.245 Y183.669 E19.71315
G1 X41.176 Y183.463 E19.72327
G1 X39.652 Y178.772 E19.95294
G1 X39.457 Y178.141 E19.98369
G1 X39.219 Y177.234 E20.02735
G1 X39.052 Y176.26 E20.07337
G1 X38.925 Y175.246 E20.12095
G1 X38.9 Y175.027 E20.13122
G1 X38.385 Y170.112 E20.36133
G1 X38.325 Y169.453 E20.39215
G1 X38.28 Y168.517 E20.43578
G1 X38.32 Y167.523 E20.4821
G1 X38.429 Y166.262 E20.54104
G1 X38.929 Y161.502 E20.76391
G1 X39.022 Y160.715 E20.80081
G1 X39.172 Y159.789 E20.84449
G1 X39.42 Y158.814 E20.89133
G1 X39.781 Y157.631 E20.94893
G1 X41.329 Y152.873 E21.18191
G1 X41.547 Y152.235 E21.2133
G1 X41.762 Y151.659 E21.24193
G1 X42.043 Y150.966 E21.27675
G1 X42.985 Y148.543 E21.3978
G1 X43.826 Y146.183 E21.51446
G1 X44.601 Y143.797 E21.63128
G1 X45.318 Y141.358 E21.74966
G1 X45.956 Y138.939 E21.86615
G1 X46.535 Y136.457 E21.98482
G1 X47.034 Y134.018 E22.10075
G1 X47.463 Y131.546 E22.21757
G1 X47.828 Y129.037 E22.33563
G1 X48.119 Y126.548 E22.45232
G1 X48.342 Y124.008 E22.57105
G1 X48.489 Y121.549 E22.68575
G1 X48.569 Y119 E22.8045
G1 X48.577 Y116.475 E22.92208
G1 X48.513 Y113.981 E23.03825
G1 X48.378 Y111.461 E23.15576
G1 X48.173 Y108.954 E23.27288
G1 X47.897 Y106.459 E23.38977
G1 X47.551 Y103.972 E23.50669
G1 X47.13 Y101.473 E23.62469
G1 X46.64 Y98.989 E23.74259
G1 X46.087 Y96.555 E23.85881
G1 X45.459 Y94.113 E23.97622
G1 X44.765 Y91.696 E24.09332
G1 X44.003 Y89.299 E24.21044
G1 X43.172 Y86.923 E24.32764
G1 X42.258 Y84.529 E24.44697
G1 X41.864 Y83.563 E24.49555
G1 X41.659 Y83.02 E24.52257
G1 X41.257 Y81.863 E24.57961
G1 X41.187 Y81.653 E24.58991
G1 X39.663 Y76.962 E24.81958
G1 X39.468 Y76.331 E24.85034
G1 X39.23 Y75.424 E24.894
G1 X39.063 Y74.45 E24.94002
G1 X38.936 Y73.436 E24.9876
G1 X38.911 Y73.217 E24.99786
G1 X38.396 Y68.302 E25.22798
G1 X38.336 Y67.643 E25.25879
G1 X38.291 Y66.707 E25.30243
G1 X38.331 Y65.713 E25.34875
G1 X38.44 Y64.452 E25.40769
G1 X38.94 Y59.692 E25.63055
G1 X39.033 Y58.905 E25.66745
G1 X39.183 Y57.979 E25.71113
G1 X39.431 Y57.004 E25.75798
G1 X39.792 Y55.821 E25.81557
G1 X41.33 Y51.093 E26.04708
G1 X41.525 Y50.517 E26.0754
G1 X41.863 Y49.642 E26.11908
G1 X42.313 Y48.73 E26.16643
G1 X42.825 Y47.802 E26.21578
G1 X42.93 Y47.616 E26.22573
G1 X45.394 Y43.35 E26.45513
G1 X45.734 Y42.781 E26.48599
G1 X46.249 Y41.997 E26.52967
G1 X46.858 Y41.227 E26.57538
G0 F6000 X47.16 Y41.488
G1 F1200 X47.865 Y40.673 E26.62556
G1 X48.005 Y40.515 E26.63539
G1 X51.264 Y36.897 E26.86213
G1 X51.718 Y36.406 E26.89327
G1 X52.372 Y35.757 E26.93617
G1 X53.099 Y35.154 E26.98015
G1 X53.933 Y34.522 E27.02888
G1 X54.106 Y34.394 E27.0389
G1 X58.077 Y31.51 E27.26742
G1 X58.629 Y31.121 E27.29887
G1 X59.404 Y30.624 E27.34174
G1 X60.224 Y30.194 E27.38485
G1 X61.198 Y29.736 E27.43497
G1 X61.398 Y29.644 E27.44522
G1 X65.893 Y27.644 E27.67431
G1 X66.472 Y27.396 E27.70364
G1 X67.334 Y27.071 E27.74654
G1 X68.243 Y26.816 E27.7905
G1 X69.287 Y26.573 E27.84041
G1 X74.169 Y25.534 E28.07283
G1 X74.306 Y25.505 E28.07935
G1 X74.91 Y25.385 E28.10802
G1 X75.82 Y25.245 E28.1509
G1 X76.763 Y25.184 E28.1949
G1 X77.81 Y25.163 E28.24366
G1 X78.023 Y25.161 E28.25358
G1 X82.809 Y25.161 E28.47643
G1 X83.603 Y25.171 E28.51341
G1 X84.523 Y25.224 E28.55632
G1 X85.448 Y25.359 E28.59985
G1 X86.488 Y25.558 E28.64915
G1 X86.7 Y25.601 E28.65923
G1 X91.506 Y26.623 E28.88802
G1 X92.152 Y26.77 E28.91887
G1 X93.04 Y27.013 E28.96174
G1 X93.923 Y27.341 E29.0056
G1 X94.88 Y27.745 E29.05397
G1 X95.067 Y27.826 E29.06346
G1 X99.569 Y29.831 E29.29294
G1 X100.163 Y30.105 E29.3234
G1 X100.981 Y30.526 E29.36624
G1 X101.791 Y31.039 E29.41088
G1 X102.798 Y31.744 E29.46812
G1 X106.812 Y34.661 E29.69917
G1 X107.322 Y35.043 E29.72884
G1 X108.034 Y35.626 E29.77169
G1 X108.697 Y36.274 E29.81486
G1 X109.411 Y37.035 E29.86345
G1 X109.559 Y37.196 E29.87363
G1 X112.859 Y40.864 E30.10338
G1 X113.297 Y41.366 E30.1344
G1 X113.872 Y42.085 E30.17727
G1 X114.382 Y42.852 E30.22016
G1 X114.938 Y43.772 E30.27022
G1 X115.045 Y43.953 E30.28001
G1 X117.515 Y48.232 E30.51007
G1 X117.827 Y48.792 E30.53992
G1 X118.022 Y49.16 E30.55931
G1 X118.361 Y49.887 E30.59666
G1 X118.801 Y50.938 E30.64972
G1 X119.021 Y51.485 E30.67717
G1 X120.011 Y53.766 E30.79295
G1 X121.107 Y56.106 E30.91327
G1 X122.238 Y58.353 E31.03041
G1 X123.425 Y60.552 E31.14677
G1 X124.699 Y62.763 E31.26559
G1 X126.011 Y64.896 E31.3822
G1 X127.409 Y67.034 E31.50115
G1 X128.847 Y69.1 E31.61836
G1 X130.37 Y71.163 E31.73776
G1 X131.904 Y73.122 E31.85362
G1 X133.525 Y75.074 E31.97177
G1 X135.184 Y76.963 E32.08883
G1 X136.923 Y78.833 E32.20774
G1 X138.669 Y80.607 E32.32364
G1 X140.523 Y82.387 E32.44332
G1 X142.407 Y84.096 E32.56176
G1 X143.996 Y85.464 E32.6594
G1 X144.996 Y86.305 E32.72024
G1 X145.908 Y87.169 E32.77874
G1 X146.651 Y87.962 E32.82934
G1 X146.793 Y88.117 E32.83912
G1 X150.097 Y91.788 E33.0691
G1 X150.522 Y92.275 E33.0992
G1 X151.097 Y92.995 E33.1421
G1 X151.608 Y93.763 E33.18506
G1 X152.15 Y94.66 E33.23386
G1 X152.257 Y94.841 E33.24365
G1 X154.737 Y99.138 E33.47467
G1 X155.059 Y99.714 E33.5054
G1 X155.585 Y100.792 E33.56125
G1 X155.979 Y101.733 E33.60875
G1 X156.279 Y102.48 E33.64624
G1 X157.301 Y104.83 E33.76556
G1 X158.36 Y107.087 E33.88165
G1 X159.494 Y109.337 E33.99897
G1 X160.717 Y111.604 E34.11892
G1 X161.967 Y113.768 E34.23528
G1 X163.283 Y115.906 E34.35219
G1 X164.681 Y118.04 E34.47098
G1 X166.125 Y120.114 E34.58865
G1 X167.63 Y122.15 E34.70655
G1 X169.204 Y124.158 E34.82535
G1 X170.795 Y126.074 E34.94132
G1 X172.465 Y127.971 E35.059
G1 X174.203 Y129.838 E35.17777
G1 X175.965 Y131.628 E35.29473
G1 X177.796 Y133.384 E35.41286
G1 X179.666 Y135.078 E35.53035
G1 X181.307 Y136.492 E35.63122
G1 X182.197 Y137.24 E35.68535
G1 X183.104 Y138.099 E35.74352
G1 X183.832 Y138.875 E35.79307
G1 X183.979 Y139.035 E35.80318
G1 X187.279 Y142.703 E36.03293
G1 X187.717 Y143.205 E36.06395
G1 X188.292 Y143.924 E36.10682
G1 X188.802 Y144.691 E36.14971
G1 X189.358 Y145.611 E36.19977
G1 X189.465 Y145.792 E36.20956
G1 X191.926 Y150.054 E36.43872
G1 X192.227 Y150.592 E36.46743
G1 X192.641 Y151.415 E36.51033
G1 X192.99 Y152.292 E36.55428
G1 X193.35 Y153.329 E36.60539
G1 X193.418 Y153.532 E36.61536
G1 X194.911 Y158.134 E36.84064
G1 X195.116 Y158.794 E36.87282
G1 X195.351 Y159.684 E36.91569
G1 X195.512 Y160.628 E36.96028
G1 X195.641 Y161.664 E37.00889
G1 X195.664 Y161.864 E37.01827
G1 X196.16 Y166.574 E37.2388
G1 X196.237 Y167.425 E37.27858
G1 X196.28 Y168.345 E37.32147
G1 X196.242 Y169.266 E37.36439
G1 X196.132 Y170.55 E37.4244
G1 X195.62 Y175.402 E37.65158
G1 X195.542 Y176.062 E37.68253
G1 X195.394 Y176.971 E37.72541
G1 X195.157 Y177.901 E37.7701
G1 X194.846 Y178.924 E37.81989
G1 X194.786 Y179.115 E37.82921
G1 X193.272 Y183.773 E38.05728
G1 X193.065 Y184.383 E38.08727
G1 X192.731 Y185.241 E38.13015
G1 X192.311 Y186.092 E38.17433
G1 X191.688 Y187.22 E38.23434
G1 X189.313 Y191.333 E38.45549
G1 X188.888 Y192.044 E38.49406
G1 X188.381 Y192.813 E38.53695
G1 X187.813 Y193.531 E38.57958
G1 X187.132 Y194.319 E38.62808
G1 X186.989 Y194.481 E38.63814
G1 X183.715 Y198.116 E38.86594
G1 X183.259 Y198.61 E38.89724
G1 X182.606 Y199.259 E38.94011
G1 X181.859 Y199.878 E38.98528
G1 X180.872 Y200.622 E39.04284
G1 X177.003 Y203.434 E39.26555
G1 X176.348 Y203.897 E39.3029
G1 X175.574 Y204.395 E39.34576
G1 X174.731 Y204.837 E39.39008
G1 X173.618 Y205.357 E39.44728
G1 X169.105 Y207.365 E39.67729
G1 X168.498 Y207.625 E39.70804
G1 X167.636 Y207.95 E39.75093
G1 X166.738 Y208.202 E39.79436
G1 X165.5 Y208.49 E39.85355
G1 X160.665 Y209.516 E40.0837
G1 X160.061 Y209.636 E40.11238
G1 X159.151 Y209.776 E40.15525
G1 X158.208 Y209.837 E40.19925
G1 X157.161 Y209.858 E40.24801
G1 X156.948 Y209.86 E40.25793
G1 X152.015 Y209.859 E40.48763
G1 X151.368 Y209.85 E40.51776
G1 X150.448 Y209.797 E40.56067
