;FLAVOR:Marlin
;TIME:14966
;Filament used: 10.0334m
;Layer height: 0.16
;MINX:35.516
;MINY:35.889
;MINZ:0.2
;MAXX:199.484
;MAXY:199.111
;MAXZ:3.88
;Generated with Cura_SteamEngine 4.10.0
M140 S50
M105
M190 S50
M104 S200
M105
M109 S200
M82 ;absolute extrusion mode
; Ender 3 Custom Start G-code
G92 E0 ; Reset Extruder
G28 ; Home all axes
G1 Z2.0 F3000 ; Move Z Axis up little to prevent scratching of Heat Bed
G1 X0.1 Y20 Z0.3 F5000.0 ; Move to start position
G1 X0.1 Y200.0 Z0.3 F1500.0 E15 ; Draw the first line
G1 X0.4 Y200.0 Z0.3 F5000.0 ; Move to side a little
G1 X0.4 Y20 Z0.3 F1500.0 E30 ; Draw the second line
G92 E0 ; Reset Extruder
G1 Z2.0 F3000 ; Move Z Axis up little to prevent scratching of Heat Bed
G1 X5 Y20 Z0.3 F5000.0 ; Move over to prevent blob squish
G92 E0
G92 E0
G1 F2700 E-5
;LAYER_COUNT:21
;LAYER:0
M107
G0 F6000 X61.879 Y57.322 Z0.2
;TYPE:SKIRT
G1 F2700 E0
G1 F1200 X62.544 Y56.661 E0.03119
G1 X63.32 Y56.015 E0.06477
G1 X64.131 Y55.401 E0.0986
G1 X64.307 Y55.27 E0.1059
G1 X66.068 Y53.991 E0.17829
G1 X68.744 Y51.974 E0.28974
G1 X68.829 Y51.908 E0.29332
G1 X69.301 Y51.562 E0.31279
G1 X70.383 Y50.813 E0.35656
G1 X70.707 Y50.594 E0.36956
G1 X72.312 Y49.454 E0.43504
G1 X75.08 Y47.444 E0.54882
G1 X75.633 Y47.055 E0.5713
G1 X76.423 Y46.549 E0.60251
G1 X77.286 Y46.096 E0.63493
G1 X78.395 Y45.577 E0.67565
G1 X81.304 Y44.282 E0.78156
G1 X84.281 Y42.893 E0.89082
G1 X84.425 Y42.824 E0.89613
G1 X84.955 Y42.585 E0.91547
G1 X86.109 Y42.102 E0.95708
G1 X86.482 Y41.952 E0.97045
G1 X88.279 Y41.176 E1.03555
G1 X90.455 Y40.207 E1.11478
G1 X91.185 Y39.894 E1.1412
G1 X92.062 Y39.561 E1.1724
G1 X93.011 Y39.294 E1.20519
G1 X94.003 Y39.062 E1.23907
G1 X94.221 Y39.013 E1.2465
G1 X107.099 Y36.276 E1.68439
G1 X107.889 Y36.119 E1.71118
G1 X108.815 Y35.976 E1.74235
G1 X109.8 Y35.912 E1.77518
G1 X110.837 Y35.891 E1.80967
G1 X111.06 Y35.889 E1.81709
G1 X124.215 Y35.889 E2.25463
G1 X125.014 Y35.899 E2.28121
G1 X125.951 Y35.952 E2.31242
G1 X126.93 Y36.094 E2.34532
G1 X127.969 Y36.293 E2.38051
G1 X128.187 Y36.337 E2.38791
G1 X141.063 Y39.074 E2.82573
G1 X141.838 Y39.251 E2.85217
G1 X142.743 Y39.499 E2.88338
G1 X143.654 Y39.836 E2.91569
G1 X144.627 Y40.246 E2.95081
G1 X144.827 Y40.333 E2.95806
G1 X146.794 Y41.208 E3.02966
G1 X149.729 Y42.456 E3.13574
G1 X149.939 Y42.541 E3.14328
G1 X150.514 Y42.793 E3.16416
G1 X151.67 Y43.342 E3.20672
G1 X151.927 Y43.467 E3.21623
G1 X153.828 Y44.34 E3.2858
G1 X157.025 Y45.764 E3.40221
G1 X157.571 Y46.017 E3.42222
G1 X158.404 Y46.448 E3.45342
G1 X159.234 Y46.972 E3.48606
G1 X160.091 Y47.569 E3.5208
G1 X160.269 Y47.696 E3.52807
G1 X162.811 Y49.543 E3.63258
G1 X165.495 Y51.424 E3.74159
G1 X165.579 Y51.48 E3.74495
G1 X166.104 Y51.855 E3.76641
G1 X167.161 Y52.661 E3.81062
G1 X167.492 Y52.92 E3.8246
G1 X169.018 Y54.053 E3.88781
G1 X171.04 Y55.524 E3.97098
G1 X171.557 Y55.912 E3.99248
G1 X172.282 Y56.506 E4.02365
G1 X172.972 Y57.179 E4.05571
G1 X173.684 Y57.937 E4.0903
G1 X173.84 Y58.107 E4.09797
G1 X182.763 Y68.017 E4.5415
G1 X183.182 Y68.497 E4.5627
G1 X183.768 Y69.229 E4.59388
G1 X184.311 Y70.044 E4.62646
G1 X184.86 Y70.953 E4.66178
G1 X184.97 Y71.14 E4.66899
G1 X191.628 Y82.674 E5.11194
G1 X191.928 Y83.211 E5.1324
G1 X192.35 Y84.049 E5.16361
G1 X192.716 Y84.966 E5.19645
G1 X193.053 Y85.936 E5.2306
G1 X193.123 Y86.146 E5.23796
G1 X197.239 Y98.814 E5.68098
G1 X197.432 Y99.439 E5.70274
G1 X197.671 Y100.347 E5.73397
G1 X197.837 Y101.318 E5.76673
G1 X197.968 Y102.364 E5.80179
G1 X197.993 Y102.585 E5.80919
G1 X198.213 Y104.687 E5.87949
G1 X198.658 Y108.279 E5.99987
G1 X198.701 Y108.693 E6.01371
G1 X198.787 Y109.711 E6.04769
G1 X198.848 Y110.563 E6.0761
G1 X199.01 Y112.259 E6.13277
G1 X199.361 Y115.597 E6.2444
G1 X199.439 Y116.451 E6.27293
G1 X199.484 Y117.388 E6.30413
G1 X199.444 Y118.374 E6.33695
G1 X199.334 Y119.649 E6.37951
G1 X199.01 Y122.74 E6.48288
G1 X198.727 Y125.95 E6.59006
G1 X198.712 Y126.161 E6.5971
G1 X198.65 Y126.784 E6.61792
G1 X198.504 Y127.923 E6.65611
G1 X198.447 Y128.324 E6.66959
G1 X198.206 Y130.383 E6.73854
G1 X197.944 Y132.871 E6.82174
G1 X197.868 Y133.509 E6.84311
G1 X197.717 Y134.435 E6.87432
G1 X197.471 Y135.404 E6.90757
G1 X197.168 Y136.402 E6.94226
G1 X197.104 Y136.606 E6.94937
G1 X193.031 Y149.14 E7.38771
G1 X192.788 Y149.855 E7.41283
G1 X192.449 Y150.729 E7.44401
G1 X192.009 Y151.623 E7.47715
G1 X191.503 Y152.542 E7.51204
G1 X191.393 Y152.736 E7.51946
G1 X184.82 Y164.121 E7.95671
G1 X184.394 Y164.834 E7.98433
G1 X183.878 Y165.618 E8.01555
G1 X183.28 Y166.374 E8.04761
G1 X182.597 Y167.164 E8.08234
G1 X182.45 Y167.331 E8.08974
G1 X173.556 Y177.207 E8.53179
G1 X173.121 Y177.678 E8.55311
G1 X172.456 Y178.339 E8.5843
G1 X171.68 Y178.985 E8.61788
G1 X170.869 Y179.599 E8.65171
G1 X170.693 Y179.73 E8.65901
G1 X168.932 Y181.009 E8.7314
G1 X166.256 Y183.026 E8.84285
G1 X166.171 Y183.092 E8.84643
G1 X165.702 Y183.436 E8.86578
G1 X164.62 Y184.186 E8.90957
G1 X164.273 Y184.42 E8.92349
G1 X162.688 Y185.546 E8.98815
G1 X159.92 Y187.556 E9.10193
G1 X159.367 Y187.945 E9.12442
G1 X158.577 Y188.451 E9.15562
G1 X157.714 Y188.904 E9.18804
G1 X156.605 Y189.423 E9.22876
G1 X153.696 Y190.718 E9.33467
G1 X150.719 Y192.107 E9.44393
G1 X150.575 Y192.176 E9.44924
G1 X150.045 Y192.415 E9.46858
G1 X148.891 Y192.898 E9.51019
G1 X148.518 Y193.048 E9.52356
G1 X146.721 Y193.824 E9.58866
G1 X144.545 Y194.793 E9.66789
G1 X143.815 Y195.106 E9.69431
G1 X142.938 Y195.439 E9.72551
G1 X141.989 Y195.706 E9.7583
G1 X140.997 Y195.938 E9.79218
G1 X140.779 Y195.987 E9.79961
G1 X127.901 Y198.724 E10.2375
G1 X127.111 Y198.881 E10.26429
G1 X126.185 Y199.024 E10.29546
G1 X125.2 Y199.088 E10.32829
G1 X124.163 Y199.109 E10.36279
G1 X123.94 Y199.111 E10.3702
G1 X110.632 Y199.11 E10.81283
G1 X109.986 Y199.101 E10.83432
G1 X109.049 Y199.048 E10.86553
G1 X108.07 Y198.906 E10.89843
G1 X107.031 Y198.707 E10.93362
G1 X106.813 Y198.663 E10.94102
G1 X93.937 Y195.926 E11.37884
G1 X93.162 Y195.749 E11.40528
G1 X92.257 Y195.501 E11.43649
G1 X91.346 Y195.164 E11.4688
G1 X90.373 Y194.754 E11.50392
G1 X90.173 Y194.667 E11.51117
G1 X88.206 Y193.792 E11.58278
G1 X85.271 Y192.544 E11.68885
G1 X85.061 Y192.459 E11.69639
G1 X84.486 Y192.207 E11.71727
G1 X83.33 Y191.658 E11.75983
G1 X83.073 Y191.533 E11.76934
G1 X81.172 Y190.66 E11.83891
G1 X77.975 Y189.236 E11.95532
G1 X77.429 Y188.983 E11.97533
G1 X76.596 Y188.552 E12.00653
G1 X75.766 Y188.028 E12.03917
G1 X74.909 Y187.431 E12.07391
G1 X74.731 Y187.304 E12.08118
G1 X72.189 Y185.457 E12.18569
G1 X69.514 Y183.582 E12.29434
G1 X69.409 Y183.512 E12.29854
G1 X68.897 Y183.145 E12.31949
G1 X67.839 Y182.339 E12.36373
G1 X67.508 Y182.08 E12.37771
G1 X65.974 Y180.941 E12.44126
G1 X63.96 Y179.476 E12.52409
G1 X63.443 Y179.088 E12.54559
G1 X62.718 Y178.494 E12.57676
G1 X62.028 Y177.821 E12.60882
G1 X61.316 Y177.063 E12.64341
G1 X61.16 Y176.893 E12.65108
G1 X52.237 Y166.983 E13.09462
G1 X51.818 Y166.503 E13.11581
G1 X51.232 Y165.771 E13.14699
G1 X50.689 Y164.956 E13.17957
G1 X50.14 Y164.047 E13.21489
G1 X50.03 Y163.86 E13.2221
G1 X43.372 Y152.326 E13.66505
G1 X43.072 Y151.789 E13.68551
G1 X42.65 Y150.951 E13.71672
G1 X42.284 Y150.034 E13.74956
G1 X41.947 Y149.064 E13.78371
G1 X41.877 Y148.854 E13.79107
G1 X37.761 Y136.186 E14.23409
G1 X37.568 Y135.561 E14.25585
G1 X37.329 Y134.653 E14.28708
G1 X37.163 Y133.682 E14.31984
G1 X37.032 Y132.636 E14.35491
G1 X37.007 Y132.415 E14.3623
G1 X36.787 Y130.313 E14.4326
G1 X36.342 Y126.721 E14.55298
G1 X36.299 Y126.306 E14.56686
G1 X36.213 Y125.288 E14.60084
G1 X36.152 Y124.437 E14.62921
G1 X35.99 Y122.741 E14.68588
G1 X35.639 Y119.403 E14.79752
G1 X35.561 Y118.549 E14.82604
G1 X35.516 Y117.612 E14.85724
G1 X35.555 Y116.626 E14.89006
G1 X35.646 Y115.555 E14.92581
G1 X35.667 Y115.339 E14.93303
G1 X35.994 Y112.224 E15.0372
G1 X36.277 Y108.998 E15.14491
G1 X36.288 Y108.843 E15.15008
G1 X36.35 Y108.216 E15.17103
G1 X36.496 Y107.077 E15.20923
G1 X36.553 Y106.676 E15.2227
G1 X36.796 Y104.599 E15.29225
G1 X37.056 Y102.129 E15.37486
G1 X37.132 Y101.491 E15.39623
G1 X37.283 Y100.565 E15.42743
G1 X37.529 Y99.596 E15.46068
G1 X37.832 Y98.598 E15.49537
G1 X37.896 Y98.394 E15.50249
G1 X41.969 Y85.86 E15.94083
G1 X42.212 Y85.145 E15.96594
G1 X42.551 Y84.271 E15.99712
G1 X42.991 Y83.377 E16.03026
G1 X43.497 Y82.458 E16.06516
G1 X43.607 Y82.264 E16.07257
G1 X50.18 Y70.879 E16.50982
G1 X50.606 Y70.166 E16.53744
G1 X51.122 Y69.382 E16.56866
G1 X51.72 Y68.626 E16.60072
G1 X52.403 Y67.836 E16.63545
G1 X52.55 Y67.669 E16.64285
G1 X61.444 Y57.793 E17.0849
G1 X61.879 Y57.322 E17.10622
G0 F6000 X62.173 Y57.593
G1 F1200 X62.826 Y56.945 E17.13682
G1 X63.562 Y56.334 E17.16864
G1 X64.542 Y55.594 E17.20948
G1 X66.328 Y54.297 E17.28289
G1 X68.943 Y52.325 E17.39183
G1 X69.074 Y52.224 E17.39733
G1 X69.529 Y51.89 E17.4161
G1 X70.606 Y51.145 E17.45966
G1 X70.941 Y50.919 E17.4731
G1 X72.555 Y49.772 E17.53896
G1 X75.31 Y47.771 E17.65221
G1 X75.863 Y47.382 E17.6747
G1 X76.639 Y46.886 E17.70533
G1 X77.456 Y46.458 E17.736
G1 X78.558 Y45.942 E17.77648
G1 X81.457 Y44.651 E17.88203
G1 X84.476 Y43.244 E17.99281
G1 X84.599 Y43.184 E17.99736
G1 X85.11 Y42.954 E18.016
G1 X86.259 Y42.473 E18.05743
G1 X86.613 Y42.33 E18.07012
G1 X88.522 Y41.507 E18.13927
G1 X90.756 Y40.512 E18.22061
G1 X91.342 Y40.261 E18.24181
G1 X92.204 Y39.936 E18.27245
G1 X93.102 Y39.684 E18.30347
G1 X94.094 Y39.452 E18.33736
G1 X94.304 Y39.405 E18.34451
G1 X107.329 Y36.637 E18.7874
G1 X107.966 Y36.511 E18.809
G1 X108.876 Y36.372 E18.83962
G1 X109.808 Y36.312 E18.87068
G1 X110.845 Y36.291 E18.90518
G1 X111.06 Y36.289 E18.91233
G1 X124.215 Y36.289 E19.34987
G1 X125.009 Y36.299 E19.37628
G1 X125.928 Y36.352 E19.40689
G1 X126.855 Y36.487 E19.43805
G1 X127.894 Y36.686 E19.47324
G1 X128.104 Y36.729 E19.48037
G1 X141.142 Y39.501 E19.9237
G1 X141.749 Y39.64 E19.94442
G1 X142.637 Y39.885 E19.97505
G1 X143.499 Y40.205 E20.00564
G1 X144.665 Y40.698 E20.04774
G1 X146.676 Y41.593 E20.12095
G1 X149.601 Y42.836 E20.22666
G1 X149.788 Y42.912 E20.23337
G1 X150.343 Y43.155 E20.25352
G1 X151.495 Y43.701 E20.29592
G1 X151.763 Y43.832 E20.30585
G1 X153.734 Y44.737 E20.37798
G1 X156.857 Y46.127 E20.49168
G1 X157.403 Y46.38 E20.51169
G1 X158.22 Y46.803 E20.54229
G1 X159.005 Y47.3 E20.57319
G1 X159.862 Y47.897 E20.60793
G1 X160.034 Y48.02 E20.61497
G1 X162.595 Y49.881 E20.72026
G1 X165.24 Y51.734 E20.82767
G1 X165.356 Y51.812 E20.83232
G1 X165.862 Y52.173 E20.853
G1 X166.915 Y52.976 E20.89704
G1 X167.248 Y53.237 E20.91111
G1 X168.839 Y54.418 E20.97701
G1 X170.8 Y55.844 E21.05766
G1 X171.317 Y56.232 E21.07916
G1 X172.028 Y56.816 E21.10976
G1 X172.68 Y57.453 E21.14008
G1 X173.392 Y58.211 E21.17467
G1 X173.543 Y58.375 E21.18208
G1 X182.462 Y68.28 E21.6254
G1 X182.881 Y68.76 E21.64659
G1 X183.455 Y69.479 E21.67719
G1 X183.969 Y70.251 E21.70804
G1 X184.518 Y71.16 E21.74336
G1 X184.624 Y71.34 E21.75031
G1 X191.279 Y82.869 E22.19306
G1 X191.579 Y83.406 E22.21352
G1 X191.993 Y84.229 E22.24416
G1 X192.338 Y85.097 E22.27523
G1 X192.675 Y86.067 E22.30938
G1 X192.743 Y86.27 E22.3165
G1 X196.857 Y98.932 E22.75932
G1 X197.05 Y99.557 E22.78107
G1 X197.283 Y100.448 E22.8117
G1 X197.44 Y101.368 E22.84274
G1 X197.571 Y102.414 E22.87781
G1 X197.595 Y102.627 E22.88494
G1 X197.814 Y104.723 E22.95503
G1 X198.261 Y108.328 E23.07585
G1 X198.302 Y108.727 E23.08919
G1 X198.388 Y109.74 E23.123
G1 X198.449 Y110.586 E23.15121
G1 X198.612 Y112.3 E23.20848
G1 X198.978 Y115.791 E23.32523
G1 X199.041 Y116.487 E23.34847
G1 X199.084 Y117.407 E23.3791
G1 X199.046 Y118.341 E23.41019
G1 X198.956 Y119.4 E23.44554
G1 X198.936 Y119.608 E23.45249
G1 X198.608 Y122.732 E23.55697
G1 X198.331 Y125.882 E23.66214
G1 X198.313 Y126.133 E23.67051
G1 X198.253 Y126.733 E23.69057
G1 X198.107 Y127.872 E23.72876
G1 X198.053 Y128.256 E23.74166
G1 X197.802 Y130.403 E23.81356
G1 X197.547 Y132.824 E23.89452
G1 X197.471 Y133.462 E23.91589
G1 X197.322 Y134.37 E23.9465
G1 X197.088 Y135.287 E23.97797
G1 X196.785 Y136.285 E24.01266
G1 X196.723 Y136.482 E24.01953
G1 X192.606 Y149.149 E24.46253
G1 X192.41 Y149.726 E24.4828
G1 X192.076 Y150.584 E24.51343
G1 X191.659 Y151.43 E24.5448
G1 X191.153 Y152.349 E24.57969
G1 X191.047 Y152.536 E24.58684
G1 X184.474 Y163.921 E25.02408
G1 X184.051 Y164.629 E25.05151
G1 X183.544 Y165.397 E25.08212
G1 X182.978 Y166.113 E25.11248
G1 X182.295 Y166.903 E25.14721
G1 X182.153 Y167.063 E25.15433
G1 X173.262 Y176.936 E25.59623
G1 X172.827 Y177.407 E25.61756
G1 X172.174 Y178.055 E25.64815
G1 X171.438 Y178.666 E25.67997
G1 X170.458 Y179.406 E25.72081
G1 X168.678 Y180.698 E25.79397
G1 X166.057 Y182.675 E25.90316
G1 X165.926 Y182.776 E25.90866
G1 X165.474 Y183.107 E25.9273
G1 X164.396 Y183.854 E25.97092
G1 X164.057 Y184.082 E25.98451
G1 X162.445 Y185.228 E26.05029
G1 X159.69 Y187.229 E26.16354
G1 X159.137 Y187.618 E26.18603
G1 X158.361 Y188.114 E26.21666
G1 X157.544 Y188.542 E26.24734
G1 X156.442 Y189.058 E26.28781
G1 X153.543 Y190.349 E26.39336
G1 X150.524 Y191.756 E26.50414
G1 X150.401 Y191.816 E26.50869
G1 X149.89 Y192.046 E26.52733
G1 X148.741 Y192.527 E26.56876
G1 X148.387 Y192.67 E26.58146
G1 X146.478 Y193.493 E26.6506
G1 X144.244 Y194.488 E26.73194
G1 X143.658 Y194.739 E26.75314
G1 X142.796 Y195.064 E26.78378
G1 X141.898 Y195.316 E26.8148
G1 X140.906 Y195.548 E26.84869
G1 X140.696 Y195.595 E26.85585
G1 X127.671 Y198.363 E27.29873
G1 X127.034 Y198.489 E27.32033
G1 X126.124 Y198.628 E27.35095
G1 X125.192 Y198.688 E27.38201
G1 X124.155 Y198.709 E27.41651
G1 X123.94 Y198.711 E27.42366
G1 X110.637 Y198.71 E27.86612
G1 X109.991 Y198.701 E27.88761
G1 X109.072 Y198.648 E27.91822
G1 X108.145 Y198.513 E27.94938
G1 X107.106 Y198.314 E27.98457
G1 X106.896 Y198.271 E27.9917
G1 X93.858 Y195.499 E28.43504
G1 X93.251 Y195.36 E28.45575
G1 X92.363 Y195.115 E28.48639
G1 X91.501 Y194.795 E28.51697
G1 X90.335 Y194.302 E28.55907
G1 X88.324 Y193.407 E28.63228
G1 X85.399 Y192.164 E28.73799
G1 X85.212 Y192.088 E28.7447
G1 X84.657 Y191.845 E28.76485
G1 X83.505 Y191.299 E28.80726
G1 X83.237 Y191.168 E28.81718
G1 X81.266 Y190.263 E28.88931
G1 X78.143 Y188.873 E29.00301
G1 X77.597 Y188.62 E29.02302
G1 X76.78 Y188.197 E29.05362
G1 X75.995 Y187.7 E29.08453
G1 X75.138 Y187.103 E29.11926
G1 X74.966 Y186.98 E29.1263
G1 X72.405 Y185.119 E29.23159
G1 X69.745 Y183.256 E29.3396
G1 X69.633 Y183.18 E29.34411
G1 X69.139 Y182.827 E29.3643
G1 X68.085 Y182.024 E29.40837
G1 X67.752 Y181.763 E29.42244
G1 X66.157 Y180.579 E29.48851
G1 X64.2 Y179.156 E29.56899
G1 X63.683 Y178.768 E29.59049
G1 X62.972 Y178.184 E29.62109
G1 X62.32 Y177.547 E29.65141
G1 X61.608 Y176.789 E29.686
G1 X61.457 Y176.625 E29.69341
G1 X52.538 Y166.72 E30.13673
G1 X52.119 Y166.24 E30.15792
G1 X51.545 Y165.521 E30.18852
G1 X51.031 Y164.749 E30.21937
G1 X50.482 Y163.84 E30.25469
G1 X50.376 Y163.66 E30.26164
G1 X43.721 Y152.131 E30.70439
G1 X43.421 Y151.594 E30.72485
G1 X43.007 Y150.771 E30.75549
G1 X42.662 Y149.903 E30.78656
G1 X42.325 Y148.933 E30.82071
G1 X42.257 Y148.73 E30.82783
G1 X38.143 Y136.068 E31.27065
G1 X37.95 Y135.443 E31.2924
G1 X37.717 Y134.552 E31.32303
G1 X37.56 Y133.632 E31.35408
G1 X37.429 Y132.586 E31.38914
G1 X37.405 Y132.373 E31.39627
G1 X37.186 Y130.277 E31.46636
G1 X36.739 Y126.672 E31.58718
G1 X36.697 Y126.271 E31.60059
G1 X36.612 Y125.26 E31.63433
G1 X36.551 Y124.411 E31.66265
G1 X36.388 Y122.7 E31.71981
G1 X36.022 Y119.209 E31.83656
G1 X35.959 Y118.513 E31.8598
G1 X35.916 Y117.593 E31.89044
G1 X35.954 Y116.66 E31.92149
G1 X36.045 Y115.589 E31.95724
G1 X36.065 Y115.38 E31.96423
G1 X36.395 Y112.237 E32.06934
G1 X36.674 Y109.057 E32.17551
G1 X36.687 Y108.872 E32.18168
G1 X36.747 Y108.267 E32.2019
G1 X36.893 Y107.128 E32.24009
G1 X36.947 Y106.744 E32.25299
G1 X37.198 Y104.597 E32.32489
G1 X37.453 Y102.176 E32.40585
G1 X37.529 Y101.538 E32.42722
G1 X37.678 Y100.63 E32.45783
G1 X37.912 Y99.713 E32.48931
G1 X38.215 Y98.715 E32.524
G1 X38.277 Y98.518 E32.53086
G1 X42.394 Y85.851 E32.97386
G1 X42.59 Y85.274 E32.99413
G1 X42.924 Y84.416 E33.02476
G1 X43.341 Y83.57 E33.05613
G1 X43.847 Y82.651 E33.09102
G1 X43.953 Y82.464 E33.09817
G1 X50.526 Y71.079 E33.53541
G1 X50.949 Y70.371 E33.56284
G1 X51.456 Y69.603 E33.59345
G1 X52.022 Y68.887 E33.62381
