;FLAVOR:Marlin
;TIME:21522
;Filament used: 24.2049m
;Layer height: 0.28
;MINX:37.264
;MINY:56.01
;MINZ:0.28
;MAXX:197.733
;MAXY:204.594
;MAXZ:29.12
;Generated with Cura_SteamEngine 4.10.0
M140 S50
M105
M190 S50
M104 S200
M105
M109 S200
M82 ;absolute extrusion mode
; Ender 3 Custom Start G-code
G92 E0 ; Reset Extruder
G28 ; Home all axes
G1 Z2.0 F3000 ; Move Z Axis up little to prevent scratching of Heat Bed
G1 X0.1 Y20 Z0.3 F5000.0 ; Move to start position
G1 X0.1 Y200.0 Z0.3 F1500.0 E15 ; Draw the first line
G1 X0.4 Y200.0 Z0.3 F5000.0 ; Move to side a little
G1 X0.4 Y20 Z0.3 F1500.0 E30 ; Draw the second line
G92 E0 ; Reset Extruder
G1 Z2.0 F3000 ; Move Z Axis up little to prevent scratching of Heat Bed
G1 X5 Y20 Z0.3 F5000.0 ; Move over to prevent blob squish
G92 E0
G92 E0
G1 F2700 E-5
;LAYER_COUNT:104
;LAYER:0
M107
G0 F6000 X49.875 Y64.556 Z0.28
;TYPE:SKIRT
G1 F2700 E0
G1 F1200 X50.709 Y63.925 E0.0487
G1 X50.88 Y63.798 E0.05862
G1 X53.718 Y61.736 E0.22196
G1 X54.402 Y61.254 E0.26093
G1 X55.192 Y60.748 E0.30461
G1 X56.044 Y60.301 E0.34941
G1 X56.967 Y59.867 E0.3969
G1 X57.172 Y59.773 E0.40741
G1 X60.599 Y58.248 E0.58207
G1 X61.156 Y58.01 E0.61027
G1 X62.033 Y57.678 E0.65394
G1 X62.977 Y57.413 E0.69959
G1 X63.958 Y57.184 E0.7465
G1 X64.168 Y57.137 E0.75652
G1 X67.784 Y56.368 E0.92866
G1 X68.424 Y56.241 E0.95905
G1 X69.351 Y56.098 E1.00272
G1 X70.345 Y56.033 E1.0491
G1 X71.394 Y56.012 E1.09796
G1 X71.617 Y56.01 E1.10834
G1 X75.312 Y56.012 E1.2804
G1 X75.93 Y56.021 E1.30918
G1 X76.867 Y56.075 E1.35288
G1 X77.839 Y56.216 E1.39862
G1 X78.904 Y56.42 E1.44911
G1 X79.124 Y56.465 E1.45956
G1 X82.666 Y57.219 E1.62819
G1 X83.372 Y57.38 E1.66191
G1 X84.276 Y57.628 E1.70556
G1 X84.852 Y57.829 E1.73397
G1 X85.809 Y58.194 E1.78166
G1 X88.217 Y59.076 E1.90107
G1 X90.569 Y59.863 E2.01656
G1 X93.02 Y60.606 E2.13581
G1 X95.45 Y61.269 E2.2531
G1 X97.89 Y61.859 E2.36999
G1 X100.346 Y62.382 E2.48692
G1 X102.813 Y62.835 E2.60371
G1 X105.305 Y63.219 E2.72112
G1 X107.812 Y63.533 E2.83877
G1 X110.339 Y63.778 E2.95699
G1 X112.819 Y63.948 E3.07274
G1 X115.34 Y64.049 E3.19022
G1 X117.864 Y64.078 E3.30776
G1 X120.352 Y64.037 E3.42362
G1 X122.872 Y63.924 E3.54108
G1 X125.422 Y63.737 E3.66014
G1 X127.876 Y63.486 E3.77501
G1 X130.41 Y63.155 E3.894
G1 X132.876 Y62.763 E4.01027
G1 X135.352 Y62.296 E4.1276
G1 X137.818 Y61.758 E4.24512
G1 X140.264 Y61.154 E4.36244
G1 X142.667 Y60.485 E4.47859
G1 X145.089 Y59.737 E4.59663
G1 X147.458 Y58.931 E4.71315
G1 X149.936 Y58.002 E4.83637
G1 X150.315 Y57.865 E4.85514
G1 X151.551 Y57.499 E4.91516
G1 X152.76 Y57.218 E4.97296
G1 X156.376 Y56.449 E5.1451
G1 X157.016 Y56.322 E5.17548
G1 X157.943 Y56.179 E5.21916
G1 X158.937 Y56.114 E5.26554
G1 X159.986 Y56.093 E5.3144
G1 X160.209 Y56.091 E5.32478
G1 X163.904 Y56.093 E5.49684
G1 X164.522 Y56.102 E5.52562
G1 X165.459 Y56.156 E5.56932
G1 X166.431 Y56.297 E5.61505
G1 X167.496 Y56.501 E5.66555
G1 X167.716 Y56.546 E5.676
G1 X171.252 Y57.299 E5.84435
G1 X171.907 Y57.448 E5.87562
G1 X172.812 Y57.695 E5.91931
G1 X173.739 Y58.037 E5.96532
G1 X174.7 Y58.442 E6.01388
G1 X174.9 Y58.529 E6.02403
G1 X178.243 Y60.017 E6.19442
G1 X178.841 Y60.293 E6.22509
G1 X179.675 Y60.722 E6.26876
G1 X180.526 Y61.26 E6.31564
G1 X181.383 Y61.858 E6.3643
G1 X184.39 Y64.041 E6.53732
G1 X184.533 Y64.146 E6.54559
G1 X185.056 Y64.539 E6.57605
G1 X185.781 Y65.134 E6.61972
G1 X186.466 Y65.802 E6.66427
G1 X187.178 Y66.56 E6.7127
G1 X187.335 Y66.732 E6.72354
G1 X189.827 Y69.501 E6.897
G1 X190.239 Y69.974 E6.92621
G1 X190.824 Y70.707 E6.96988
G1 X191.355 Y71.504 E7.01448
G1 X191.899 Y72.403 E7.0634
G1 X192.013 Y72.596 E7.07384
G1 X193.85 Y75.778 E7.24493
G1 X194.163 Y76.339 E7.27484
G1 X194.585 Y77.177 E7.31853
G1 X194.947 Y78.086 E7.36409
G1 X195.284 Y79.055 E7.41186
G1 X195.356 Y79.269 E7.42237
G1 X196.494 Y82.775 E7.59401
G1 X196.684 Y83.386 E7.62381
G1 X196.924 Y84.292 E7.66745
G1 X197.096 Y85.294 E7.71479
G1 X197.224 Y86.323 E7.76307
G1 X197.248 Y86.536 E7.77305
G1 X197.632 Y90.213 E7.9452
G1 X197.689 Y90.848 E7.97489
G1 X197.733 Y91.784 E8.01852
G1 X197.694 Y92.758 E8.06391
G1 X197.608 Y93.775 E8.11144
G1 X197.587 Y93.992 E8.12159
G1 X197.202 Y97.663 E8.29346
G1 X197.117 Y98.374 E8.32681
G1 X196.972 Y99.274 E8.36925
G1 X196.905 Y99.602 E8.38484
G1 X196.417 Y102.149 E8.5056
G1 X196.012 Y104.652 E8.62366
G1 X195.681 Y107.131 E8.74012
G1 X195.42 Y109.629 E8.85707
G1 X195.232 Y112.111 E8.97298
G1 X195.111 Y114.664 E9.09199
G1 X195.062 Y117.157 E9.20809
G1 X195.086 Y119.719 E9.3274
G1 X195.178 Y122.193 E9.44268
G1 X195.343 Y124.696 E9.55948
G1 X195.581 Y127.226 E9.67781
G1 X195.89 Y129.741 E9.7958
G1 X196.259 Y132.185 E9.91089
G1 X196.716 Y134.709 E10.03033
G1 X196.846 Y135.347 E10.06065
G1 X196.93 Y135.791 E10.08169
G1 X197.037 Y136.47 E10.1137
G1 X197.182 Y137.629 E10.16808
G1 X197.207 Y137.851 E10.17849
G1 X197.587 Y141.488 E10.34876
G1 X197.646 Y142.136 E10.37906
G1 X197.691 Y143.072 E10.42269
G1 X197.652 Y144.063 E10.46888
G1 X197.564 Y145.1 E10.51734
G1 X197.178 Y148.804 E10.69074
G1 X197.082 Y149.619 E10.72896
G1 X196.931 Y150.544 E10.7726
G1 X196.685 Y151.508 E10.81892
G1 X196.371 Y152.542 E10.86924
G1 X196.306 Y152.75 E10.87939
G1 X195.195 Y156.162 E11.04648
G1 X194.976 Y156.807 E11.0782
G1 X194.637 Y157.681 E11.12185
G1 X194.19 Y158.586 E11.16885
G1 X193.68 Y159.51 E11.21799
G1 X193.577 Y159.693 E11.22777
G1 X191.828 Y162.723 E11.39068
G1 X191.402 Y163.437 E11.42939
G1 X190.887 Y164.22 E11.47303
G1 X190.283 Y164.984 E11.51838
G1 X189.577 Y165.8 E11.56862
G1 X189.436 Y165.96 E11.57856
G1 X187.043 Y168.618 E11.74509
G1 X186.569 Y169.131 E11.77762
G1 X185.904 Y169.792 E11.82128
G1 X185.131 Y170.435 E11.86809
G1 X184.286 Y171.075 E11.91745
G1 X184.11 Y171.206 E11.92767
G1 X181.285 Y173.258 E12.09025
G1 X180.615 Y173.731 E12.12844
G1 X179.826 Y174.238 E12.17211
G1 X178.941 Y174.703 E12.21866
G1 X178.018 Y175.135 E12.26612
G1 X177.829 Y175.221 E12.27579
G1 X174.465 Y176.718 E12.44724
G1 X173.814 Y176.997 E12.48022
G1 X172.984 Y177.309 E12.52151
G1 X172.874 Y177.35 E12.52697
G1 X170.477 Y178.181 E12.6451
G1 X168.12 Y179.073 E12.76245
G1 X165.758 Y180.046 E12.8814
G1 X163.476 Y181.062 E12.99772
G1 X161.198 Y182.153 E13.11533
G1 X158.99 Y183.29 E13.23097
G1 X156.763 Y184.516 E13.34935
G1 X154.6 Y185.79 E13.46624
G1 X152.445 Y187.14 E13.58465
G1 X150.37 Y188.524 E13.70079
G1 X148.321 Y189.977 E13.81775
G1 X146.306 Y191.492 E13.93514
G1 X144.338 Y193.063 E14.0524
G1 X142.401 Y194.699 E14.17046
G1 X141.935 Y195.114 E14.19951
G1 X141.421 Y195.558 E14.23114
G1 X140.878 Y195.997 E14.26366
G1 X139.82 Y196.795 E14.32536
G1 X136.966 Y198.869 E14.48964
G1 X136.283 Y199.35 E14.52854
G1 X135.493 Y199.856 E14.57222
G1 X134.639 Y200.305 E14.61715
G1 X133.729 Y200.733 E14.66398
G1 X133.518 Y200.829 E14.67477
G1 X130.147 Y202.328 E14.84656
G1 X129.546 Y202.586 E14.87701
G1 X128.669 Y202.919 E14.9207
G1 X127.705 Y203.191 E14.96734
G1 X126.663 Y203.434 E15.01716
G1 X126.455 Y203.48 E15.02708
G1 X122.923 Y204.231 E15.19522
G1 X122.264 Y204.362 E15.2265
G1 X121.337 Y204.505 E15.27018
G1 X120.338 Y204.571 E15.3168
G1 X119.285 Y204.592 E15.36584
G1 X119.063 Y204.594 E15.37618
G1 X115.372 Y204.592 E15.54805
G1 X114.754 Y204.583 E15.57683
G1 X113.817 Y204.529 E15.62053
G1 X112.845 Y204.388 E15.66626
G1 X111.78 Y204.184 E15.71676
G1 X111.56 Y204.139 E15.72721
G1 X108.028 Y203.387 E15.89536
G1 X107.372 Y203.238 E15.92669
G1 X106.467 Y202.991 E15.97037
G1 X105.534 Y202.647 E16.01667
G1 X104.557 Y202.235 E16.06605
G1 X104.361 Y202.15 E16.07599
G1 X101.184 Y200.737 E16.2379
G1 X100.439 Y200.394 E16.27609
G1 X99.604 Y199.966 E16.31978
G1 X98.747 Y199.425 E16.36697
G1 X97.913 Y198.843 E16.41433
G1 X94.854 Y196.621 E16.59038
G1 X94.178 Y196.116 E16.62967
G1 X93.478 Y195.545 E16.67174
G1 X93.193 Y195.292 E16.68948
G1 X91.229 Y193.592 E16.81043
G1 X89.303 Y192.02 E16.9262
G1 X87.291 Y190.468 E17.04452
G1 X85.248 Y188.984 E17.1621
G1 X83.209 Y187.588 E17.27716
G1 X81.062 Y186.207 E17.39603
G1 X78.898 Y184.899 E17.51377
G1 X76.741 Y183.677 E17.62921
G1 X74.493 Y182.487 E17.74765
G1 X72.217 Y181.363 E17.86585
G1 X69.962 Y180.328 E17.98138
G1 X67.651 Y179.345 E18.09832
G1 X65.255 Y178.405 E18.21817
G1 X62.905 Y177.56 E18.33445
G1 X62.616 Y177.462 E18.34866
G1 X62.011 Y177.251 E18.3785
G1 X61.352 Y176.998 E18.41137
G1 X60.256 Y176.535 E18.46677
G1 X60.067 Y176.453 E18.47636
G1 X56.906 Y175.047 E18.63745
G1 X56.161 Y174.704 E18.67565
G1 X55.326 Y174.276 E18.71934
G1 X54.469 Y173.735 E18.76653
G1 X53.635 Y173.153 E18.81388
G1 X50.576 Y170.931 E18.98994
G1 X49.956 Y170.468 E19.02597
G1 X49.23 Y169.874 E19.06965
G1 X48.533 Y169.195 E19.11496
G1 X47.812 Y168.427 E19.16401
G1 X47.657 Y168.258 E19.17468
G1 X45.291 Y165.63 E19.33934
G1 X44.76 Y165.022 E19.37693
G1 X44.174 Y164.289 E19.42063
G1 X43.639 Y163.485 E19.4656
G1 X43.106 Y162.603 E19.51358
G1 X42.995 Y162.415 E19.52375
G1 X41.138 Y159.198 E19.69671
G1 X40.839 Y158.663 E19.72525
G1 X40.417 Y157.826 E19.7689
G1 X40.052 Y156.913 E19.81468
G1 X39.713 Y155.939 E19.8627
G1 X39.641 Y155.723 E19.87331
G1 X38.51 Y152.241 E20.04378
G1 X38.314 Y151.61 E20.07455
G1 X38.074 Y150.703 E20.11824
G1 X37.904 Y149.71 E20.16515
G1 X37.771 Y148.645 E20.21512
G1 X37.746 Y148.427 E20.22534
G1 X37.368 Y144.81 E20.39468
G1 X37.309 Y144.162 E20.42498
G1 X37.264 Y143.226 E20.46861
G1 X37.303 Y142.235 E20.51479
G1 X37.391 Y141.198 E20.56325
G1 X37.777 Y137.494 E20.73666
G1 X37.796 Y137.321 E20.74477
G1 X37.881 Y136.616 E20.77783
G1 X38.026 Y135.725 E20.81987
G1 X38.077 Y135.476 E20.8317
G1 X38.582 Y132.838 E20.95677
G1 X38.977 Y130.408 E21.0714
G1 X39.315 Y127.884 E21.18998
G1 X39.576 Y125.393 E21.30661
G1 X39.77 Y122.864 E21.42471
G1 X39.89 Y120.376 E21.5407
G1 X39.939 Y117.86 E21.65788
G1 X39.917 Y115.331 E21.77564
G1 X39.825 Y112.81 E21.89311
G1 X39.66 Y110.294 E22.01052
G1 X39.427 Y107.801 E22.12711
G1 X39.119 Y105.281 E22.24532
G1 X38.746 Y102.814 E22.3615
G1 X38.299 Y100.329 E22.47907
G1 X38.199 Y99.847 E22.50199
G1 X38.076 Y99.205 E22.53243
G1 X37.967 Y98.516 E22.56491
G1 X37.824 Y97.373 E22.61855
G1 X37.799 Y97.156 E22.62872
G1 X37.431 Y93.653 E22.79273
G1 X37.357 Y92.839 E22.83079
G1 X37.313 Y91.902 E22.87447
G1 X37.352 Y90.927 E22.91991
G1 X37.437 Y89.925 E22.96673
G1 X37.458 Y89.709 E22.97684
G1 X37.845 Y86.022 E23.14946
G1 X37.922 Y85.376 E23.17976
G1 X38.073 Y84.45 E23.22345
G1 X38.32 Y83.48 E23.27005
G1 X38.629 Y82.463 E23.31955
G1 X38.694 Y82.257 E23.32961
G1 X39.812 Y78.826 E23.49764
G1 X40.032 Y78.179 E23.52946
G1 X40.371 Y77.305 E23.57311
G1 X40.814 Y76.406 E23.61978
G1 X41.321 Y75.487 E23.66865
G1 X43.161 Y72.295 E23.84021
G1 X43.607 Y71.548 E23.88072
G1 X44.123 Y70.765 E23.92438
G1 X44.716 Y70.015 E23.9689
G1 X45.398 Y69.225 E24.0175
G1 X45.548 Y69.054 E24.02809
G1 X48.007 Y66.324 E24.19918
G1 X48.433 Y65.863 E24.22841
G1 X49.098 Y65.202 E24.27207
G1 X49.875 Y64.556 E24.31912
G0 F6000 X50.116 Y64.875
G1 F1200 X50.95 Y64.244 E24.36782
G1 X51.115 Y64.122 E24.37737
G1 X54.091 Y61.961 E24.54863
G1 X54.632 Y61.581 E24.57941
G1 X55.408 Y61.085 E24.62229
G1 X56.215 Y60.663 E24.6647
G1 X57.335 Y60.138 E24.7223
G1 X60.608 Y58.68 E24.88914
G1 X61.313 Y58.378 E24.92485
G1 X62.175 Y58.053 E24.96775
G1 X63.068 Y57.803 E25.01093
G1 X64.251 Y57.528 E25.06748
G1 X67.717 Y56.79 E25.23249
G1 X68.502 Y56.634 E25.26976
G1 X69.412 Y56.494 E25.31263
G1 X70.353 Y56.433 E25.35654
G1 X71.402 Y56.412 E25.4054
G1 X71.617 Y56.41 E25.41541
G1 X75.306 Y56.412 E25.58718
G1 X75.924 Y56.421 E25.61596
G1 X76.843 Y56.474 E25.65883
G1 X77.764 Y56.609 E25.70217
G1 X78.829 Y56.813 E25.75266
G1 X79.04 Y56.856 E25.76269
G1 X82.577 Y57.609 E25.93108
G1 X83.283 Y57.77 E25.9648
G1 X84.171 Y58.014 E26.00768
G1 X84.709 Y58.203 E26.03423
G1 X85.653 Y58.564 E26.08129
G1 X88.069 Y59.448 E26.20109
G1 X90.473 Y60.252 E26.31912
G1 X92.894 Y60.987 E26.43693
G1 X95.356 Y61.658 E26.55576
G1 X97.791 Y62.247 E26.67241
G1 X100.289 Y62.779 E26.79133
G1 X102.751 Y63.231 E26.90789
G1 X105.231 Y63.613 E27.02473
G1 X107.76 Y63.93 E27.14342
G1 X110.308 Y64.177 E27.26262
G1 X112.774 Y64.346 E27.37771
G1 X115.354 Y64.449 E27.49795
G1 X117.831 Y64.478 E27.61329
G1 X120.412 Y64.435 E27.73349
G1 X122.884 Y64.324 E27.84871
G1 X125.455 Y64.135 E27.96875
G1 X127.936 Y63.882 E28.08488
G1 X130.454 Y63.554 E28.20312
G1 X132.941 Y63.157 E28.32039
G1 X135.447 Y62.685 E28.43913
G1 X137.886 Y62.153 E28.55537
G1 X140.362 Y61.541 E28.67413
G1 X142.787 Y60.866 E28.79134
G1 X145.22 Y60.115 E28.90991
G1 X147.611 Y59.302 E29.0275
G1 X150.072 Y58.378 E29.14991
G1 X150.451 Y58.241 E29.16868
G1 X151.642 Y57.888 E29.22652
G1 X152.843 Y57.609 E29.28393
G1 X156.309 Y56.871 E29.44894
G1 X157.094 Y56.715 E29.48621
G1 X158.004 Y56.575 E29.52908
G1 X158.945 Y56.514 E29.57299
G1 X159.994 Y56.493 E29.62184
G1 X160.209 Y56.491 E29.63186
G1 X163.898 Y56.493 E29.80363
G1 X164.516 Y56.502 E29.83241
G1 X165.435 Y56.555 E29.87527
G1 X166.356 Y56.69 E29.91862
G1 X167.421 Y56.894 E29.96911
G1 X167.632 Y56.937 E29.97914
G1 X171.163 Y57.689 E30.14724
G1 X171.818 Y57.838 E30.17852
G1 X172.706 Y58.081 E30.22139
G1 X173.584 Y58.406 E30.26499
G1 X174.545 Y58.811 E30.31355
G1 X174.737 Y58.894 E30.32329
G1 X177.942 Y60.32 E30.48663
G1 X178.673 Y60.657 E30.52411
G1 X179.491 Y61.078 E30.56695
G1 X180.297 Y61.588 E30.61136
G1 X181.154 Y62.186 E30.66002
G1 X181.318 Y62.303 E30.6694
G1 X184.293 Y64.466 E30.84067
G1 X184.816 Y64.859 E30.87114
G1 X185.527 Y65.443 E30.91398
G1 X186.174 Y66.076 E30.95613
G1 X186.886 Y66.834 E31.00455
G1 X187.038 Y66.999 E31.015
G1 X189.41 Y69.634 E31.18009
G1 X189.937 Y70.237 E31.21738
G1 X190.511 Y70.957 E31.26025
G1 X191.013 Y71.711 E31.30243
G1 X191.557 Y72.61 E31.35136
G1 X191.667 Y72.796 E31.36142
G1 X193.501 Y75.973 E31.53224
G1 X193.814 Y76.534 E31.56215
G1 X194.227 Y77.357 E31.60503
G1 X194.569 Y78.217 E31.64812
G1 X194.906 Y79.186 E31.69589
G1 X194.975 Y79.392 E31.70601
G1 X196.112 Y82.893 E31.87741
G1 X196.302 Y83.504 E31.90721
G1 X196.537 Y84.395 E31.95012
G1 X196.699 Y85.344 E31.99494
G1 X196.827 Y86.373 E32.04323
G1 X196.85 Y86.577 E32.05279
G1 X197.234 Y90.248 E32.22466
G1 X197.291 Y90.883 E32.25434
G1 X197.333 Y91.803 E32.29723
G1 X197.295 Y92.724 E32.34015
G1 X197.209 Y93.741 E32.38767
G1 X197.189 Y93.951 E32.3975
G1 X196.805 Y97.615 E32.56904
G1 X196.72 Y98.326 E32.60239
G1 X196.58 Y99.193 E32.64328
G1 X196.515 Y99.51 E32.65835
G1 X196.023 Y102.081 E32.78024
G1 X195.62 Y104.571 E32.89769
G1 X195.286 Y107.073 E33.01523
G1 X195.023 Y109.592 E33.13316
G1 X194.83 Y112.131 E33.25173
G1 X194.711 Y114.637 E33.36855
G1 X194.662 Y117.153 E33.48573
G1 X194.686 Y119.702 E33.60442
G1 X194.78 Y122.236 E33.7225
G1 X194.946 Y124.756 E33.8401
G1 X195.18 Y127.241 E33.95632
G1 X195.492 Y129.783 E34.07557
G1 X195.869 Y132.278 E34.19307
G1 X196.322 Y134.783 E34.31161
G1 X196.453 Y135.422 E34.34198
G1 X196.537 Y135.866 E34.36302
G1 X196.64 Y136.52 E34.39385
G1 X196.81 Y137.892 E34.45822
G1 X197.175 Y141.382 E34.62162
G1 X197.247 Y142.172 E34.65856
G1 X197.291 Y143.091 E34.7014
G1 X197.253 Y144.029 E34.74511
G1 X197.146 Y145.273 E34.80325
G1 X196.781 Y148.763 E34.96665
G1 X196.685 Y149.571 E35.00453
G1 X196.536 Y150.48 E35.04743
G1 X196.303 Y151.392 E35.09126
G1 X195.989 Y152.426 E35.14157
G1 X195.926 Y152.626 E35.15134
G1 X194.816 Y156.033 E35.31819
G1 X194.597 Y156.678 E35.34991
G1 X194.264 Y157.536 E35.39276
G1 X193.84 Y158.392 E35.43724
G1 X193.33 Y159.316 E35.48639
G1 X193.23 Y159.493 E35.49585
G1 X191.396 Y162.668 E35.66659
G1 X191.059 Y163.231 E35.69714
G1 X190.552 Y164 E35.74003
G1 X189.98 Y164.723 E35.78296
G1 X189.274 Y165.539 E35.8332
G1 X186.844 Y168.242 E36.00245
G1 X186.275 Y168.86 E36.04157
G1 X185.622 Y169.508 E36.0844
G1 X184.89 Y170.116 E36.12871
G1 X184.045 Y170.756 E36.17807
G1 X183.875 Y170.882 E36.18792
G1 X180.927 Y173.022 E36.35755
G1 X180.385 Y173.404 E36.38843
G1 X179.61 Y173.901 E36.4313
G1 X178.771 Y174.34 E36.47539
G1 X177.666 Y174.856 E36.53218
G1 X174.308 Y176.35 E36.70332
G1 X173.657 Y176.629 E36.7363
G1 X172.773 Y176.962 E36.78028
G1 X170.34 Y177.805 E36.90018
G1 X167.962 Y178.706 E37.01859
G1 X165.621 Y179.669 E37.13646
