;FLAVOR:Marlin
;TIME:16454
;Filament used: 11.7964m
;Layer height: 0.16
;MINX:64.762
;MINY:65.007
;MINZ:0.2
;MAXX:170.238
;MAXY:169.993
;MAXZ:40.08
;Generated with Cura_SteamEngine 4.10.0
M140 S50
M105
M190 S50
M104 S200
M105
M109 S200
M82 ;absolute extrusion mode
; Ender 3 Custom Start G-code
G92 E0 ; Reset Extruder
G28 ; Home all axes
G1 Z2.0 F3000 ; Move Z Axis up little to prevent scratching of Heat Bed
G1 X0.1 Y20 Z0.3 F5000.0 ; Move to start position
G1 X0.1 Y200.0 Z0.3 F1500.0 E15 ; Draw the first line
G1 X0.4 Y200.0 Z0.3 F5000.0 ; Move to side a little
G1 X0.4 Y20 Z0.3 F1500.0 E30 ; Draw the second line
G92 E0 ; Reset Extruder
G1 Z2.0 F3000 ; Move Z Axis up little to prevent scratching of Heat Bed
G1 X5 Y20 Z0.3 F5000.0 ; Move over to prevent blob squish
G92 E0
G92 E0
G1 F2700 E-5
;LAYER_COUNT:202
;LAYER:0
M107
G0 F6000 X81.627 Y78.891 Z0.2
;TYPE:SKIRT
G1 F2700 E0
G1 F1200 X82.28 Y78.246 E0.03053
G1 X82.858 Y77.784 E0.05514
G1 X90.44 Y72.278 E0.3668
G1 X91.03 Y71.889 E0.3903
G1 X91.868 Y71.453 E0.42172
G1 X100.426 Y67.639 E0.73335
G1 X101.163 Y67.354 E0.75963
G1 X101.98 Y67.133 E0.78778
G1 X111.175 Y65.179 E1.10044
G1 X112.077 Y65.042 E1.13078
G1 X112.817 Y65.007 E1.15542
G1 X122.183 Y65.007 E1.46694
G1 X122.944 Y65.044 E1.49228
G1 X123.825 Y65.179 E1.52192
G1 X133.021 Y67.133 E1.83461
G1 X133.784 Y67.336 E1.86087
G1 X134.576 Y67.639 E1.88907
G1 X143.133 Y71.454 E2.20068
G1 X143.736 Y71.755 E2.2231
G1 X144.56 Y72.278 E2.25556
G1 X152.146 Y77.787 E2.56738
G1 X152.715 Y78.242 E2.59162
G1 X153.376 Y78.893 E2.62247
G1 X159.647 Y85.859 E2.93422
G1 X160.287 Y86.673 E2.96866
G1 X160.618 Y87.197 E2.98927
G1 X165.313 Y95.33 E3.30161
G1 X165.673 Y96.033 E3.32788
G1 X165.977 Y96.821 E3.35597
G1 X168.873 Y105.739 E3.66784
G1 X169.026 Y106.276 E3.68641
G1 X169.216 Y107.353 E3.72278
G1 X170.195 Y116.674 E4.0345
G1 X170.238 Y117.509 E4.06231
G1 X170.195 Y118.323 E4.08942
G1 X169.216 Y127.649 E4.40131
G1 X169.094 Y128.43 E4.4276
G1 X168.878 Y129.244 E4.45561
G1 X165.978 Y138.176 E4.76796
G1 X165.601 Y139.12 E4.80177
G1 X165.304 Y139.689 E4.82312
G1 X160.618 Y147.804 E5.13479
G1 X160.287 Y148.327 E5.15538
G1 X159.647 Y149.141 E5.18982
G1 X153.373 Y156.109 E5.50168
G1 X152.72 Y156.754 E5.5322
G1 X152.142 Y157.216 E5.55681
G1 X144.56 Y162.722 E5.86847
G1 X143.97 Y163.111 E5.89198
G1 X143.132 Y163.547 E5.9234
G1 X134.574 Y167.361 E6.23502
G1 X133.837 Y167.646 E6.26131
G1 X133.02 Y167.867 E6.28946
G1 X123.825 Y169.821 E6.60211
G1 X122.923 Y169.958 E6.63246
G1 X122.183 Y169.993 E6.6571
G1 X112.817 Y169.993 E6.96861
G1 X112.056 Y169.956 E6.99395
G1 X111.175 Y169.821 E7.0236
G1 X101.979 Y167.867 E7.33628
G1 X101.216 Y167.664 E7.36255
G1 X100.424 Y167.361 E7.39075
G1 X91.867 Y163.546 E7.70236
G1 X91.264 Y163.245 E7.72478
G1 X90.44 Y162.722 E7.75724
G1 X82.853 Y157.212 E8.06911
G1 X82.258 Y156.735 E8.09447
G1 X81.622 Y156.105 E8.12425
G1 X75.353 Y149.141 E8.43589
G1 X74.713 Y148.327 E8.47033
G1 X74.382 Y147.804 E8.49092
G1 X69.696 Y139.689 E8.80259
G1 X69.399 Y139.12 E8.82394
G1 X69.022 Y138.175 E8.85778
G1 X66.122 Y129.239 E9.17025
G1 X65.916 Y128.476 E9.19654
G1 X65.784 Y127.646 E9.22449
G1 X64.805 Y118.326 E9.53618
G1 X64.762 Y117.491 E9.56399
G1 X64.805 Y116.677 E9.5911
G1 X65.784 Y107.351 E9.90299
G1 X65.906 Y106.57 E9.92928
G1 X66.122 Y105.756 E9.95729
G1 X69.022 Y96.824 E10.26964
G1 X69.399 Y95.88 E10.30345
G1 X69.696 Y95.311 E10.3248
G1 X74.382 Y87.196 E10.63647
G1 X74.713 Y86.673 E10.65706
G1 X75.353 Y85.859 E10.6915
G1 X81.627 Y78.891 E11.00336
G0 F6000 X81.925 Y79.158
G1 F1200 X82.545 Y78.546 E11.03233
G1 X83.093 Y78.107 E11.05568
G1 X90.675 Y72.601 E11.36734
G1 X91.236 Y72.232 E11.38968
G1 X92.031 Y71.818 E11.41949
G1 X100.589 Y68.004 E11.73112
G1 X101.307 Y67.728 E11.7567
G1 X102.063 Y67.525 E11.78274
G1 X111.258 Y65.571 E12.09539
G1 X112.115 Y65.44 E12.12423
G1 X112.817 Y65.407 E12.1476
G1 X122.183 Y65.407 E12.45912
G1 X122.906 Y65.442 E12.48319
G1 X123.742 Y65.571 E12.51133
G1 X132.938 Y67.525 E12.82401
G1 X133.681 Y67.723 E12.84959
G1 X134.413 Y68.004 E12.87567
G1 X142.97 Y71.819 E13.18728
G1 X143.543 Y72.105 E13.20858
G1 X144.325 Y72.601 E13.23938
G1 X151.911 Y78.11 E13.5512
G1 X152.452 Y78.543 E13.57425
G1 X153.079 Y79.161 E13.60353
G1 X159.35 Y86.127 E13.91527
G1 X159.957 Y86.899 E13.94794
G1 X160.272 Y87.397 E13.96754
G1 X164.967 Y95.53 E14.27988
G1 X165.316 Y96.216 E14.30548
G1 X165.596 Y96.944 E14.33142
G1 X168.492 Y105.862 E14.64328
G1 X168.638 Y106.373 E14.66096
G1 X168.819 Y107.395 E14.69548
G1 X169.798 Y116.716 E15.0072
G1 X169.838 Y117.509 E15.03361
G1 X169.798 Y118.282 E15.05936
G1 X168.819 Y127.608 E15.37124
G1 X168.699 Y128.367 E15.3968
G1 X168.497 Y129.12 E15.42273
G1 X165.597 Y138.052 E15.73508
G1 X165.24 Y138.949 E15.76719
G1 X164.957 Y139.488 E15.78744
G1 X160.271 Y147.603 E16.09911
G1 X159.957 Y148.101 E16.11869
G1 X159.349 Y148.874 E16.1514
G1 X153.075 Y155.842 E16.46326
G1 X152.455 Y156.454 E16.49224
G1 X151.907 Y156.893 E16.51559
G1 X144.325 Y162.399 E16.82725
G1 X143.764 Y162.768 E16.84958
G1 X142.969 Y163.182 E16.87939
G1 X134.411 Y166.996 E17.19102
G1 X133.693 Y167.272 E17.21661
G1 X132.937 Y167.475 E17.24264
G1 X123.742 Y169.429 E17.5553
G1 X122.885 Y169.56 E17.58413
G1 X122.183 Y169.593 E17.60751
G1 X112.817 Y169.593 E17.91902
G1 X112.094 Y169.558 E17.9431
G1 X111.258 Y169.429 E17.97123
G1 X102.062 Y167.475 E18.28392
G1 X101.319 Y167.277 E18.30949
G1 X100.587 Y166.996 E18.33557
G1 X92.03 Y163.181 E18.64718
G1 X91.457 Y162.895 E18.66848
G1 X90.675 Y162.399 E18.69928
G1 X83.088 Y156.889 E19.01115
G1 X82.523 Y156.435 E19.03526
G1 X81.919 Y155.837 E19.06353
G1 X75.65 Y148.873 E19.37518
G1 X75.043 Y148.101 E19.40784
G1 X74.729 Y147.603 E19.42742
G1 X70.043 Y139.488 E19.7391
G1 X69.76 Y138.949 E19.75935
G1 X69.402 Y138.051 E19.7915
G1 X66.502 Y129.115 E20.10397
G1 X66.303 Y128.372 E20.12956
G1 X66.181 Y127.604 E20.15542
G1 X65.202 Y118.284 E20.46711
G1 X65.162 Y117.491 E20.49352
G1 X65.202 Y116.718 E20.51926
G1 X66.181 Y107.392 E20.83115
G1 X66.301 Y106.633 E20.85671
G1 X66.503 Y105.88 E20.88264
G1 X69.403 Y96.948 E21.19499
G1 X69.76 Y96.051 E21.2271
G1 X70.043 Y95.512 E21.24734
G1 X74.729 Y87.397 E21.55902
G1 X75.043 Y86.899 E21.5786
G1 X75.651 Y86.126 E21.61131
G1 X81.925 Y79.158 E21.92317
G0 F6000 X82.222 Y79.426
G1 F1200 X82.81 Y78.846 E21.95064
G1 X83.328 Y78.431 E21.97271
G1 X90.91 Y72.925 E22.28437
G1 X91.442 Y72.575 E22.30555
G1 X92.194 Y72.183 E22.33376
G1 X100.752 Y68.369 E22.64539
G1 X101.45 Y68.102 E22.67024
G1 X102.146 Y67.916 E22.6942
G1 X111.341 Y65.962 E23.00686
G1 X112.153 Y65.839 E23.03418
G1 X112.817 Y65.807 E23.05629
G1 X122.183 Y65.807 E23.3678
G1 X122.868 Y65.841 E23.39061
G1 X123.659 Y65.962 E23.41723
G1 X132.855 Y67.916 E23.72991
G1 X133.577 Y68.11 E23.75478
G1 X134.25 Y68.37 E23.77878
G1 X142.807 Y72.185 E24.09039
G1 X143.35 Y72.455 E24.11056
G1 X144.09 Y72.925 E24.13971
G1 X151.676 Y78.434 E24.45154
G1 X152.189 Y78.844 E24.47338
G1 X152.781 Y79.429 E24.50106
G1 X159.052 Y86.395 E24.81281
G1 X159.627 Y87.125 E24.84371
G1 X159.925 Y87.597 E24.86228
G1 X164.62 Y95.73 E25.17462
G1 X164.959 Y96.397 E25.19951
G1 X165.216 Y97.068 E25.2234
G1 X168.112 Y105.986 E25.53527
G1 X168.25 Y106.47 E25.55201
G1 X168.421 Y107.437 E25.58467
G1 X169.4 Y116.758 E25.89639
G1 X169.438 Y117.509 E25.9214
G1 X169.4 Y118.24 E25.94575
G1 X168.421 Y127.566 E26.25764
G1 X168.303 Y128.305 E26.28253
G1 X168.117 Y128.997 E26.30636
G1 X165.217 Y137.929 E26.6187
G1 X164.879 Y138.777 E26.64907
G1 X164.611 Y139.288 E26.66826
G1 X159.925 Y147.403 E26.97993
G1 X159.627 Y147.875 E26.9985
G1 X159.052 Y148.606 E27.02943
G1 X152.778 Y155.574 E27.34129
G1 X152.19 Y156.154 E27.36876
G1 X151.672 Y156.569 E27.39084
G1 X144.09 Y162.075 E27.70249
G1 X143.558 Y162.425 E27.72367
G1 X142.806 Y162.817 E27.75188
G1 X134.248 Y166.631 E28.06351
G1 X133.55 Y166.898 E28.08836
G1 X132.854 Y167.084 E28.11233
G1 X123.659 Y169.038 E28.42498
G1 X122.847 Y169.161 E28.4523
G1 X122.183 Y169.193 E28.47441
G1 X112.817 Y169.193 E28.78592
G1 X112.132 Y169.159 E28.80873
G1 X111.341 Y169.038 E28.83535
G1 X102.145 Y167.084 E29.14804
G1 X101.423 Y166.89 E29.1729
G1 X100.75 Y166.63 E29.1969
G1 X92.193 Y162.815 E29.50851
G1 X91.65 Y162.545 E29.52868
G1 X90.91 Y162.075 E29.55784
G1 X83.323 Y156.565 E29.86971
G1 X82.788 Y156.135 E29.89254
G1 X82.216 Y155.569 E29.9193
G1 X75.947 Y148.605 E30.23095
G1 X75.373 Y147.875 E30.26184
G1 X75.075 Y147.403 E30.2804
G1 X70.389 Y139.288 E30.59208
G1 X70.121 Y138.777 E30.61127
G1 X69.783 Y137.928 E30.64166
G1 X66.883 Y128.992 E30.95413
G1 X66.69 Y128.269 E30.97902
G1 X66.579 Y127.562 E31.00283
G1 X65.6 Y118.242 E31.31452
G1 X65.562 Y117.491 E31.33953
G1 X65.6 Y116.76 E31.36387
G1 X66.579 Y107.434 E31.67576
G1 X66.697 Y106.695 E31.70065
G1 X66.883 Y106.003 E31.72448
G1 X69.783 Y97.071 E32.03683
G1 X70.121 Y96.223 E32.06719
G1 X70.389 Y95.712 E32.08638
G1 X75.075 Y87.597 E32.39806
G1 X75.373 Y87.125 E32.41662
G1 X75.948 Y86.394 E32.44756
G1 X82.222 Y79.426 E32.75942
G0 F6000 X82.519 Y79.694
G1 F1200 X83.074 Y79.146 E32.78536
G1 X83.563 Y78.755 E32.80618
G1 X91.145 Y73.249 E33.11784
G1 X91.647 Y72.918 E33.13784
G1 X92.356 Y72.549 E33.16442
G1 X100.914 Y68.735 E33.47605
G1 X101.593 Y68.476 E33.50022
G1 X102.229 Y68.307 E33.52211
G1 X111.424 Y66.353 E33.83477
G1 X112.191 Y66.237 E33.86057
G1 X112.817 Y66.207 E33.88141
G1 X122.183 Y66.207 E34.19292
G1 X122.83 Y66.239 E34.21447
G1 X123.576 Y66.353 E34.23957
G1 X132.772 Y68.307 E34.55226
G1 X133.473 Y68.497 E34.57642
G1 X134.088 Y68.735 E34.59835
G1 X142.645 Y72.55 E34.90996
G1 X143.158 Y72.806 E34.92903
G1 X143.855 Y73.249 E34.9565
G1 X151.441 Y78.758 E35.26832
G1 X151.925 Y79.145 E35.28893
G1 X152.484 Y79.696 E35.31504
G1 X158.755 Y86.662 E35.62678
G1 X159.297 Y87.351 E35.65594
G1 X159.579 Y87.797 E35.67349
G1 X164.274 Y95.93 E35.98583
G1 X164.602 Y96.578 E36.00999
G1 X164.835 Y97.192 E36.03183
G1 X167.731 Y106.11 E36.34369
G1 X167.862 Y106.567 E36.3595
G1 X168.023 Y107.479 E36.39031
G1 X169.002 Y116.8 E36.70203
G1 X169.038 Y117.509 E36.72564
G1 X169.002 Y118.198 E36.74859
G1 X168.023 Y127.524 E37.06048
G1 X167.907 Y128.241 E37.08463
G1 X167.736 Y128.873 E37.10641
G1 X164.836 Y137.805 E37.41876
G1 X164.518 Y138.605 E37.44739
G1 X164.265 Y139.088 E37.46552
G1 X159.579 Y147.203 E37.7772
G1 X159.297 Y147.649 E37.79475
G1 X158.755 Y148.338 E37.82391
G1 X152.481 Y155.306 E38.13577
G1 X151.926 Y155.854 E38.16171
G1 X151.437 Y156.245 E38.18253
G1 X143.855 Y161.751 E38.49419
G1 X143.353 Y162.082 E38.51419
G1 X142.644 Y162.451 E38.54077
G1 X134.086 Y166.265 E38.8524
G1 X133.407 Y166.524 E38.87657
G1 X132.771 Y166.693 E38.89846
G1 X123.576 Y168.647 E39.21111
G1 X122.809 Y168.763 E39.23692
G1 X122.183 Y168.793 E39.25776
G1 X112.817 Y168.793 E39.56927
G1 X112.17 Y168.761 E39.59082
G1 X111.424 Y168.647 E39.61592
G1 X102.228 Y166.693 E39.92861
G1 X101.527 Y166.503 E39.95277
G1 X100.912 Y166.265 E39.9747
G1 X92.355 Y162.45 E40.28631
G1 X91.842 Y162.194 E40.30538
G1 X91.145 Y161.751 E40.33285
G1 X83.558 Y156.241 E40.64472
G1 X83.052 Y155.835 E40.6663
G1 X82.514 Y155.302 E40.69148
G1 X76.245 Y148.338 E41.00313
G1 X75.703 Y147.649 E41.03229
G1 X75.421 Y147.203 E41.04984
G1 X70.735 Y139.088 E41.36151
G1 X70.482 Y138.605 E41.37965
G1 X70.163 Y137.804 E41.40833
G1 X67.263 Y128.868 E41.7208
G1 X67.077 Y128.166 E41.74495
G1 X66.977 Y127.52 E41.76669
G1 X65.998 Y118.2 E42.07838
G1 X65.962 Y117.491 E42.102
G1 X65.998 Y116.802 E42.12494
G1 X66.977 Y107.476 E42.43683
G1 X67.093 Y106.759 E42.46099
G1 X67.264 Y106.127 E42.48277
G1 X70.164 Y97.195 E42.79511
G1 X70.482 Y96.395 E42.82374
G1 X70.735 Y95.912 E42.84188
G1 X75.421 Y87.797 E43.15355
G1 X75.703 Y87.351 E43.1711
G1 X76.245 Y86.662 E43.20026
G1 X82.519 Y79.694 E43.51212
G0 F6000 X82.816 Y79.961
G1 F1200 X83.339 Y79.446 E43.53653
G1 X83.798 Y79.078 E43.5561
G1 X91.38 Y73.572 E43.86776
G1 X91.853 Y73.261 E43.88659
G1 X92.519 Y72.914 E43.91156
G1 X101.077 Y69.1 E44.22319
G1 X101.735 Y68.85 E44.2466
G1 X102.312 Y68.698 E44.26645
G1 X111.507 Y66.744 E44.5791
G1 X112.229 Y66.635 E44.60339
G1 X112.817 Y66.607 E44.62297
G1 X122.183 Y66.607 E44.93448
G1 X122.792 Y66.637 E44.95476
G1 X123.493 Y66.744 E44.97835
G1 X132.689 Y68.698 E45.29104
G1 X133.368 Y68.884 E45.31445
G1 X133.925 Y69.1 E45.33432
G1 X142.482 Y72.915 E45.64593
G1 X142.965 Y73.156 E45.66389
G1 X143.62 Y73.572 E45.6897
G1 X151.206 Y79.081 E46.00152
G1 X151.662 Y79.446 E46.02095
G1 X152.187 Y79.964 E46.04548
G1 X158.458 Y86.93 E46.35722
G1 X158.967 Y87.577 E46.3846
G1 X159.233 Y87.997 E46.40114
G1 X163.928 Y96.13 E46.71348
G1 X164.244 Y96.759 E46.73689
G1 X164.455 Y97.315 E46.75667
G1 X167.351 Y106.233 E47.06853
G1 X167.474 Y106.664 E47.08344
G1 X167.625 Y107.52 E47.11235
G1 X168.604 Y116.841 E47.42407
G1 X168.638 Y117.509 E47.44632
G1 X168.604 Y118.156 E47.46787
G1 X167.625 Y127.482 E47.77976
G1 X167.512 Y128.177 E47.80318
G1 X167.356 Y128.75 E47.82293
G1 X164.456 Y137.682 E48.13527
G1 X164.157 Y138.433 E48.16216
G1 X163.918 Y138.888 E48.17925
G1 X159.232 Y147.003 E48.49093
G1 X158.967 Y147.423 E48.50744
G1 X158.458 Y148.071 E48.53485
G1 X152.184 Y155.039 E48.84671
G1 X151.661 Y155.554 E48.87112
G1 X151.202 Y155.922 E48.89069
G1 X143.62 Y161.428 E49.20235
G1 X143.147 Y161.739 E49.22117
G1 X142.481 Y162.086 E49.24615
G1 X133.923 Y165.9 E49.55778
G1 X133.265 Y166.15 E49.58119
G1 X132.688 Y166.302 E49.60104
G1 X123.493 Y168.256 E49.91369
G1 X122.771 Y168.365 E49.93798
G1 X122.183 Y168.393 E49.95756
G1 X112.817 Y168.393 E50.26907
G1 X112.208 Y168.363 E50.28935
G1 X111.507 Y168.256 E50.31294
G1 X102.311 Y166.302 E50.62563
G1 X101.632 Y166.116 E50.64904
G1 X101.075 Y165.9 E50.66891
G1 X92.518 Y162.085 E50.98052
G1 X92.035 Y161.844 E50.99848
G1 X91.38 Y161.428 E51.02429
G1 X83.793 Y155.918 E51.33616
G1 X83.317 Y155.535 E51.35648
G1 X82.811 Y155.034 E51.38016
G1 X76.542 Y148.07 E51.69181
G1 X76.033 Y147.423 E51.71919
G1 X75.768 Y147.003 E51.73571
G1 X71.082 Y138.888 E52.04738
G1 X70.843 Y138.433 E52.06447
G1 X70.544 Y137.681 E52.09139
G1 X67.644 Y128.745 E52.40386
G1 X67.465 Y128.064 E52.42728
G1 X67.375 Y127.479 E52.44697
G1 X66.396 Y118.159 E52.75866
G1 X66.362 Y117.491 E52.7809
G1 X66.396 Y116.844 E52.80245
G1 X67.375 Y107.518 E53.11434
G1 X67.488 Y106.823 E53.13776
G1 X67.644 Y106.25 E53.15751
G1 X70.544 Y97.318 E53.46986
G1 X70.843 Y96.567 E53.49674
G1 X71.082 Y96.112 E53.51384
G1 X75.768 Y87.997 E53.82551
G1 X76.033 Y87.577 E53.84203
G1 X76.542 Y86.929 E53.86944
G1 X82.816 Y79.961 E54.18129
G0 F6000 X83.114 Y80.229
G1 F1200 X83.604 Y79.746 E54.20418
G1 X84.033 Y79.402 E54.22247
G1 X91.615 Y73.896 E54.53413
G1 X92.059 Y73.604 E54.5518
G1 X92.682 Y73.279 E54.57517
G1 X101.24 Y69.465 E54.8868
G1 X101.877 Y69.225 E54.90944
G1 X102.395 Y69.09 E54.92725
G1 X111.59 Y67.136 E55.2399
G1 X112.267 Y67.033 E55.26268
G1 X112.817 Y67.007 E55.28099
G1 X122.183 Y67.007 E55.59251
G1 X122.754 Y67.035 E55.61152
G1 X123.409 Y67.136 E55.63356
G1 X132.605 Y69.09 E55.94625
G1 X133.262 Y69.27 E55.96891
G1 X133.762 Y69.466 E55.98677
G1 X142.319 Y73.281 E56.29838
G1 X142.772 Y73.507 E56.31522
G1 X143.385 Y73.896 E56.33937
G1 X150.971 Y79.405 E56.65119
G1 X151.398 Y79.747 E56.66939
G1 X151.89 Y80.231 E56.69234
G1 X158.161 Y87.197 E57.00408
G1 X158.637 Y87.803 E57.02971
G1 X158.886 Y88.197 E57.04522
G1 X163.581 Y96.33 E57.35756
G1 X163.886 Y96.939 E57.38021
G1 X164.074 Y97.439 E57.39798
G1 X166.97 Y106.357 E57.70984
G1 X167.086 Y106.761 E57.72382
G1 X167.227 Y107.562 E57.75087
G1 X168.206 Y116.883 E58.06259
G1 X168.238 Y117.509 E58.08344
G1 X168.206 Y118.115 E58.10363
G1 X167.227 Y127.441 E58.41551
G1 X167.117 Y128.112 E58.43813
G1 X166.976 Y128.626 E58.45586
G1 X164.076 Y137.558 E58.7682
G1 X163.796 Y138.261 E58.79337
G1 X163.572 Y138.688 E58.80941
G1 X158.886 Y146.803 E59.12108
G1 X158.637 Y147.197 E59.13658
G1 X158.16 Y147.803 E59.16224
G1 X151.886 Y154.771 E59.47409
G1 X151.396 Y155.254 E59.49698
G1 X150.967 Y155.598 E59.51527
G1 X143.385 Y161.104 E59.82693
G1 X142.941 Y161.396 E59.8446
G1 X142.318 Y161.721 E59.86797
G1 X133.76 Y165.535 E60.1796
G1 X133.123 Y165.775 E60.20224
