;FLAVOR:Marlin
;TIME:13258
;Filament used: 10.8324m
;Layer height: 0.16
;MINX:64.76
;MINY:65.007
;MINZ:0.2
;MAXX:170.24
;MAXY:169.993
;MAXZ:40.08
;Generated with Cura_SteamEngine 4.10.0
M140 S50
M105
M190 S50
M104 S200
M105
M109 S200
M82 ;absolute extrusion mode
; Ender 3 Custom Start G-code
G92 E0 ; Reset Extruder
G28 ; Home all axes
G1 Z2.0 F3000 ; Move Z Axis up little to prevent scratching of Heat Bed
G1 X0.1 Y20 Z0.3 F5000.0 ; Move to start position
G1 X0.1 Y200.0 Z0.3 F1500.0 E15 ; Draw the first line
G1 X0.4 Y200.0 Z0.3 F5000.0 ; Move to side a little
G1 X0.4 Y20 Z0.3 F1500.0 E30 ; Draw the second line
G92 E0 ; Reset Extruder
G1 Z2.0 F3000 ; Move Z Axis up little to prevent scratching of Heat Bed
G1 X5 Y20 Z0.3 F5000.0 ; Move over to prevent blob squish
G92 E0
G92 E0
G1 F2700 E-5
;LAYER_COUNT:202
;LAYER:0
M107
G0 F6000 X81.94 Y78.561 Z0.2
;TYPE:SKIRT
G1 F2700 E0
G1 F1200 X82.529 Y78.035 E0.02626
G1 X82.846 Y77.792 E0.03955
G1 X90.45 Y72.27 E0.35211
G1 X91.111 Y71.839 E0.37836
G1 X91.859 Y71.456 E0.40631
G1 X100.436 Y67.635 E0.71861
G1 X101.173 Y67.351 E0.74488
G1 X101.989 Y67.13 E0.773
G1 X111.184 Y65.177 E1.08565
G1 X111.964 Y65.052 E1.11192
G1 X112.805 Y65.007 E1.13993
G1 X122.195 Y65.007 E1.45224
G1 X122.984 Y65.047 E1.47852
G1 X123.816 Y65.177 E1.50653
G1 X133.011 Y67.13 E1.81918
G1 X133.774 Y67.333 E1.84544
G1 X134.564 Y67.635 E1.87357
G1 X143.141 Y71.456 E2.18587
G1 X143.845 Y71.814 E2.21214
G1 X144.55 Y72.27 E2.24006
G1 X152.155 Y77.793 E2.55267
G1 X152.77 Y78.289 E2.57895
G1 X153.37 Y78.886 E2.6071
G1 X159.655 Y85.869 E2.91958
G1 X160.152 Y86.482 E2.94582
G1 X160.611 Y87.186 E2.97378
G1 X165.308 Y95.318 E3.28612
G1 X165.668 Y96.021 E3.31239
G1 X165.972 Y96.809 E3.34048
G1 X168.875 Y105.745 E3.65299
G1 X169.081 Y106.507 E3.67924
G1 X169.214 Y107.339 E3.70726
G1 X170.197 Y116.682 E4.01973
G1 X170.24 Y117.47 E4.04598
G1 X170.197 Y118.313 E4.07405
G1 X169.215 Y127.66 E4.38664
G1 X169.093 Y128.44 E4.4129
G1 X168.876 Y129.256 E4.44099
G1 X165.972 Y138.191 E4.75347
G1 X165.69 Y138.929 E4.77975
G1 X165.308 Y139.681 E4.8078
G1 X160.611 Y147.814 E5.12017
G1 X160.182 Y148.477 E5.14644
G1 X159.653 Y149.132 E5.17444
G1 X153.395 Y156.082 E5.4855
G1 X153.39 Y156.077 E5.48574
G1 X153.079 Y156.42 E5.50114
G1 X152.492 Y156.949 E5.52742
G1 X152.155 Y157.207 E5.54153
G1 X144.551 Y162.729 E5.8541
G1 X143.89 Y163.16 E5.88034
G1 X143.143 Y163.543 E5.90826
G1 X134.565 Y167.365 E6.22061
G1 X133.828 Y167.649 E6.24688
G1 X133.011 Y167.87 E6.27503
G1 X123.816 Y169.823 E6.58768
G1 X123.036 Y169.948 E6.61395
G1 X122.195 Y169.993 E6.64196
G1 X112.805 Y169.993 E6.95427
G1 X112.016 Y169.953 E6.98055
G1 X111.184 Y169.823 E7.00856
G1 X101.989 Y167.87 E7.32121
G1 X101.226 Y167.667 E7.34747
G1 X100.435 Y167.365 E7.37563
G1 X91.857 Y163.543 E7.68797
G1 X91.153 Y163.185 E7.71424
G1 X90.449 Y162.729 E7.74214
G1 X82.845 Y157.207 E8.0547
G1 X82.23 Y156.712 E8.08096
G1 X81.63 Y156.114 E8.10913
G1 X75.345 Y149.131 E8.42161
G1 X74.848 Y148.518 E8.44786
G1 X74.389 Y147.814 E8.47581
G1 X69.692 Y139.681 E8.78818
G1 X69.332 Y138.978 E8.81445
G1 X69.028 Y138.19 E8.84255
G1 X66.125 Y129.254 E9.15505
G1 X65.919 Y128.492 E9.1813
G1 X65.786 Y127.66 E9.20933
G1 X64.803 Y118.318 E9.52176
G1 X64.76 Y117.53 E9.54801
G1 X64.803 Y116.686 E9.57611
G1 X65.776 Y107.426 E9.8858
G1 X65.889 Y106.644 E9.91208
G1 X66.124 Y105.743 E9.94305
G1 X69.028 Y96.808 E10.25553
G1 X69.31 Y96.07 E10.28181
G1 X69.692 Y95.318 E10.30986
G1 X74.389 Y87.186 E10.62221
G1 X74.818 Y86.523 E10.64847
G1 X75.347 Y85.868 E10.67647
G1 X81.605 Y78.918 E10.98753
G1 X81.61 Y78.923 E10.98777
G1 X81.94 Y78.561 E11.00406
G0 F6000 X82.236 Y78.831
G1 F1200 X83.081 Y78.115 E11.0409
G1 X90.685 Y72.593 E11.35346
G1 X91.33 Y72.174 E11.37904
G1 X92.022 Y71.821 E11.40488
G1 X100.599 Y68 E11.71718
G1 X101.317 Y67.724 E11.74276
G1 X102.073 Y67.521 E11.7688
G1 X111.268 Y65.568 E12.08145
G1 X112.027 Y65.448 E12.10701
G1 X112.805 Y65.407 E12.13292
G1 X122.195 Y65.407 E12.44523
G1 X122.963 Y65.447 E12.47081
G1 X123.732 Y65.568 E12.4967
G1 X132.927 Y67.521 E12.80935
G1 X133.67 Y67.72 E12.83493
G1 X134.401 Y68 E12.86097
G1 X142.978 Y71.821 E13.17327
G1 X143.664 Y72.171 E13.19888
G1 X144.315 Y72.593 E13.22469
G1 X151.92 Y78.116 E13.5373
G1 X152.518 Y78.6 E13.56288
G1 X153.072 Y79.154 E13.58894
G1 X159.357 Y86.137 E13.90142
G1 X159.841 Y86.734 E13.92698
G1 X160.265 Y87.386 E13.95285
G1 X164.962 Y95.518 E14.26519
G1 X165.311 Y96.203 E14.29076
G1 X165.592 Y96.933 E14.31678
G1 X168.495 Y105.869 E14.62928
G1 X168.694 Y106.612 E14.65487
G1 X168.816 Y107.381 E14.68076
G1 X169.799 Y116.724 E14.99323
G1 X169.84 Y117.492 E15.01881
G1 X169.799 Y118.271 E15.04475
G1 X168.817 Y127.618 E15.35735
G1 X168.697 Y128.378 E15.38294
G1 X168.496 Y129.132 E15.40889
G1 X165.592 Y138.067 E15.72137
G1 X165.316 Y138.785 E15.74696
G1 X164.962 Y139.481 E15.77293
G1 X160.265 Y147.614 E16.0853
G1 X159.846 Y148.259 E16.11089
G1 X159.356 Y148.865 E16.13681
G1 X153.098 Y155.815 E16.44786
G1 X153.092 Y155.81 E16.44812
G1 X152.782 Y156.151 E16.46345
G1 X151.92 Y156.884 E16.50109
G1 X144.316 Y162.406 E16.81365
G1 X143.671 Y162.825 E16.83923
G1 X142.98 Y163.177 E16.86502
G1 X134.402 Y166.999 E17.17737
G1 X133.684 Y167.276 E17.20296
G1 X132.927 Y167.479 E17.22903
G1 X123.732 Y169.432 E17.54168
G1 X122.973 Y169.552 E17.56724
G1 X122.195 Y169.593 E17.59315
G1 X112.805 Y169.593 E17.90546
G1 X112.037 Y169.553 E17.93104
G1 X111.268 Y169.432 E17.95693
G1 X102.073 Y167.479 E18.26958
G1 X101.33 Y167.28 E18.29517
G1 X100.598 Y166.999 E18.32125
G1 X92.02 Y163.177 E18.63359
G1 X91.335 Y162.828 E18.65916
G1 X90.684 Y162.406 E18.68496
G1 X83.08 Y156.884 E18.99753
G1 X82.482 Y156.4 E19.02311
G1 X81.928 Y155.846 E19.04917
G1 X75.643 Y148.863 E19.36165
G1 X75.159 Y148.266 E19.38721
G1 X74.735 Y147.614 E19.41308
G1 X70.038 Y139.481 E19.72545
G1 X69.688 Y138.796 E19.75104
G1 X69.408 Y138.066 E19.77704
G1 X66.505 Y129.13 E20.08954
G1 X66.306 Y128.387 E20.11513
G1 X66.184 Y127.618 E20.14102
G1 X65.201 Y118.276 E20.45346
G1 X65.16 Y117.508 E20.47904
G1 X65.201 Y116.728 E20.50501
G1 X66.162 Y107.591 E20.81059
G1 X66.174 Y107.463 E20.81486
G1 X66.286 Y106.702 E20.84045
G1 X66.504 Y105.867 E20.86915
G1 X69.408 Y96.932 E21.18163
G1 X69.684 Y96.214 E21.20722
G1 X70.038 Y95.518 E21.23319
G1 X74.735 Y87.386 E21.54554
G1 X75.154 Y86.741 E21.57112
G1 X75.644 Y86.135 E21.59704
G1 X81.902 Y79.185 E21.9081
G1 X81.908 Y79.19 E21.90835
G1 X82.236 Y78.831 E21.92453
G0 F6000 X82.531 Y79.102
G1 F1200 X83.316 Y78.439 E21.9587
G1 X90.92 Y72.917 E22.27127
G1 X91.548 Y72.51 E22.29616
G1 X92.184 Y72.187 E22.31988
G1 X100.761 Y68.366 E22.63218
G1 X101.46 Y68.098 E22.65708
G1 X102.156 Y67.913 E22.68103
G1 X111.351 Y65.96 E22.99368
G1 X112.09 Y65.844 E23.01856
G1 X112.805 Y65.807 E23.04238
G1 X122.195 Y65.807 E23.35469
G1 X122.942 Y65.847 E23.37957
G1 X123.649 Y65.96 E23.40338
G1 X132.844 Y67.913 E23.71603
G1 X133.567 Y68.107 E23.74093
G1 X134.239 Y68.366 E23.76488
G1 X142.816 Y72.187 E24.07718
G1 X143.482 Y72.527 E24.10205
G1 X144.08 Y72.917 E24.1258
G1 X151.685 Y78.44 E24.43841
G1 X152.266 Y78.911 E24.46329
G1 X152.775 Y79.421 E24.48725
G1 X159.06 Y86.404 E24.79973
G1 X159.53 Y86.986 E24.82461
G1 X159.919 Y87.586 E24.84839
G1 X164.616 Y95.718 E25.16074
G1 X164.955 Y96.385 E25.18562
G1 X165.212 Y97.056 E25.20952
G1 X168.115 Y105.992 E25.52202
G1 X168.307 Y106.715 E25.5469
G1 X168.419 Y107.423 E25.57074
G1 X169.402 Y116.766 E25.88321
G1 X169.44 Y117.513 E25.90809
G1 X169.402 Y118.229 E25.93193
G1 X168.42 Y127.576 E26.24453
G1 X168.302 Y128.315 E26.26942
G1 X168.115 Y129.009 E26.29332
G1 X165.211 Y137.944 E26.60581
G1 X164.942 Y138.642 E26.63069
G1 X164.616 Y139.281 E26.65455
G1 X159.919 Y147.414 E26.96692
G1 X159.511 Y148.041 E26.9918
G1 X159.059 Y148.597 E27.01563
G1 X152.801 Y155.547 E27.32669
G1 X152.795 Y155.542 E27.32695
G1 X152.486 Y155.881 E27.34221
G1 X151.685 Y156.56 E27.37713
G1 X144.081 Y162.082 E27.6897
G1 X143.453 Y162.489 E27.71459
G1 X142.817 Y162.812 E27.73831
G1 X134.239 Y166.634 E28.05065
G1 X133.54 Y166.902 E28.07555
G1 X132.844 Y167.087 E28.09951
G1 X123.649 Y169.04 E28.41216
G1 X122.91 Y169.156 E28.43704
G1 X122.195 Y169.193 E28.46085
G1 X112.805 Y169.193 E28.77316
G1 X112.058 Y169.153 E28.79804
G1 X111.351 Y169.04 E28.82186
G1 X102.156 Y167.087 E29.13451
G1 X101.433 Y166.893 E29.1594
G1 X100.761 Y166.634 E29.18336
G1 X92.183 Y162.812 E29.4957
G1 X91.517 Y162.472 E29.52057
G1 X90.919 Y162.082 E29.54432
G1 X83.315 Y156.56 E29.85688
G1 X82.734 Y156.089 E29.88176
G1 X82.225 Y155.579 E29.90572
G1 X75.94 Y148.596 E30.2182
G1 X75.47 Y148.014 E30.24308
G1 X75.081 Y147.414 E30.26686
G1 X70.384 Y139.281 E30.57924
G1 X70.045 Y138.614 E30.60412
G1 X69.788 Y137.943 E30.62802
G1 X66.885 Y129.007 E30.94052
G1 X66.693 Y128.284 E30.9654
G1 X66.581 Y127.577 E30.98921
G1 X65.598 Y118.235 E31.30164
G1 X65.56 Y117.487 E31.32655
G1 X65.598 Y116.77 E31.35043
G1 X66.573 Y107.501 E31.66042
G1 X66.682 Y106.761 E31.6853
G1 X66.885 Y105.99 E31.71182
G1 X69.789 Y97.055 E32.0243
G1 X70.058 Y96.357 E32.04918
G1 X70.384 Y95.718 E32.07304
G1 X75.081 Y87.586 E32.38539
G1 X75.49 Y86.959 E32.41028
G1 X75.941 Y86.403 E32.4341
G1 X82.199 Y79.453 E32.74515
G1 X82.204 Y79.458 E32.74539
G1 X82.531 Y79.102 E32.76147
G0 F6000 X82.826 Y79.373
G1 F1200 X83.551 Y78.763 E32.79298
G1 X91.155 Y73.241 E33.10554
G1 X91.765 Y72.847 E33.1297
G1 X92.347 Y72.552 E33.1514
G1 X100.924 Y68.731 E33.4637
G1 X101.603 Y68.473 E33.48786
G1 X102.239 Y68.304 E33.50974
G1 X111.434 Y66.351 E33.82239
G1 X112.152 Y66.239 E33.84656
G1 X112.805 Y66.207 E33.86831
G1 X122.195 Y66.207 E34.18062
G1 X122.92 Y66.247 E34.20477
G1 X123.566 Y66.351 E34.22653
G1 X132.761 Y68.304 E34.53918
G1 X133.462 Y68.494 E34.56334
G1 X134.076 Y68.731 E34.58523
G1 X142.653 Y72.552 E34.89753
G1 X143.299 Y72.884 E34.92169
G1 X143.845 Y73.241 E34.94338
G1 X151.45 Y78.764 E35.25599
G1 X152.014 Y79.222 E35.28016
G1 X152.478 Y79.689 E35.30205
G1 X158.763 Y86.672 E35.61453
G1 X159.218 Y87.238 E35.63868
G1 X159.572 Y87.786 E35.66038
G1 X164.269 Y95.918 E35.97273
G1 X164.597 Y96.566 E35.99688
G1 X164.831 Y97.18 E36.01874
G1 X167.734 Y106.116 E36.33124
G1 X167.92 Y106.818 E36.3554
G1 X168.021 Y107.464 E36.37714
G1 X169.004 Y116.807 E36.68961
G1 X169.04 Y117.533 E36.71378
G1 X169.004 Y118.188 E36.7356
G1 X168.022 Y127.535 E37.0482
G1 X167.906 Y128.252 E37.07235
G1 X167.735 Y128.885 E37.09416
G1 X164.831 Y137.82 E37.40664
G1 X164.569 Y138.497 E37.43079
G1 X164.269 Y139.081 E37.45262
G1 X159.572 Y147.214 E37.765
G1 X159.175 Y147.822 E37.78915
G1 X158.762 Y148.329 E37.8109
G1 X152.504 Y155.279 E38.12196
G1 X152.498 Y155.274 E38.12222
G1 X152.19 Y155.611 E38.1374
G1 X151.45 Y156.236 E38.16962
G1 X143.846 Y161.758 E38.48218
G1 X143.236 Y162.152 E38.50634
G1 X142.654 Y162.447 E38.52804
G1 X134.076 Y166.269 E38.84038
G1 X133.397 Y166.527 E38.86454
G1 X132.761 Y166.696 E38.88643
G1 X123.566 Y168.649 E39.19908
G1 X122.848 Y168.761 E39.22325
G1 X122.195 Y168.793 E39.24499
G1 X112.805 Y168.793 E39.5573
G1 X112.08 Y168.753 E39.58145
G1 X111.434 Y168.649 E39.60322
G1 X102.239 Y166.696 E39.91587
G1 X101.538 Y166.506 E39.94002
G1 X100.924 Y166.269 E39.96191
G1 X92.346 Y162.447 E40.27426
G1 X91.7 Y162.115 E40.29841
G1 X91.154 Y161.758 E40.32011
G1 X83.55 Y156.236 E40.63267
G1 X82.986 Y155.778 E40.65684
G1 X82.522 Y155.311 E40.67874
G1 X76.237 Y148.328 E40.99121
G1 X75.782 Y147.762 E41.01536
G1 X75.428 Y147.214 E41.03706
G1 X70.731 Y139.081 E41.34944
G1 X70.403 Y138.433 E41.37359
G1 X70.169 Y137.819 E41.39545
G1 X67.266 Y128.883 E41.70795
G1 X67.08 Y128.181 E41.73211
G1 X66.979 Y127.535 E41.75385
G1 X65.996 Y118.193 E42.06628
G1 X65.96 Y117.467 E42.09046
G1 X65.996 Y116.811 E42.11231
G1 X66.971 Y107.538 E42.42243
G1 X67.078 Y106.82 E42.44658
G1 X67.265 Y106.114 E42.47087
G1 X70.169 Y97.179 E42.78335
G1 X70.431 Y96.502 E42.8075
G1 X70.731 Y95.918 E42.82933
G1 X75.428 Y87.786 E43.14168
G1 X75.825 Y87.178 E43.16583
G1 X76.238 Y86.671 E43.18758
G1 X82.496 Y79.721 E43.49864
G1 X82.501 Y79.726 E43.49887
G1 X82.826 Y79.373 E43.51483
G0 F6000 X83.121 Y79.644
G1 F1200 X83.786 Y79.086 E43.54371
G1 X91.39 Y73.564 E43.85627
G1 X91.982 Y73.184 E43.87967
G1 X92.51 Y72.918 E43.89933
G1 X101.087 Y69.097 E44.21163
G1 X101.745 Y68.847 E44.23504
G1 X102.322 Y68.695 E44.25489
G1 X111.517 Y66.742 E44.56754
G1 X112.213 Y66.635 E44.59096
G1 X112.805 Y66.607 E44.61067
G1 X122.195 Y66.607 E44.92298
G1 X122.898 Y66.647 E44.9464
G1 X123.483 Y66.742 E44.96611
G1 X132.678 Y68.695 E45.27876
G1 X133.357 Y68.88 E45.30217
G1 X133.913 Y69.097 E45.32202
G1 X142.49 Y72.918 E45.63432
G1 X143.116 Y73.24 E45.65773
G1 X143.61 Y73.564 E45.67738
G1 X151.215 Y79.087 E45.98999
G1 X151.76 Y79.533 E46.01342
G1 X152.18 Y79.956 E46.03324
G1 X158.465 Y86.939 E46.34572
G1 X158.906 Y87.488 E46.36914
G1 X159.226 Y87.986 E46.38883
G1 X163.923 Y96.118 E46.70117
G1 X164.24 Y96.747 E46.7246
G1 X164.451 Y97.303 E46.74438
G1 X167.354 Y106.239 E47.05688
G1 X167.533 Y106.92 E47.0803
G1 X167.623 Y107.506 E47.10002
G1 X168.606 Y116.849 E47.41249
G1 X168.64 Y117.552 E47.43589
G1 X168.606 Y118.146 E47.45568
G1 X167.624 Y127.493 E47.76828
G1 X167.511 Y128.188 E47.7917
G1 X167.354 Y128.761 E47.81146
G1 X164.45 Y137.696 E48.12394
G1 X164.195 Y138.352 E48.14735
G1 X163.923 Y138.881 E48.16713
G1 X159.226 Y147.014 E48.47951
G1 X158.84 Y147.602 E48.5029
G1 X158.464 Y148.062 E48.52266
G1 X152.206 Y155.012 E48.83372
G1 X152.201 Y155.007 E48.83396
G1 X151.895 Y155.341 E48.84902
G1 X151.215 Y155.913 E48.87858
G1 X143.611 Y161.435 E49.19114
G1 X143.019 Y161.815 E49.21454
G1 X142.491 Y162.081 E49.2342
G1 X133.913 Y165.903 E49.54654
G1 X133.255 Y166.153 E49.56996
G1 X132.678 Y166.305 E49.5898
G1 X123.483 Y168.258 E49.90245
G1 X122.787 Y168.365 E49.92587
G1 X122.195 Y168.393 E49.94558
G1 X112.805 Y168.393 E50.2579
G1 X112.102 Y168.353 E50.28132
G1 X111.517 Y168.258 E50.30103
G1 X102.322 Y166.305 E50.61368
G1 X101.643 Y166.12 E50.63708
G1 X101.087 Y165.903 E50.65694
G1 X92.509 Y162.081 E50.96928
G1 X91.883 Y161.759 E50.99269
G1 X91.389 Y161.435 E51.01234
G1 X83.785 Y155.913 E51.3249
G1 X83.24 Y155.467 E51.34833
G1 X82.82 Y155.044 E51.36815
G1 X76.535 Y148.061 E51.68063
G1 X76.094 Y147.512 E51.70405
G1 X75.774 Y147.014 E51.72374
G1 X71.077 Y138.881 E52.03611
G1 X70.76 Y138.252 E52.05954
G1 X70.549 Y137.696 E52.07932
G1 X67.646 Y128.76 E52.39182
G1 X67.467 Y128.079 E52.41524
G1 X67.377 Y127.493 E52.43496
G1 X66.394 Y118.151 E52.74739
G1 X66.36 Y117.448 E52.7708
G1 X66.394 Y116.853 E52.79062
G1 X67.369 Y107.575 E53.10091
G1 X67.474 Y106.879 E53.12432
G1 X67.646 Y106.238 E53.1464
G1 X70.55 Y97.303 E53.45888
G1 X70.805 Y96.647 E53.48229
G1 X71.077 Y96.118 E53.50207
G1 X75.774 Y87.986 E53.81442
G1 X76.16 Y87.397 E53.83784
G1 X76.536 Y86.938 E53.85757
G1 X82.794 Y79.988 E54.16863
G1 X82.799 Y79.993 E54.16887
G1 X83.121 Y79.644 E54.18466
G0 F6000 X83.415 Y79.917
G1 F1200 X84.021 Y79.41 E54.21094
G1 X91.625 Y73.888 E54.5235
G1 X92.198 Y73.521 E54.54614
G1 X92.673 Y73.283 E54.56381
G1 X101.25 Y69.462 E54.87611
G1 X101.887 Y69.222 E54.89875
G1 X102.405 Y69.087 E54.91655
G1 X111.6 Y67.134 E55.2292
G1 X112.273 Y67.031 E55.25184
G1 X112.805 Y67.007 E55.26956
G1 X122.195 Y67.007 E55.58187
G1 X122.875 Y67.047 E55.60453
G1 X123.4 Y67.134 E55.62223
G1 X132.595 Y69.087 E55.93487
G1 X133.252 Y69.267 E55.95753
G1 X133.75 Y69.462 E55.97532
G1 X142.327 Y73.283 E56.28762
G1 X142.932 Y73.596 E56.31028
G1 X143.375 Y73.888 E56.32792
G1 X150.98 Y79.411 E56.64053
G1 X151.507 Y79.843 E56.6632
G1 X151.883 Y80.224 E56.681
G1 X158.168 Y87.207 E56.99347
G1 X158.593 Y87.739 E57.01612
G1 X158.879 Y88.186 E57.03377
G1 X163.576 Y96.318 E57.34612
G1 X163.882 Y96.927 E57.36879
G1 X164.07 Y97.427 E57.38655
G1 X166.973 Y106.363 E57.69906
G1 X167.145 Y107.022 E57.72171
G1 X167.225 Y107.548 E57.73941
G1 X168.208 Y116.891 E58.05187
G1 X168.24 Y117.571 E58.07451
G1 X168.208 Y118.104 E58.09227
G1 X167.226 Y127.451 E58.40487
G1 X167.115 Y128.123 E58.42752
G1 X166.974 Y128.638 E58.44528
G1 X164.07 Y137.573 E58.75776
G1 X163.822 Y138.207 E58.7804
G1 X163.577 Y138.681 E58.79815
