;FLAVOR:Marlin
;TIME:40697
;Filament used: 48.7678m
;Layer height: 0.28
;MINX:28.7
;MINY:15.2
;MINZ:0.28
;MAXX:206.3
;MAXY:219.8
;MAXZ:43.68
;Generated with Cura_SteamEngine 4.10.0
M140 S50
M105
M190 S50
M104 S200
M105
M109 S200
M82 ;absolute extrusion mode
; Ender 3 Custom Start G-code
G92 E0 ; Reset Extruder
G28 ; Home all axes
G1 Z2.0 F3000 ; Move Z Axis up little to prevent scratching of Heat Bed
G1 X0.1 Y20 Z0.3 F5000.0 ; Move to start position
G1 X0.1 Y200.0 Z0.3 F1500.0 E15 ; Draw the first line
G1 X0.4 Y200.0 Z0.3 F5000.0 ; Move to side a little
G1 X0.4 Y20 Z0.3 F1500.0 E30 ; Draw the second line
G92 E0 ; Reset Extruder
G1 Z2.0 F3000 ; Move Z Axis up little to prevent scratching of Heat Bed
G1 X5 Y20 Z0.3 F5000.0 ; Move over to prevent blob squish
G92 E0
G92 E0
G1 F2700 E-5
;LAYER_COUNT:156
;LAYER:0
M107
G0 F6000 X30.097 Y18.546 Z0.28
;TYPE:SKIRT
G1 F2700 E0
G1 F1200 X30.58 Y17.922 E0.03674
G1 X31.123 Y17.349 E0.0735
G1 X31.722 Y16.834 E0.11029
G1 X32.37 Y16.383 E0.14705
G1 X33.061 Y15.999 E0.18386
G1 X33.786 Y15.687 E0.22061
G1 X34.539 Y15.45 E0.25737
G1 X35.313 Y15.291 E0.29416
G1 X36.098 Y15.21 E0.33091
G1 X36.5 Y15.2 E0.34963
G1 X198.5 Y15.2 E7.89303
G1 X199.289 Y15.24 E7.92982
G1 X200.069 Y15.359 E7.96656
G1 X200.834 Y15.557 E8.00335
G1 X201.574 Y15.831 E8.0401
G1 X202.283 Y16.179 E8.07687
G1 X202.954 Y16.597 E8.11369
G1 X203.578 Y17.08 E8.15043
G1 X204.151 Y17.623 E8.18719
G1 X204.666 Y18.222 E8.22397
G1 X205.117 Y18.87 E8.26073
G1 X205.501 Y19.561 E8.29754
G1 X205.813 Y20.286 E8.3343
G1 X206.05 Y21.039 E8.37105
G1 X206.209 Y21.813 E8.40785
G1 X206.29 Y22.598 E8.4446
G1 X206.3 Y23 E8.46332
G1 X206.3 Y212 E17.26395
G1 X206.26 Y212.789 E17.30074
G1 X206.141 Y213.569 E17.33748
G1 X205.943 Y214.334 E17.37427
G1 X205.669 Y215.074 E17.41102
G1 X205.321 Y215.783 E17.44779
G1 X204.903 Y216.454 E17.4846
G1 X204.42 Y217.078 E17.52135
G1 X203.877 Y217.651 E17.55811
G1 X203.278 Y218.166 E17.59489
G1 X202.63 Y218.617 E17.63165
G1 X201.939 Y219.001 E17.66846
G1 X201.214 Y219.313 E17.70522
G1 X200.461 Y219.55 E17.74197
G1 X199.687 Y219.709 E17.77877
G1 X198.902 Y219.79 E17.81551
G1 X198.5 Y219.8 E17.83424
G1 X36.5 Y219.8 E25.37764
G1 X35.711 Y219.76 E25.41442
G1 X34.931 Y219.641 E25.45116
G1 X34.166 Y219.443 E25.48796
G1 X33.426 Y219.169 E25.5247
G1 X32.717 Y218.821 E25.56148
G1 X32.046 Y218.403 E25.59829
G1 X31.422 Y217.92 E25.63503
G1 X30.849 Y217.377 E25.67179
G1 X30.334 Y216.778 E25.70858
G1 X29.883 Y216.13 E25.74534
G1 X29.499 Y215.439 E25.78215
G1 X29.187 Y214.714 E25.8189
G1 X28.95 Y213.961 E25.85566
G1 X28.791 Y213.187 E25.89245
G1 X28.71 Y212.402 E25.9292
G1 X28.7 Y212 E25.94792
G1 X28.7 Y23 E34.74856
G1 X28.74 Y22.211 E34.78534
G1 X28.859 Y21.431 E34.82208
G1 X29.057 Y20.666 E34.85888
G1 X29.331 Y19.926 E34.89562
G1 X29.679 Y19.217 E34.9324
G1 X30.097 Y18.546 E34.96921
G0 F6000 X30.494 Y18.677
G1 F1200 X30.975 Y18.077 E35.00502
G1 X31.516 Y17.53 E35.04084
G1 X32.111 Y17.042 E35.07667
G1 X32.753 Y16.619 E35.11247
G1 X33.436 Y16.264 E35.14832
G1 X34.151 Y15.983 E35.18409
G1 X34.893 Y15.777 E35.21995
G1 X35.651 Y15.649 E35.25574
G1 X36.5 Y15.6 E35.29534
G1 X198.5 Y15.6 E42.83874
G1 X199.268 Y15.64 E42.87455
G1 X200.028 Y15.759 E42.91037
G1 X200.771 Y15.957 E42.94617
G1 X201.49 Y16.231 E42.982
G1 X202.176 Y16.578 E43.0178
G1 X202.823 Y16.994 E43.05362
G1 X203.423 Y17.475 E43.08942
G1 X203.97 Y18.016 E43.12525
G1 X204.458 Y18.611 E43.16108
G1 X204.881 Y19.253 E43.19688
G1 X205.236 Y19.936 E43.23272
G1 X205.517 Y20.651 E43.26849
G1 X205.723 Y21.393 E43.30435
G1 X205.851 Y22.151 E43.34015
G1 X205.9 Y23 E43.37975
G1 X205.9 Y212 E52.18038
G1 X205.86 Y212.768 E52.21619
G1 X205.741 Y213.528 E52.25201
G1 X205.543 Y214.271 E52.28781
G1 X205.269 Y214.99 E52.32364
G1 X204.922 Y215.676 E52.35944
G1 X204.506 Y216.323 E52.39525
G1 X204.025 Y216.923 E52.43106
G1 X203.484 Y217.47 E52.46689
G1 X202.889 Y217.958 E52.50272
G1 X202.247 Y218.381 E52.53852
G1 X201.564 Y218.736 E52.57436
G1 X200.849 Y219.017 E52.61013
G1 X200.107 Y219.223 E52.64599
G1 X199.349 Y219.351 E52.68179
G1 X198.5 Y219.4 E52.72138
G1 X36.5 Y219.4 E60.26478
G1 X35.732 Y219.36 E60.30059
G1 X34.972 Y219.241 E60.33641
G1 X34.229 Y219.043 E60.37222
G1 X33.51 Y218.769 E60.40805
G1 X32.824 Y218.422 E60.44384
G1 X32.177 Y218.006 E60.47966
G1 X31.577 Y217.525 E60.51547
G1 X31.03 Y216.984 E60.55129
G1 X30.542 Y216.389 E60.58712
G1 X30.119 Y215.747 E60.62292
G1 X29.764 Y215.064 E60.65877
G1 X29.483 Y214.349 E60.69454
G1 X29.277 Y213.607 E60.7304
G1 X29.149 Y212.849 E60.76619
G1 X29.1 Y212 E60.80579
G1 X29.1 Y23 E69.60642
G1 X29.14 Y22.232 E69.64223
G1 X29.259 Y21.472 E69.67805
G1 X29.457 Y20.729 E69.71386
G1 X29.731 Y20.01 E69.74968
G1 X30.078 Y19.324 E69.78548
G1 X30.494 Y18.677 E69.8213
G0 F6000 X30.892 Y18.811
G1 F1200 X31.371 Y18.237 E69.85611
G1 X31.908 Y17.716 E69.89095
G1 X32.498 Y17.257 E69.92576
G1 X33.134 Y16.862 E69.96062
G1 X33.808 Y16.538 E69.99544
G1 X34.513 Y16.288 E70.03027
G1 X35.241 Y16.114 E70.06513
G1 X35.983 Y16.019 E70.09996
G1 X36.5 Y16 E70.12405
G1 X198.5 Y16 E77.66745
G1 X199.247 Y16.04 E77.70228
G1 X199.985 Y16.159 E77.73709
G1 X200.707 Y16.357 E77.77195
G1 X201.403 Y16.63 E77.80676
G1 X202.066 Y16.977 E77.84161
G1 X202.689 Y17.392 E77.87646
G1 X203.263 Y17.871 E77.91127
G1 X203.784 Y18.408 E77.94611
G1 X204.243 Y18.998 E77.98092
G1 X204.638 Y19.634 E78.01578
G1 X204.962 Y20.308 E78.05061
G1 X205.212 Y21.013 E78.08544
G1 X205.386 Y21.741 E78.12029
G1 X205.481 Y22.483 E78.15512
G1 X205.5 Y23 E78.17921
G1 X205.5 Y212 E86.97984
G1 X205.46 Y212.747 E87.01468
G1 X205.341 Y213.485 E87.04949
G1 X205.143 Y214.207 E87.08435
G1 X204.87 Y214.903 E87.11916
G1 X204.523 Y215.566 E87.154
G1 X204.108 Y216.189 E87.18886
G1 X203.629 Y216.763 E87.22367
G1 X203.092 Y217.284 E87.25851
G1 X202.502 Y217.743 E87.29332
G1 X201.866 Y218.138 E87.32818
G1 X201.192 Y218.462 E87.363
G1 X200.487 Y218.712 E87.39783
G1 X199.759 Y218.886 E87.43269
G1 X199.017 Y218.981 E87.46752
G1 X198.5 Y219 E87.49161
G1 X36.5 Y219 E95.03501
G1 X35.753 Y218.96 E95.06984
G1 X35.015 Y218.841 E95.10465
G1 X34.293 Y218.643 E95.13951
G1 X33.597 Y218.37 E95.17432
G1 X32.934 Y218.023 E95.20917
G1 X32.311 Y217.608 E95.24402
G1 X31.737 Y217.129 E95.27884
G1 X31.216 Y216.592 E95.31368
G1 X30.757 Y216.002 E95.34848
G1 X30.362 Y215.366 E95.38334
G1 X30.038 Y214.692 E95.41817
G1 X29.788 Y213.987 E95.453
G1 X29.614 Y213.259 E95.48785
G1 X29.519 Y212.517 E95.52268
G1 X29.5 Y212 E95.54677
G1 X29.5 Y23 E104.34741
G1 X29.54 Y22.253 E104.38224
G1 X29.659 Y21.515 E104.41705
G1 X29.857 Y20.793 E104.45191
G1 X30.13 Y20.097 E104.48672
G1 X30.477 Y19.434 E104.52156
G1 X30.892 Y18.811 E104.55642
G0 F6000 X31.289 Y18.95
G1 F1200 X31.765 Y18.402 E104.59022
G1 X32.299 Y17.909 E104.62406
G1 X32.884 Y17.479 E104.65787
G1 X33.513 Y17.115 E104.69171
G1 X34.178 Y16.822 E104.72555
G1 X34.871 Y16.604 E104.75937
G1 X35.583 Y16.464 E104.79316
G1 X36.5 Y16.4 E104.83597
G1 X198.5 Y16.4 E112.37937
G1 X199.225 Y16.44 E112.41318
G1 X199.942 Y16.559 E112.44702
G1 X200.641 Y16.757 E112.48085
G1 X201.314 Y17.03 E112.51467
G1 X201.953 Y17.375 E112.54848
G1 X202.55 Y17.789 E112.58231
G1 X203.098 Y18.265 E112.61611
G1 X203.591 Y18.799 E112.64995
G1 X204.021 Y19.384 E112.68376
G1 X204.385 Y20.013 E112.7176
G1 X204.678 Y20.678 E112.75143
G1 X204.896 Y21.371 E112.78526
G1 X205.036 Y22.083 E112.81905
G1 X205.1 Y23 E112.86185
G1 X205.1 Y212 E121.66249
G1 X205.06 Y212.725 E121.6963
G1 X204.941 Y213.442 E121.73014
G1 X204.743 Y214.141 E121.76397
G1 X204.47 Y214.814 E121.79779
G1 X204.125 Y215.453 E121.8316
G1 X203.711 Y216.05 E121.86543
G1 X203.235 Y216.598 E121.89923
G1 X202.701 Y217.091 E121.93307
G1 X202.116 Y217.521 E121.96688
G1 X201.487 Y217.885 E122.00072
G1 X200.822 Y218.178 E122.03455
G1 X200.129 Y218.396 E122.06838
G1 X199.417 Y218.536 E122.10217
G1 X198.5 Y218.6 E122.14497
G1 X36.5 Y218.6 E129.68837
G1 X35.775 Y218.56 E129.72218
G1 X35.058 Y218.441 E129.75603
G1 X34.359 Y218.243 E129.78986
G1 X33.686 Y217.97 E129.82367
G1 X33.047 Y217.625 E129.85749
G1 X32.45 Y217.211 E129.89132
G1 X31.902 Y216.735 E129.92512
G1 X31.409 Y216.201 E129.95896
G1 X30.979 Y215.616 E129.99277
G1 X30.615 Y214.987 E130.0266
G1 X30.322 Y214.322 E130.06044
G1 X30.104 Y213.629 E130.09427
G1 X29.964 Y212.917 E130.12806
G1 X29.9 Y212 E130.17086
G1 X29.9 Y23 E138.97149
G1 X29.94 Y22.275 E139.0053
G1 X30.059 Y21.558 E139.03915
G1 X30.257 Y20.859 E139.07298
G1 X30.53 Y20.186 E139.10679
G1 X30.875 Y19.547 E139.14061
G1 X31.289 Y18.95 E139.17444
G0 F6000 X31.274 Y19.665
G1 F1200 X31.685 Y19.094 E139.2072
G1 X32.159 Y18.573 E139.23999
G1 X32.689 Y18.109 E139.2728
G1 X33.268 Y17.709 E139.30556
G1 X33.889 Y17.377 E139.33835
G1 X34.543 Y17.117 E139.37112
G1 X35.223 Y16.933 E139.40393
G1 X35.919 Y16.827 E139.43671
G1 X36.5 Y16.8 E139.46379
G1 X198.5 Y16.8 E147.00719
G1 X199.203 Y16.84 E147.03998
G1 X199.897 Y16.959 E147.07277
G1 X200.572 Y17.157 E147.10552
G1 X201.221 Y17.429 E147.13829
G1 X201.835 Y17.774 E147.17108
G1 X202.406 Y18.185 E147.20384
G1 X202.927 Y18.659 E147.23664
G1 X203.391 Y19.189 E147.26944
G1 X203.791 Y19.768 E147.30221
G1 X204.123 Y20.389 E147.335
G1 X204.383 Y21.043 E147.36777
G1 X204.567 Y21.723 E147.40057
G1 X204.673 Y22.419 E147.43335
G1 X204.7 Y23 E147.46044
G1 X204.7 Y212 E156.26107
G1 X204.66 Y212.703 E156.29386
G1 X204.541 Y213.397 E156.32664
G1 X204.343 Y214.072 E156.3594
G1 X204.071 Y214.721 E156.39217
G1 X203.726 Y215.335 E156.42496
G1 X203.315 Y215.906 E156.45772
G1 X202.841 Y216.427 E156.49052
G1 X202.311 Y216.891 E156.52332
G1 X201.732 Y217.291 E156.55609
G1 X201.111 Y217.623 E156.58888
G1 X200.457 Y217.883 E156.62165
G1 X199.777 Y218.067 E156.65445
G1 X199.081 Y218.173 E156.68723
G1 X198.5 Y218.2 E156.71432
G1 X36.5 Y218.2 E164.25771
G1 X35.797 Y218.16 E164.2905
G1 X35.103 Y218.041 E164.32329
G1 X34.428 Y217.843 E164.35604
G1 X33.779 Y217.571 E164.38881
G1 X33.165 Y217.226 E164.42161
G1 X32.594 Y216.815 E164.45436
G1 X32.073 Y216.341 E164.48716
G1 X31.609 Y215.811 E164.51996
G1 X31.209 Y215.232 E164.55273
G1 X30.877 Y214.611 E164.58552
G1 X30.617 Y213.957 E164.61829
G1 X30.433 Y213.277 E164.65109
G1 X30.327 Y212.581 E164.68388
G1 X30.3 Y212 E164.71096
G1 X30.3 Y23 E173.51159
G1 X30.34 Y22.297 E173.54438
G1 X30.459 Y21.603 E173.57717
G1 X30.657 Y20.928 E173.60992
G1 X30.929 Y20.279 E173.64269
G1 X31.274 Y19.665 E173.67548
G0 F6000 X31.672 Y19.786
G1 F1200 X32.082 Y19.242 E173.7072
G1 X32.553 Y18.751 E173.73888
G1 X33.078 Y18.317 E173.7706
G1 X33.65 Y17.948 E173.8023
G1 X34.262 Y17.649 E173.83401
G1 X34.904 Y17.424 E173.86569
G1 X35.569 Y17.275 E173.89742
G1 X36.5 Y17.2 E173.94092
G1 X198.5 Y17.2 E181.48431
G1 X199.18 Y17.24 E181.51603
G1 X199.85 Y17.359 E181.54772
G1 X200.502 Y17.556 E181.57944
G1 X201.126 Y17.828 E181.61113
G1 X201.714 Y18.172 E181.64285
G1 X202.258 Y18.582 E181.67457
G1 X202.749 Y19.053 E181.70625
G1 X203.183 Y19.578 E181.73797
G1 X203.552 Y20.15 E181.76967
G1 X203.851 Y20.762 E181.80138
G1 X204.076 Y21.404 E181.83306
G1 X204.225 Y22.069 E181.86479
G1 X204.3 Y23 E181.90829
G1 X204.3 Y212 E190.70892
G1 X204.26 Y212.68 E190.74064
G1 X204.141 Y213.35 E190.77232
G1 X203.944 Y214.002 E190.80404
G1 X203.672 Y214.626 E190.83573
G1 X203.328 Y215.214 E190.86745
G1 X202.918 Y215.758 E190.89917
G1 X202.447 Y216.249 E190.93086
G1 X201.922 Y216.683 E190.96257
G1 X201.35 Y217.052 E190.99427
G1 X200.738 Y217.351 E191.02599
G1 X200.096 Y217.576 E191.05766
G1 X199.431 Y217.725 E191.0894
G1 X198.5 Y217.8 E191.13289
G1 X36.5 Y217.8 E198.67629
G1 X35.82 Y217.76 E198.708
G1 X35.15 Y217.641 E198.73969
G1 X34.498 Y217.444 E198.77141
G1 X33.874 Y217.172 E198.8031
G1 X33.286 Y216.828 E198.83482
G1 X32.742 Y216.418 E198.86654
G1 X32.251 Y215.947 E198.89823
G1 X31.817 Y215.422 E198.92994
G1 X31.448 Y214.85 E198.96164
G1 X31.149 Y214.238 E198.99336
G1 X30.924 Y213.596 E199.02503
G1 X30.775 Y212.931 E199.05677
G1 X30.7 Y212 E199.10026
G1 X30.7 Y23 E207.90089
G1 X30.74 Y22.32 E207.93261
G1 X30.859 Y21.65 E207.96429
G1 X31.056 Y20.998 E207.99601
G1 X31.328 Y20.374 E208.02771
G1 X31.672 Y19.786 E208.05943
G0 F6000 X32.07 Y19.912
G1 F1200 X32.478 Y19.397 E208.09002
G1 X32.945 Y18.935 E208.12061
G1 X33.465 Y18.534 E208.15119
G1 X34.029 Y18.198 E208.18176
G1 X34.631 Y17.934 E208.21236
G1 X35.26 Y17.744 E208.24296
G1 X35.907 Y17.633 E208.27353
G1 X36.5 Y17.6 E208.30118
G1 X198.5 Y17.6 E215.84458
G1 X199.156 Y17.64 E215.87518
G1 X199.802 Y17.759 E215.90577
G1 X200.429 Y17.956 E215.93637
G1 X201.027 Y18.228 E215.96696
G1 X201.588 Y18.57 E215.99756
G1 X202.103 Y18.978 E216.02815
G1 X202.565 Y19.445 E216.05874
G1 X202.966 Y19.965 E216.08932
G1 X203.302 Y20.529 E216.11989
G1 X203.566 Y21.131 E216.1505
G1 X203.756 Y21.76 E216.18109
G1 X203.867 Y22.407 E216.21166
G1 X203.9 Y23 E216.23931
G1 X203.9 Y212 E225.03995
G1 X203.86 Y212.656 E225.07055
G1 X203.741 Y213.302 E225.10113
G1 X203.544 Y213.929 E225.13174
G1 X203.272 Y214.527 E225.16233
G1 X202.93 Y215.088 E225.19292
G1 X202.522 Y215.603 E225.22352
G1 X202.055 Y216.065 E225.2541
G1 X201.535 Y216.466 E225.28468
G1 X200.971 Y216.802 E225.31525
G1 X200.369 Y217.066 E225.34586
G1 X199.74 Y217.256 E225.37646
G1 X199.093 Y217.367 E225.40702
G1 X198.5 Y217.4 E225.43468
G1 X36.5 Y217.4 E232.97808
G1 X35.844 Y217.36 E233.00868
G1 X35.198 Y217.241 E233.03927
G1 X34.571 Y217.044 E233.06987
G1 X33.973 Y216.772 E233.10046
G1 X33.412 Y216.43 E233.13105
G1 X32.897 Y216.022 E233.16165
G1 X32.435 Y215.555 E233.19224
G1 X32.034 Y215.035 E233.22281
G1 X31.698 Y214.471 E233.25338
G1 X31.434 Y213.869 E233.28399
G1 X31.244 Y213.24 E233.31459
G1 X31.133 Y212.593 E233.34515
G1 X31.1 Y212 E233.37281
G1 X31.1 Y23 E242.17344
G1 X31.14 Y22.344 E242.20404
G1 X31.259 Y21.698 E242.23463
G1 X31.456 Y21.071 E242.26523
G1 X31.728 Y20.473 E242.29582
G1 X32.07 Y19.912 E242.32642
G0 F6000 X32.467 Y20.044
G1 F1200 X32.873 Y19.559 E242.35587
G1 X33.336 Y19.129 E242.38529
G1 X33.85 Y18.76 E242.41476
G1 X34.406 Y18.46 E242.44417
G1 X34.995 Y18.232 E242.47358
G1 X35.609 Y18.08 E242.50304
G1 X36.5 Y18 E242.54469
G1 X198.5 Y18 E250.08809
G1 X199.131 Y18.04 E250.11753
G1 X199.752 Y18.159 E250.14697
G1 X200.352 Y18.356 E250.17638
G1 X200.924 Y18.627 E250.20585
G1 X201.456 Y18.967 E250.23525
G1 X201.941 Y19.373 E250.2647
G1 X202.371 Y19.836 E250.29413
G1 X202.74 Y20.35 E250.32359
G1 X203.04 Y20.906 E250.35301
G1 X203.268 Y21.495 E250.38242
G1 X203.42 Y22.109 E250.41187
G1 X203.5 Y23 E250.45353
G1 X203.5 Y212 E259.25416
G1 X203.46 Y212.631 E259.2836
G1 X203.341 Y213.252 E259.31304
G1 X203.144 Y213.852 E259.34245
G1 X202.873 Y214.424 E259.37192
G1 X202.533 Y214.956 E259.40132
G1 X202.127 Y215.441 E259.43077
G1 X201.664 Y215.871 E259.46019
G1 X201.15 Y216.24 E259.48966
G1 X200.594 Y216.54 E259.51908
G1 X200.005 Y216.768 E259.54848
G1 X199.391 Y216.92 E259.57794
G1 X198.5 Y217 E259.61959
G1 X36.5 Y217 E267.16299
G1 X35.869 Y216.96 E267.19243
G1 X35.248 Y216.841 E267.22188
G1 X34.648 Y216.644 E267.25128
G1 X34.076 Y216.373 E267.28075
G1 X33.544 Y216.033 E267.31015
G1 X33.059 Y215.627 E267.33961
G1 X32.629 Y215.164 E267.36903
G1 X32.26 Y214.65 E267.39849
G1 X31.96 Y214.094 E267.42791
G1 X31.732 Y213.505 E267.45732
G1 X31.58 Y212.891 E267.48677
G1 X31.5 Y212 E267.52843
G1 X31.5 Y23 E276.32906
G1 X31.54 Y22.369 E276.3585
G1 X31.659 Y21.748 E276.38794
G1 X31.856 Y21.148 E276.41735
G1 X32.127 Y20.576 E276.44682
G1 X32.467 Y20.044 E276.47622
G0 F6000 X32.865 Y20.181
G1 F1200 X33.267 Y19.728 E276.50442
G1 X33.725 Y19.331 E276.53265
G1 X34.232 Y18.998 E276.56089
G1 X34.778 Y18.734 E276.58913
G1 X35.354 Y18.545 E276.61736
G1 X35.95 Y18.433 E276.6456
G1 X36.5 Y18.4 E276.67125
G1 X198.5 Y18.4 E284.21465
G1 X199.105 Y18.44 E284.24288
G1 X199.699 Y18.559 E284.27109
G1 X200.273 Y18.755 E284.29934
G1 X200.816 Y19.026 E284.32759
G1 X201.319 Y19.365 E284.35584
G1 X201.772 Y19.767 E284.38404
G1 X202.169 Y20.225 E284.41226
G1 X202.502 Y20.732 E284.44051
G1 X202.766 Y21.278 E284.46875
G1 X202.955 Y21.854 E284.49698
G1 X203.067 Y22.45 E284.52521
G1 X203.1 Y23 E284.55087
G1 X203.1 Y212 E293.3515
G1 X203.06 Y212.605 E293.37974
G1 X202.941 Y213.199 E293.40794
