;FLAVOR:Marlin
;TIME:8193
;Filament used: 9.91491m
;Layer height: 0.28
;MINX:78.7
;MINY:78.87
;MINZ:0.28
;MAXX:156.3
;MAXY:156.13
;MAXZ:59.92
;Generated with Cura_SteamEngine 4.10.0
M140 S50
M105
M190 S50
M104 S200
M105
M109 S200
M82 ;absolute extrusion mode
; Ender 3 Custom Start G-code
G92 E0 ; Reset Extruder
G28 ; Home all axes
G1 Z2.0 F3000 ; Move Z Axis up little to prevent scratching of Heat Bed
G1 X0.1 Y20 Z0.3 F5000.0 ; Move to start position
G1 X0.1 Y200.0 Z0.3 F1500.0 E15 ; Draw the first line
G1 X0.4 Y200.0 Z0.3 F5000.0 ; Move to side a little
G1 X0.4 Y20 Z0.3 F1500.0 E30 ; Draw the second line
G92 E0 ; Reset Extruder
G1 Z2.0 F3000 ; Move Z Axis up little to prevent scratching of Heat Bed
G1 X5 Y20 Z0.3 F5000.0 ; Move over to prevent blob squish
G92 E0
G92 E0
G1 F2700 E-5
;LAYER_COUNT:214
;LAYER:0
M107
G0 F6000 X90.959 Y89.244 Z0.28
;TYPE:SKIRT
G1 F2700 E0
G1 F1200 X91.517 Y88.685 E0.03678
G1 X92.172 Y88.152 E0.0761
G1 X97.418 Y84.341 E0.37803
G1 X98.079 Y83.91 E0.41477
G1 X98.829 Y83.526 E0.45401
G1 X104.745 Y80.892 E0.75555
G1 X105.482 Y80.608 E0.79233
G1 X106.297 Y80.388 E0.83164
G1 X112.641 Y79.04 E1.13364
G1 X113.421 Y78.916 E1.17041
G1 X114.262 Y78.87 E1.20963
G1 X120.738 Y78.87 E1.51118
G1 X121.527 Y78.91 E1.54797
G1 X122.359 Y79.04 E1.58718
G1 X128.703 Y80.388 E1.88918
G1 X129.466 Y80.591 E1.92594
G1 X130.255 Y80.892 E1.96526
G1 X136.171 Y83.526 E2.26681
G1 X136.875 Y83.884 E2.30358
G1 X137.582 Y84.341 E2.34278
G1 X142.828 Y88.152 E2.64471
G1 X143.443 Y88.648 E2.6815
G1 X144.041 Y89.244 E2.72082
G1 X148.378 Y94.061 E3.02263
G1 X148.876 Y94.674 E3.05941
G1 X149.336 Y95.38 E3.09865
G1 X152.574 Y100.989 E3.40022
G1 X152.934 Y101.692 E3.437
G1 X153.237 Y102.477 E3.47618
G1 X155.241 Y108.641 E3.77799
G1 X155.447 Y109.404 E3.81479
G1 X155.58 Y110.238 E3.85411
G1 X156.257 Y116.683 E4.15587
G1 X156.3 Y117.472 E4.19267
G1 X156.257 Y118.312 E4.23183
G1 X155.58 Y124.76 E4.53373
G1 X155.458 Y125.541 E4.57053
G1 X155.241 Y126.358 E4.6099
G1 X153.237 Y132.522 E4.91171
G1 X152.955 Y133.259 E4.94845
G1 X152.574 Y134.009 E4.98762
G1 X149.336 Y139.619 E5.28924
G1 X148.908 Y140.282 E5.32598
G1 X148.378 Y140.939 E5.36529
G1 X144.041 Y145.756 E5.66711
G1 X143.483 Y146.315 E5.70388
G1 X142.828 Y146.848 E5.74321
G1 X137.583 Y150.658 E6.04507
G1 X136.922 Y151.089 E6.08181
G1 X136.172 Y151.472 E6.12103
G1 X130.255 Y154.107 E6.42263
G1 X129.518 Y154.392 E6.45943
G1 X128.703 Y154.612 E6.49873
G1 X122.359 Y155.96 E6.80073
G1 X121.579 Y156.084 E6.83751
G1 X120.738 Y156.13 E6.87673
G1 X114.262 Y156.13 E7.17828
G1 X113.473 Y156.09 E7.21506
G1 X112.641 Y155.96 E7.25428
G1 X106.297 Y154.612 E7.55627
G1 X105.534 Y154.409 E7.59304
G1 X104.745 Y154.107 E7.63238
G1 X98.828 Y151.472 E7.93398
G1 X98.124 Y151.115 E7.97074
G1 X97.417 Y150.658 E8.00994
G1 X92.172 Y146.848 E8.3118
G1 X91.557 Y146.352 E8.34859
G1 X90.959 Y145.756 E8.3879
G1 X86.622 Y140.939 E8.68972
G1 X86.124 Y140.326 E8.7265
G1 X85.664 Y139.619 E8.76577
G1 X82.426 Y134.009 E9.06739
G1 X82.066 Y133.306 E9.10417
G1 X81.763 Y132.522 E9.1433
G1 X79.759 Y126.358 E9.44511
G1 X79.553 Y125.595 E9.48191
G1 X79.42 Y124.761 E9.52124
G1 X78.743 Y118.317 E9.82295
G1 X78.7 Y117.528 E9.85974
G1 X78.743 Y116.688 E9.89891
G1 X79.42 Y110.239 E10.20085
G1 X79.542 Y109.458 E10.23766
G1 X79.759 Y108.641 E10.27702
G1 X81.763 Y102.477 E10.57883
G1 X82.045 Y101.74 E10.61558
G1 X82.426 Y100.989 E10.65479
G1 X85.664 Y95.38 E10.95636
G1 X86.093 Y94.717 E10.99313
G1 X86.622 Y94.061 E11.03237
G1 X90.959 Y89.244 E11.33419
G0 F6000 X91.257 Y89.512
G1 F1200 X91.8 Y88.967 E11.37002
G1 X92.407 Y88.476 E11.40637
G1 X97.653 Y84.665 E11.7083
G1 X98.298 Y84.246 E11.74411
G1 X98.992 Y83.892 E11.78039
G1 X104.908 Y81.258 E12.08193
G1 X105.626 Y80.982 E12.11775
G1 X106.38 Y80.78 E12.1541
G1 X112.724 Y79.432 E12.4561
G1 X113.484 Y79.311 E12.49193
G1 X114.262 Y79.27 E12.52821
G1 X120.738 Y79.27 E12.82976
G1 X121.506 Y79.31 E12.86557
G1 X122.276 Y79.432 E12.90187
G1 X128.62 Y80.78 E13.20387
G1 X129.363 Y80.978 E13.23967
G1 X130.092 Y81.258 E13.27604
G1 X136.008 Y83.892 E13.57758
G1 X136.693 Y84.241 E13.61338
G1 X137.347 Y84.665 E13.64967
G1 X142.593 Y88.476 E13.9516
G1 X143.191 Y88.96 E13.98742
G1 X143.743 Y89.512 E14.02377
G1 X148.08 Y94.329 E14.32559
G1 X148.565 Y94.926 E14.36141
G1 X148.99 Y95.58 E14.39773
G1 X152.228 Y101.189 E14.6993
G1 X152.577 Y101.875 E14.73514
G1 X152.856 Y102.601 E14.77136
G1 X154.86 Y108.765 E15.07316
G1 X155.06 Y109.508 E15.10899
G1 X155.183 Y110.28 E15.14539
G1 X155.86 Y116.725 E15.44715
G1 X155.9 Y117.493 E15.48296
G1 X155.86 Y118.271 E15.51924
G1 X155.183 Y124.719 E15.82113
G1 X155.063 Y125.478 E15.85691
G1 X154.86 Y126.234 E15.89336
G1 X152.856 Y132.398 E16.19517
G1 X152.581 Y133.116 E16.23097
G1 X152.228 Y133.809 E16.26719
G1 X148.99 Y139.419 E16.5688
G1 X148.571 Y140.064 E16.60462
G1 X148.08 Y140.671 E16.64097
G1 X143.743 Y145.488 E16.94279
G1 X143.2 Y146.033 E16.97861
G1 X142.593 Y146.524 E17.01497
G1 X137.348 Y150.334 E17.31683
G1 X136.703 Y150.753 E17.35265
G1 X136.009 Y151.107 E17.38892
G1 X130.092 Y153.742 E17.69053
G1 X129.374 Y154.018 E17.72635
G1 X128.62 Y154.22 E17.76269
G1 X122.276 Y155.568 E18.06469
G1 X121.516 Y155.689 E18.10053
G1 X120.738 Y155.73 E18.1368
G1 X114.262 Y155.73 E18.43835
G1 X113.494 Y155.69 E18.47416
G1 X112.724 Y155.568 E18.51046
G1 X106.38 Y154.22 E18.81246
G1 X105.637 Y154.022 E18.84827
G1 X104.908 Y153.742 E18.88463
G1 X98.991 Y151.107 E19.18624
G1 X98.305 Y150.758 E19.22208
G1 X97.652 Y150.334 E19.25833
G1 X92.407 Y146.524 E19.56019
G1 X91.809 Y146.04 E19.59602
G1 X91.257 Y145.488 E19.63237
G1 X86.92 Y140.671 E19.93418
G1 X86.435 Y140.074 E19.97
G1 X86.01 Y139.419 E20.00636
G1 X82.772 Y133.809 E20.30797
G1 X82.423 Y133.124 E20.34377
G1 X82.144 Y132.398 E20.37999
G1 X80.14 Y126.234 E20.6818
G1 X79.94 Y125.491 E20.71762
G1 X79.818 Y124.719 E20.75402
G1 X79.141 Y118.275 E21.05573
G1 X79.1 Y117.507 E21.09154
G1 X79.14 Y116.729 E21.12782
G1 X79.817 Y110.28 E21.42976
G1 X79.937 Y109.521 E21.46554
G1 X80.14 Y108.765 E21.50199
G1 X82.144 Y102.601 E21.8038
G1 X82.419 Y101.883 E21.8396
G1 X82.772 Y101.189 E21.87586
G1 X86.01 Y95.58 E22.17743
G1 X86.429 Y94.935 E22.21325
G1 X86.92 Y94.329 E22.24956
G1 X91.257 Y89.512 E22.55138
G0 F6000 X91.554 Y89.779
G1 F1200 X92.083 Y89.251 E22.58618
G1 X92.642 Y88.8 E22.61963
G1 X97.888 Y84.989 E22.92156
G1 X98.516 Y84.582 E22.9564
G1 X99.155 Y84.257 E22.98979
G1 X105.071 Y81.623 E23.29133
G1 X105.769 Y81.356 E23.32613
G1 X106.463 Y81.171 E23.35957
G1 X112.807 Y79.823 E23.66157
G1 X113.546 Y79.707 E23.6964
G1 X114.262 Y79.67 E23.72979
G1 X120.738 Y79.67 E24.03134
G1 X121.485 Y79.71 E24.06617
G1 X122.193 Y79.823 E24.09955
G1 X128.537 Y81.171 E24.40155
G1 X129.259 Y81.365 E24.43636
G1 X129.929 Y81.623 E24.4698
G1 X135.845 Y84.257 E24.77134
G1 X136.511 Y84.598 E24.80618
G1 X137.112 Y84.989 E24.83957
G1 X142.358 Y88.8 E25.1415
G1 X142.939 Y89.271 E25.17632
G1 X143.446 Y89.779 E25.20974
G1 X147.783 Y94.596 E25.51156
G1 X148.253 Y95.178 E25.54639
G1 X148.643 Y95.78 E25.57979
G1 X151.881 Y101.389 E25.88137
G1 X152.22 Y102.056 E25.91621
G1 X152.476 Y102.725 E25.94956
G1 X154.48 Y108.889 E26.25137
G1 X154.673 Y109.611 E26.28617
G1 X154.785 Y110.322 E26.31969
G1 X155.462 Y116.767 E26.62144
G1 X155.5 Y117.514 E26.65627
G1 X155.462 Y118.229 E26.68961
G1 X154.785 Y124.677 E26.99151
G1 X154.667 Y125.416 E27.02636
G1 X154.48 Y126.11 E27.05982
G1 X152.476 Y132.274 E27.36163
G1 X152.207 Y132.972 E27.39647
G1 X151.882 Y133.609 E27.42976
G1 X148.644 Y139.219 E27.73138
G1 X148.236 Y139.846 E27.76621
G1 X147.783 Y140.404 E27.79968
G1 X143.446 Y145.221 E28.1015
G1 X142.917 Y145.749 E28.1363
G1 X142.358 Y146.2 E28.16974
G1 X137.113 Y150.01 E28.47161
G1 X136.485 Y150.417 E28.50646
G1 X135.847 Y150.742 E28.5398
G1 X129.93 Y153.377 E28.8414
G1 X129.231 Y153.644 E28.87624
G1 X128.537 Y153.829 E28.90969
G1 X122.193 Y155.177 E29.21169
G1 X121.454 Y155.293 E29.24652
G1 X120.738 Y155.33 E29.2799
G1 X114.262 Y155.33 E29.58145
G1 X113.515 Y155.29 E29.61629
G1 X112.807 Y155.177 E29.64967
G1 X106.463 Y153.829 E29.95167
G1 X105.741 Y153.635 E29.98648
G1 X105.07 Y153.377 E30.01995
G1 X99.153 Y150.742 E30.32156
G1 X98.487 Y150.401 E30.3564
G1 X97.887 Y150.01 E30.38975
G1 X92.642 Y146.2 E30.69161
G1 X92.061 Y145.729 E30.72644
G1 X91.554 Y145.221 E30.75986
G1 X87.217 Y140.404 E31.06168
G1 X86.747 Y139.822 E31.09651
G1 X86.356 Y139.219 E31.12997
G1 X83.118 Y133.609 E31.43159
G1 X82.78 Y132.942 E31.46641
G1 X82.524 Y132.274 E31.49972
G1 X80.52 Y126.11 E31.80153
G1 X80.327 Y125.388 E31.83633
G1 X80.215 Y124.677 E31.86984
G1 X79.538 Y118.233 E32.17155
G1 X79.5 Y117.486 E32.20638
G1 X79.538 Y116.771 E32.23972
G1 X80.215 Y110.322 E32.54167
G1 X80.333 Y109.583 E32.57651
G1 X80.52 Y108.889 E32.60998
G1 X82.524 Y102.725 E32.91179
G1 X82.793 Y102.027 E32.94662
G1 X83.119 Y101.389 E32.97998
G1 X86.357 Y95.78 E33.28156
G1 X86.765 Y95.153 E33.31639
G1 X87.217 Y94.596 E33.34979
G1 X91.554 Y89.779 E33.65161
G0 F6000 X91.851 Y90.047
G1 F1200 X92.366 Y89.535 E33.68542
G1 X92.877 Y89.123 E33.71599
G1 X98.123 Y85.312 E34.01792
G1 X98.733 Y84.918 E34.05173
G1 X99.318 Y84.623 E34.08224
G1 X105.234 Y81.989 E34.38378
G1 X105.912 Y81.73 E34.41758
G1 X106.546 Y81.562 E34.44812
G1 X112.89 Y80.214 E34.75012
G1 X113.608 Y80.102 E34.78396
G1 X114.262 Y80.07 E34.81445
G1 X120.738 Y80.07 E35.116
G1 X121.463 Y80.11 E35.14981
G1 X122.11 Y80.214 E35.18032
G1 X128.454 Y81.562 E35.48232
G1 X129.155 Y81.752 E35.51614
G1 X129.766 Y81.989 E35.54665
G1 X135.682 Y84.623 E35.8482
G1 X136.329 Y84.954 E35.88204
G1 X136.877 Y85.312 E35.91252
G1 X142.123 Y89.123 E36.21445
G1 X142.686 Y89.582 E36.24827
G1 X143.149 Y90.047 E36.27883
G1 X147.486 Y94.864 E36.58064
G1 X147.941 Y95.43 E36.61446
G1 X148.297 Y95.98 E36.64497
G1 X151.535 Y101.589 E36.94654
G1 X151.863 Y102.237 E36.98036
G1 X152.096 Y102.848 E37.01081
G1 X154.1 Y109.012 E37.31262
G1 X154.286 Y109.714 E37.34643
G1 X154.387 Y110.364 E37.37706
G1 X155.064 Y116.809 E37.67882
G1 X155.1 Y117.534 E37.71262
G1 X155.064 Y118.187 E37.74307
G1 X154.387 Y124.635 E38.04497
G1 X154.271 Y125.352 E38.07879
G1 X154.1 Y125.987 E38.10941
G1 X152.096 Y132.151 E38.41122
G1 X151.833 Y132.828 E38.44504
G1 X151.535 Y133.409 E38.47545
G1 X148.297 Y139.019 E38.77706
G1 X147.9 Y139.627 E38.81087
G1 X147.486 Y140.136 E38.84143
G1 X143.149 Y144.953 E39.14324
G1 X142.634 Y145.465 E39.17706
G1 X142.123 Y145.877 E39.20762
G1 X136.878 Y149.687 E39.50949
G1 X136.268 Y150.081 E39.5433
G1 X135.684 Y150.376 E39.57377
G1 X129.767 Y153.011 E39.87537
G1 X129.088 Y153.27 E39.90921
G1 X128.454 Y153.438 E39.93975
G1 X122.11 Y154.786 E40.24175
G1 X121.392 Y154.898 E40.27559
G1 X120.738 Y154.93 E40.30608
G1 X114.262 Y154.93 E40.60763
G1 X113.537 Y154.89 E40.64144
G1 X112.89 Y154.786 E40.67195
G1 X106.546 Y153.438 E40.97395
G1 X105.845 Y153.248 E41.00777
G1 X105.233 Y153.011 E41.03833
G1 X99.316 Y150.376 E41.33993
G1 X98.67 Y150.045 E41.37373
G1 X98.122 Y149.687 E41.40421
G1 X92.877 Y145.877 E41.70608
G1 X92.314 Y145.418 E41.7399
G1 X91.851 Y144.953 E41.77046
G1 X87.514 Y140.136 E42.07227
G1 X87.059 Y139.57 E42.10609
G1 X86.703 Y139.019 E42.13663
G1 X83.465 Y133.409 E42.43825
G1 X83.137 Y132.761 E42.47207
G1 X82.904 Y132.151 E42.50247
G1 X80.9 Y125.987 E42.80428
G1 X80.714 Y125.285 E42.8381
G1 X80.613 Y124.636 E42.86868
G1 X79.936 Y118.192 E43.17039
G1 X79.9 Y117.466 E43.20424
G1 X79.936 Y116.813 E43.23469
G1 X80.613 Y110.364 E43.53664
G1 X80.729 Y109.647 E43.57046
G1 X80.9 Y109.012 E43.60108
G1 X82.904 Y102.848 E43.90289
G1 X83.167 Y102.171 E43.93671
G1 X83.465 Y101.589 E43.96715
G1 X86.703 Y95.98 E44.26873
G1 X87.1 Y95.372 E44.30254
G1 X87.514 Y94.864 E44.33306
G1 X91.851 Y90.047 E44.63487
G0 F6000 X92.148 Y90.315
G1 F1200 X92.648 Y89.819 E44.66767
G1 X93.112 Y89.447 E44.69536
G1 X98.358 Y85.636 E44.99729
G1 X98.95 Y85.255 E45.03007
G1 X99.48 Y84.988 E45.0577
G1 X105.396 Y82.354 E45.35925
G1 X106.055 Y82.105 E45.39205
G1 X106.629 Y81.953 E45.4197
G1 X112.973 Y80.605 E45.7217
G1 X113.669 Y80.498 E45.75449
G1 X114.262 Y80.47 E45.78213
G1 X120.738 Y80.47 E46.08368
G1 X121.441 Y80.51 E46.11647
G1 X122.027 Y80.605 E46.14411
G1 X128.371 Y81.953 E46.44611
G1 X129.05 Y82.139 E46.47889
G1 X129.604 Y82.354 E46.50656
G1 X135.52 Y84.988 E46.80811
G1 X136.146 Y85.31 E46.84089
G1 X136.642 Y85.636 E46.86852
G1 X141.888 Y89.447 E47.17045
G1 X142.433 Y89.892 E47.20322
G1 X142.852 Y90.315 E47.23094
G1 X147.189 Y95.132 E47.53276
G1 X147.629 Y95.681 E47.56552
G1 X147.951 Y96.18 E47.59317
G1 X151.189 Y101.789 E47.89475
G1 X151.505 Y102.418 E47.92752
G1 X151.715 Y102.972 E47.95511
G1 X153.719 Y109.136 E48.25692
G1 X153.899 Y109.817 E48.28972
G1 X153.989 Y110.405 E48.31742
G1 X154.666 Y116.85 E48.61918
G1 X154.7 Y117.553 E48.65195
G1 X154.666 Y118.145 E48.67956
G1 X153.989 Y124.593 E48.98146
G1 X153.876 Y125.288 E49.01424
G1 X153.719 Y125.863 E49.042
G1 X151.715 Y132.027 E49.34381
G1 X151.46 Y132.683 E49.37658
G1 X151.189 Y133.209 E49.40413
G1 X147.951 Y138.819 E49.70575
G1 X147.565 Y139.408 E49.73854
G1 X147.189 Y139.868 E49.7662
G1 X142.852 Y144.685 E50.06802
G1 X142.352 Y145.181 E50.10082
G1 X141.888 Y145.553 E50.12851
G1 X136.643 Y149.363 E50.43037
G1 X136.051 Y149.744 E50.46315
G1 X135.521 Y150.011 E50.49079
G1 X129.604 Y152.646 E50.79239
G1 X128.946 Y152.895 E50.82515
G1 X128.371 Y153.047 E50.85285
G1 X122.027 Y154.395 E51.15484
G1 X121.331 Y154.502 E51.18763
G1 X120.738 Y154.53 E51.21528
G1 X114.262 Y154.53 E51.51683
G1 X113.559 Y154.49 E51.54961
G1 X112.973 Y154.395 E51.57726
G1 X106.629 Y153.047 E51.87926
G1 X105.95 Y152.861 E51.91204
G1 X105.396 Y152.646 E51.93971
G1 X99.479 Y150.011 E52.24131
G1 X98.853 Y149.688 E52.27411
G1 X98.357 Y149.363 E52.30173
G1 X93.112 Y145.553 E52.60359
G1 X92.567 Y145.108 E52.63635
G1 X92.148 Y144.685 E52.66408
G1 X87.811 Y139.868 E52.96589
G1 X87.371 Y139.319 E52.99866
G1 X87.049 Y138.819 E53.02635
G1 X83.811 Y133.209 E53.32796
G1 X83.495 Y132.581 E53.3607
G1 X83.285 Y132.027 E53.38829
G1 X81.281 Y125.863 E53.6901
G1 X81.101 Y125.182 E53.7229
G1 X81.011 Y124.594 E53.75059
G1 X80.334 Y118.15 E54.0523
G1 X80.3 Y117.447 E54.08508
G1 X80.334 Y116.855 E54.11269
G1 X81.011 Y110.406 E54.41463
G1 X81.124 Y109.711 E54.44742
G1 X81.281 Y109.136 E54.47517
G1 X83.285 Y102.972 E54.77698
G1 X83.54 Y102.316 E54.80976
G1 X83.811 Y101.789 E54.83735
G1 X87.049 Y96.18 E55.13892
G1 X87.436 Y95.592 E55.1717
G1 X87.811 Y95.132 E55.19934
G1 X92.148 Y90.315 E55.50115
G0 F6000 X92.446 Y90.582
G1 F1200 X92.93 Y90.104 E55.53283
G1 X93.347 Y89.771 E55.55768
G1 X98.593 Y85.96 E55.85961
G1 X99.167 Y85.592 E55.89136
G1 X99.643 Y85.353 E55.91616
G1 X105.559 Y82.719 E56.2177
G1 X106.196 Y82.479 E56.2494
G1 X106.713 Y82.345 E56.27427
G1 X113.057 Y80.997 E56.57627
G1 X113.73 Y80.894 E56.60797
G1 X114.262 Y80.87 E56.63277
G1 X120.738 Y80.87 E56.93432
G1 X121.418 Y80.91 E56.96603
G1 X121.943 Y80.997 E56.99081
G1 X128.287 Y82.345 E57.29281
G1 X128.944 Y82.525 E57.32453
G1 X129.441 Y82.719 E57.34938
G1 X135.357 Y85.353 E57.65092
G1 X135.962 Y85.666 E57.68264
G1 X136.407 Y85.96 E57.70747
G1 X141.653 Y89.771 E58.0094
G1 X142.179 Y90.202 E58.04107
G1 X142.554 Y90.582 E58.06593
G1 X146.891 Y95.399 E58.36774
G1 X147.316 Y95.931 E58.39945
G1 X147.604 Y96.38 E58.42429
G1 X150.842 Y101.989 E58.72586
G1 X151.147 Y102.598 E58.75758
G1 X151.335 Y103.096 E58.78237
G1 X153.339 Y109.26 E59.08417
G1 X153.511 Y109.918 E59.11584
G1 X153.591 Y110.447 E59.14076
G1 X154.268 Y116.892 E59.44251
G1 X154.3 Y117.572 E59.47421
G1 X154.268 Y118.104 E59.49903
G1 X153.591 Y124.552 E59.80093
G1 X153.481 Y125.223 E59.83259
G1 X153.339 Y125.739 E59.85751
G1 X151.335 Y131.903 E60.15932
G1 X151.087 Y132.537 E60.19102
G1 X150.842 Y133.009 E60.21578
G1 X147.604 Y138.619 E60.51739
G1 X147.23 Y139.188 E60.5491
G1 X146.891 Y139.601 E60.57398
G1 X142.554 Y144.418 E60.8758
G1 X142.07 Y144.896 E60.90747
G1 X141.653 Y145.23 E60.93235
G1 X136.408 Y149.04 E61.23422
G1 X135.834 Y149.407 E61.26594
G1 X135.359 Y149.645 E61.29068
G1 X129.442 Y152.28 E61.59228
G1 X128.804 Y152.52 E61.62402
G1 X128.287 Y152.655 E61.64891
