;FLAVOR:Marlin
;TIME:20422
;Filament used: 17.0912m
;Layer height: 0.28
;MINX:47.55
;MINY:15.2
;MINZ:0.28
;MAXX:187.45
;MAXY:219.8
;MAXZ:3.92
;Generated with Cura_SteamEngine 4.10.0
M140 S50
M105
M190 S50
M104 S200
M105
M109 S200
M82 ;absolute extrusion mode
; Ender 3 Custom Start G-code
G92 E0 ; Reset Extruder
G28 ; Home all axes
G1 Z2.0 F3000 ; Move Z Axis up little to prevent scratching of Heat Bed
G1 X0.1 Y20 Z0.3 F5000.0 ; Move to start position
G1 X0.1 Y200.0 Z0.3 F1500.0 E15 ; Draw the first line
G1 X0.4 Y200.0 Z0.3 F5000.0 ; Move to side a little
G1 X0.4 Y20 Z0.3 F1500.0 E30 ; Draw the second line
G92 E0 ; Reset Extruder
G1 Z2.0 F3000 ; Move Z Axis up little to prevent scratching of Heat Bed
G1 X5 Y20 Z0.3 F5000.0 ; Move over to prevent blob squish
G92 E0
G92 E0
G1 F2700 E-5
;LAYER_COUNT:14
;LAYER:0
M107
G0 F6000 X48.181 Y20.043 Z0.28
;TYPE:SKIRT
G1 F2700 E0
G1 F1200 X48.529 Y19.334 E0.03678
G1 X48.947 Y18.663 E0.07359
G1 X49.43 Y18.039 E0.11033
G1 X49.835 Y17.602 E0.13807
G1 X49.952 Y17.485 E0.14578
G1 X50.538 Y16.955 E0.18257
G1 X51.174 Y16.488 E0.21931
G1 X51.854 Y16.087 E0.25607
G1 X52.572 Y15.757 E0.29287
G1 X53.319 Y15.502 E0.32962
G1 X54.088 Y15.323 E0.36639
G1 X54.872 Y15.223 E0.40319
G1 X55.467 Y15.2 E0.43091
G1 X95.733 Y15.2 E2.30587
G1 X96.522 Y15.24 E2.34265
G1 X96.772 Y15.223 E2.35432
G1 X97.367 Y15.2 E2.38205
G1 X137.633 Y15.2 E4.257
G1 X138.422 Y15.24 E4.29379
G1 X138.672 Y15.223 E4.30546
G1 X139.267 Y15.2 E4.33318
G1 X179.533 Y15.2 E6.20814
G1 X180.322 Y15.24 E6.24492
G1 X181.102 Y15.359 E6.28166
G1 X181.867 Y15.557 E6.31846
G1 X182.607 Y15.831 E6.3552
G1 X183.316 Y16.179 E6.39198
G1 X183.987 Y16.597 E6.42879
G1 X184.611 Y17.08 E6.46553
G1 X185.048 Y17.485 E6.49328
G1 X185.165 Y17.602 E6.50098
G1 X185.695 Y18.188 E6.53777
G1 X186.162 Y18.824 E6.57451
G1 X186.563 Y19.504 E6.61127
G1 X186.893 Y20.222 E6.64807
G1 X187.148 Y20.969 E6.68482
G1 X187.327 Y21.738 E6.72159
G1 X187.427 Y22.522 E6.75839
G1 X187.45 Y23.117 E6.78612
G1 X187.45 Y211.883 E15.57585
G1 X187.41 Y212.672 E15.61264
G1 X187.291 Y213.452 E15.64938
G1 X187.093 Y214.217 E15.68617
G1 X186.819 Y214.957 E15.72292
G1 X186.471 Y215.666 E15.75969
G1 X186.053 Y216.337 E15.79651
G1 X185.57 Y216.961 E15.83325
G1 X185.165 Y217.398 E15.86099
G1 X185.048 Y217.515 E15.8687
G1 X184.462 Y218.045 E15.90549
G1 X183.826 Y218.512 E15.94223
G1 X183.146 Y218.913 E15.97899
G1 X182.428 Y219.243 E16.01578
G1 X181.681 Y219.498 E16.05254
G1 X180.912 Y219.677 E16.0893
G1 X180.128 Y219.777 E16.12611
G1 X179.533 Y219.8 E16.15383
G1 X139.267 Y219.8 E18.02879
G1 X138.478 Y219.76 E18.06557
G1 X138.228 Y219.777 E18.07724
G1 X137.633 Y219.8 E18.10497
G1 X97.367 Y219.8 E19.97992
G1 X96.578 Y219.76 E20.01671
G1 X96.328 Y219.777 E20.02837
G1 X95.733 Y219.8 E20.0561
G1 X55.467 Y219.8 E21.93105
G1 X54.678 Y219.76 E21.96784
G1 X53.898 Y219.641 E22.00458
G1 X53.133 Y219.443 E22.04138
G1 X52.393 Y219.169 E22.07812
G1 X51.684 Y218.821 E22.1149
G1 X51.013 Y218.403 E22.15171
G1 X50.389 Y217.92 E22.18845
G1 X49.952 Y217.515 E22.21619
G1 X49.835 Y217.398 E22.2239
G1 X49.305 Y216.812 E22.26069
G1 X48.838 Y216.176 E22.29743
G1 X48.437 Y215.496 E22.33419
G1 X48.107 Y214.778 E22.37099
G1 X47.852 Y214.031 E22.40774
G1 X47.673 Y213.262 E22.44451
G1 X47.573 Y212.478 E22.48131
G1 X47.55 Y211.883 E22.50903
G1 X47.55 Y23.117 E31.29877
G1 X47.59 Y22.328 E31.33556
G1 X47.709 Y21.548 E31.3723
G1 X47.907 Y20.783 E31.40909
G1 X48.181 Y20.043 E31.44584
G0 F6000 X48.581 Y20.127
G1 F1200 X48.928 Y19.441 E31.48163
G1 X49.344 Y18.794 E31.51745
G1 X49.825 Y18.194 E31.55326
G1 X50.117 Y17.884 E31.57309
G1 X50.234 Y17.767 E31.58079
G1 X50.806 Y17.253 E31.6166
G1 X51.428 Y16.8 E31.65243
G1 X52.093 Y16.414 E31.68823
G1 X52.795 Y16.099 E31.72406
G1 X53.526 Y15.859 E31.75989
G1 X54.277 Y15.696 E31.79567
G1 X55.042 Y15.612 E31.83151
G1 X55.467 Y15.6 E31.85131
G1 X95.733 Y15.6 E33.72626
G1 X96.501 Y15.64 E33.76207
G1 X96.578 Y15.652 E33.7657
G1 X96.942 Y15.612 E33.78275
G1 X97.367 Y15.6 E33.80255
G1 X137.633 Y15.6 E35.6775
G1 X138.401 Y15.64 E35.71331
G1 X138.478 Y15.652 E35.71694
G1 X138.842 Y15.612 E35.73399
G1 X139.267 Y15.6 E35.75379
G1 X179.533 Y15.6 E37.62874
G1 X180.301 Y15.64 E37.66455
G1 X181.061 Y15.759 E37.70037
G1 X181.804 Y15.957 E37.73618
G1 X182.523 Y16.231 E37.772
G1 X183.209 Y16.578 E37.8078
G1 X183.856 Y16.994 E37.84362
G1 X184.456 Y17.475 E37.87943
G1 X184.766 Y17.767 E37.89926
G1 X184.883 Y17.884 E37.90696
G1 X185.397 Y18.456 E37.94277
G1 X185.85 Y19.078 E37.9786
G1 X186.236 Y19.743 E38.0144
G1 X186.551 Y20.445 E38.05023
G1 X186.791 Y21.176 E38.08606
G1 X186.954 Y21.927 E38.12184
G1 X187.038 Y22.692 E38.15768
G1 X187.05 Y23.117 E38.17747
G1 X187.05 Y211.883 E46.96721
G1 X187.01 Y212.651 E47.00302
G1 X186.891 Y213.411 E47.03884
G1 X186.693 Y214.154 E47.07464
G1 X186.419 Y214.873 E47.11047
G1 X186.072 Y215.559 E47.14627
G1 X185.656 Y216.206 E47.18209
G1 X185.175 Y216.806 E47.2179
G1 X184.883 Y217.116 E47.23773
G1 X184.766 Y217.233 E47.24543
G1 X184.194 Y217.747 E47.28124
G1 X183.572 Y218.2 E47.31707
G1 X182.907 Y218.586 E47.35287
G1 X182.205 Y218.901 E47.3887
G1 X181.474 Y219.141 E47.42453
G1 X180.723 Y219.304 E47.46031
G1 X179.958 Y219.388 E47.49615
G1 X179.533 Y219.4 E47.51594
G1 X139.267 Y219.4 E49.3909
G1 X138.499 Y219.36 E49.42671
G1 X138.422 Y219.348 E49.43034
G1 X138.058 Y219.388 E49.44739
G1 X137.633 Y219.4 E49.46718
G1 X97.367 Y219.4 E51.34214
G1 X96.599 Y219.36 E51.37795
G1 X96.522 Y219.348 E51.38158
G1 X96.158 Y219.388 E51.39863
G1 X95.733 Y219.4 E51.41843
G1 X55.467 Y219.4 E53.29338
G1 X54.699 Y219.36 E53.32919
G1 X53.939 Y219.241 E53.36501
G1 X53.196 Y219.043 E53.40081
G1 X52.477 Y218.769 E53.43664
G1 X51.791 Y218.422 E53.47244
G1 X51.144 Y218.006 E53.50826
G1 X50.544 Y217.525 E53.54406
G1 X50.234 Y217.233 E53.56389
G1 X50.117 Y217.116 E53.5716
G1 X49.603 Y216.544 E53.60741
G1 X49.15 Y215.922 E53.64324
G1 X48.764 Y215.257 E53.67904
G1 X48.449 Y214.555 E53.71487
G1 X48.209 Y213.824 E53.7507
G1 X48.046 Y213.073 E53.78648
G1 X47.962 Y212.308 E53.82231
G1 X47.95 Y211.883 E53.84211
G1 X47.95 Y23.117 E62.63185
G1 X47.99 Y22.349 E62.66766
G1 X48.109 Y21.589 E62.70348
G1 X48.307 Y20.846 E62.73928
G1 X48.581 Y20.127 E62.77511
G0 F6000 X48.98 Y20.214
G1 F1200 X49.327 Y19.551 E62.80996
G1 X49.742 Y18.928 E62.84481
G1 X50.4 Y18.167 E62.89166
G1 X50.517 Y18.05 E62.89936
G1 X51.074 Y17.55 E62.93421
G1 X51.68 Y17.113 E62.969
G1 X52.33 Y16.742 E63.00385
G1 X53.016 Y16.443 E63.0387
G1 X53.73 Y16.219 E63.07354
G1 X54.463 Y16.072 E63.10836
G1 X55.467 Y16 E63.15523
G1 X95.733 Y16 E65.03018
G1 X96.48 Y16.04 E65.06501
G1 X96.581 Y16.056 E65.06977
G1 X97.367 Y16 E65.10647
G1 X137.633 Y16 E66.98142
G1 X138.38 Y16.04 E67.01625
G1 X138.481 Y16.056 E67.02101
G1 X139.267 Y16 E67.05771
G1 X179.533 Y16 E68.93266
G1 X180.28 Y16.04 E68.96749
G1 X181.018 Y16.159 E69.0023
G1 X181.74 Y16.357 E69.03716
G1 X182.436 Y16.63 E69.07198
G1 X183.099 Y16.977 E69.10682
G1 X183.722 Y17.392 E69.14168
G1 X184.483 Y18.05 E69.18852
G1 X184.6 Y18.167 E69.19623
G1 X185.1 Y18.724 E69.23108
G1 X185.537 Y19.33 E69.26587
G1 X185.908 Y19.98 E69.30072
G1 X186.207 Y20.666 E69.33556
G1 X186.431 Y21.38 E69.37041
G1 X186.578 Y22.113 E69.40522
G1 X186.65 Y23.117 E69.45209
G1 X186.65 Y211.883 E78.24183
G1 X186.61 Y212.63 E78.27666
G1 X186.491 Y213.368 E78.31147
G1 X186.293 Y214.09 E78.34633
G1 X186.02 Y214.786 E78.38114
G1 X185.673 Y215.449 E78.41599
G1 X185.258 Y216.072 E78.45084
G1 X184.6 Y216.833 E78.49769
G1 X184.483 Y216.95 E78.50539
G1 X183.926 Y217.45 E78.54024
G1 X183.32 Y217.887 E78.57503
G1 X182.67 Y218.258 E78.60988
G1 X181.984 Y218.557 E78.64473
G1 X181.27 Y218.781 E78.67957
G1 X180.537 Y218.928 E78.71438
G1 X179.533 Y219 E78.76126
G1 X139.267 Y219 E80.63621
G1 X138.52 Y218.96 E80.67104
G1 X138.419 Y218.944 E80.6758
G1 X137.633 Y219 E80.7125
G1 X97.367 Y219 E82.58745
G1 X96.62 Y218.96 E82.62228
G1 X96.519 Y218.944 E82.62704
G1 X95.733 Y219 E82.66374
G1 X55.467 Y219 E84.53869
G1 X54.72 Y218.96 E84.57352
G1 X53.982 Y218.841 E84.60833
G1 X53.26 Y218.643 E84.64319
G1 X52.564 Y218.37 E84.67801
G1 X51.901 Y218.023 E84.71285
G1 X51.278 Y217.608 E84.74771
G1 X50.517 Y216.95 E84.79455
G1 X50.4 Y216.833 E84.80226
G1 X49.9 Y216.276 E84.83711
G1 X49.463 Y215.67 E84.8719
G1 X49.092 Y215.02 E84.90675
G1 X48.793 Y214.334 E84.94159
G1 X48.569 Y213.62 E84.97644
G1 X48.422 Y212.887 E85.01125
G1 X48.35 Y211.883 E85.05812
G1 X48.35 Y23.117 E93.84786
G1 X48.39 Y22.37 E93.88269
G1 X48.509 Y21.632 E93.9175
G1 X48.707 Y20.91 E93.95236
G1 X48.98 Y20.214 E93.98717
G0 F6000 X49.38 Y20.303
G1 F1200 X49.725 Y19.664 E94.02098
G1 X50.139 Y19.067 E94.05481
G1 X50.683 Y18.45 E94.09312
G1 X50.8 Y18.333 E94.10082
G1 X51.341 Y17.849 E94.13462
G1 X51.932 Y17.426 E94.16846
G1 X52.566 Y17.072 E94.20228
G1 X53.235 Y16.789 E94.2361
G1 X53.931 Y16.581 E94.26992
G1 X54.646 Y16.451 E94.30376
G1 X55.467 Y16.4 E94.34207
G1 X95.733 Y16.4 E96.21702
G1 X96.458 Y16.44 E96.25083
G1 X96.546 Y16.451 E96.25496
G1 X97.367 Y16.4 E96.29326
G1 X137.633 Y16.4 E98.16822
G1 X138.358 Y16.44 E98.20203
G1 X138.446 Y16.451 E98.20616
G1 X139.267 Y16.4 E98.24446
G1 X179.533 Y16.4 E100.11941
G1 X180.258 Y16.44 E100.15322
G1 X180.975 Y16.559 E100.18707
G1 X181.674 Y16.757 E100.2209
G1 X182.347 Y17.03 E100.25471
G1 X182.986 Y17.375 E100.28853
G1 X183.583 Y17.789 E100.32236
G1 X184.2 Y18.333 E100.36066
G1 X184.317 Y18.45 E100.36836
G1 X184.801 Y18.991 E100.40217
G1 X185.224 Y19.582 E100.43601
G1 X185.578 Y20.216 E100.46982
G1 X185.861 Y20.885 E100.50364
G1 X186.069 Y21.581 E100.53747
G1 X186.199 Y22.296 E100.57131
G1 X186.25 Y23.117 E100.60961
G1 X186.25 Y211.883 E109.39935
G1 X186.21 Y212.608 E109.43316
G1 X186.091 Y213.325 E109.467
G1 X185.893 Y214.024 E109.50083
G1 X185.62 Y214.697 E109.53465
G1 X185.275 Y215.336 E109.56846
G1 X184.861 Y215.933 E109.60229
G1 X184.317 Y216.55 E109.64059
G1 X184.2 Y216.667 E109.6483
G1 X183.659 Y217.151 E109.6821
G1 X183.068 Y217.574 E109.71594
G1 X182.434 Y217.928 E109.74975
G1 X181.765 Y218.211 E109.78358
G1 X181.069 Y218.419 E109.8174
G1 X180.354 Y218.549 E109.85124
G1 X179.533 Y218.6 E109.88954
G1 X139.267 Y218.6 E111.7645
G1 X138.542 Y218.56 E111.79831
G1 X138.454 Y218.549 E111.80244
G1 X137.633 Y218.6 E111.84074
G1 X97.367 Y218.6 E113.71569
G1 X96.642 Y218.56 E113.7495
G1 X96.554 Y218.549 E113.75363
G1 X95.733 Y218.6 E113.79194
G1 X55.467 Y218.6 E115.66689
G1 X54.742 Y218.56 E115.7007
G1 X54.025 Y218.441 E115.73454
G1 X53.326 Y218.243 E115.76837
G1 X52.653 Y217.97 E115.80219
G1 X52.014 Y217.625 E115.836
G1 X51.417 Y217.211 E115.86983
G1 X50.8 Y216.667 E115.90814
G1 X50.683 Y216.55 E115.91584
G1 X50.199 Y216.009 E115.94964
G1 X49.776 Y215.418 E115.98348
G1 X49.422 Y214.784 E116.0173
G1 X49.139 Y214.115 E116.05112
G1 X48.931 Y213.419 E116.08494
G1 X48.801 Y212.704 E116.11878
G1 X48.75 Y211.883 E116.15709
G1 X48.75 Y23.117 E124.94682
G1 X48.79 Y22.392 E124.98063
G1 X48.909 Y21.675 E125.01448
G1 X49.107 Y20.976 E125.0483
G1 X49.38 Y20.303 E125.08212
G0 F6000 X49.779 Y20.396
G1 F1200 X50.124 Y19.782 E125.11492
G1 X50.535 Y19.211 E125.14768
G1 X50.966 Y18.733 E125.17765
G1 X51.083 Y18.616 E125.18535
G1 X51.608 Y18.147 E125.21813
G1 X52.183 Y17.741 E125.25091
G1 X52.801 Y17.403 E125.28371
G1 X53.452 Y17.136 E125.31647
G1 X54.13 Y16.946 E125.34926
G1 X54.825 Y16.833 E125.38204
G1 X55.467 Y16.8 E125.41198
G1 X95.733 Y16.8 E127.28693
G1 X96.436 Y16.84 E127.31972
G1 X96.725 Y16.833 E127.33318
G1 X97.367 Y16.8 E127.36311
G1 X137.633 Y16.8 E129.23807
G1 X138.336 Y16.84 E129.27085
G1 X138.625 Y16.833 E129.28432
G1 X139.267 Y16.8 E129.31425
G1 X179.533 Y16.8 E131.1892
G1 X180.236 Y16.84 E131.22199
G1 X180.93 Y16.959 E131.25478
G1 X181.605 Y17.157 E131.28753
G1 X182.254 Y17.429 E131.3203
G1 X182.868 Y17.774 E131.35309
G1 X183.439 Y18.185 E131.38585
G1 X183.917 Y18.616 E131.41582
G1 X184.034 Y18.733 E131.42353
G1 X184.503 Y19.258 E131.45631
G1 X184.909 Y19.833 E131.48908
G1 X185.247 Y20.451 E131.52188
G1 X185.514 Y21.102 E131.55465
G1 X185.704 Y21.78 E131.58743
G1 X185.817 Y22.475 E131.62022
G1 X185.85 Y23.117 E131.65016
G1 X185.85 Y211.883 E140.43989
G1 X185.81 Y212.586 E140.47268
G1 X185.691 Y213.28 E140.50547
G1 X185.493 Y213.955 E140.53822
G1 X185.221 Y214.604 E140.57099
G1 X184.876 Y215.218 E140.60378
G1 X184.465 Y215.789 E140.63654
G1 X184.034 Y216.267 E140.66651
G1 X183.917 Y216.384 E140.67422
G1 X183.392 Y216.853 E140.707
G1 X182.817 Y217.259 E140.73977
G1 X182.199 Y217.597 E140.77257
G1 X181.548 Y217.864 E140.80534
G1 X180.87 Y218.054 E140.83812
G1 X180.175 Y218.167 E140.87091
G1 X179.533 Y218.2 E140.90084
G1 X139.267 Y218.2 E142.7758
G1 X138.564 Y218.16 E142.80858
G1 X138.275 Y218.167 E142.82205
G1 X137.633 Y218.2 E142.85198
G1 X97.367 Y218.2 E144.72693
G1 X96.664 Y218.16 E144.75972
G1 X96.375 Y218.167 E144.77318
G1 X95.733 Y218.2 E144.80311
G1 X55.467 Y218.2 E146.67807
G1 X54.764 Y218.16 E146.71086
G1 X54.07 Y218.041 E146.74364
G1 X53.395 Y217.843 E146.7764
G1 X52.746 Y217.571 E146.80917
G1 X52.132 Y217.226 E146.84196
G1 X51.561 Y216.815 E146.87472
G1 X51.083 Y216.384 E146.90469
G1 X50.966 Y216.267 E146.91239
G1 X50.497 Y215.742 E146.94517
G1 X50.091 Y215.167 E146.97795
G1 X49.753 Y214.549 E147.01075
G1 X49.486 Y213.898 E147.04351
G1 X49.296 Y213.22 E147.0763
G1 X49.183 Y212.525 E147.10909
G1 X49.15 Y211.883 E147.13902
G1 X49.15 Y23.117 E155.92876
G1 X49.19 Y22.414 E155.96154
G1 X49.309 Y21.72 E155.99433
G1 X49.507 Y21.045 E156.02709
G1 X49.779 Y20.396 E156.05985
G0 F6000 X49.906 Y21.115
G1 F1200 X50.178 Y20.491 E156.09155
G1 X50.522 Y19.903 E156.12327
G1 X50.932 Y19.359 E156.15499
G1 X51.249 Y19.016 E156.17674
G1 X51.366 Y18.899 E156.18444
G1 X51.875 Y18.446 E156.21617
G1 X52.433 Y18.057 E156.24784
G1 X53.033 Y17.735 E156.27955
G1 X53.667 Y17.486 E156.31127
G1 X54.326 Y17.313 E156.34299
G1 X55 Y17.219 E156.37468
G1 X55.467 Y17.2 E156.39645
G1 X95.733 Y17.2 E158.2714
G1 X96.413 Y17.24 E158.30312
G1 X96.561 Y17.266 E158.31012
G1 X96.9 Y17.219 E158.32605
G1 X97.367 Y17.2 E158.34781
G1 X137.633 Y17.2 E160.22277
G1 X138.313 Y17.24 E160.25449
G1 X138.461 Y17.266 E160.26148
G1 X138.8 Y17.219 E160.27742
G1 X139.267 Y17.2 E160.29918
G1 X179.533 Y17.2 E162.17414
G1 X180.213 Y17.24 E162.20586
G1 X180.883 Y17.359 E162.23754
G1 X181.535 Y17.556 E162.26926
G1 X182.159 Y17.828 E162.30095
G1 X182.747 Y18.172 E162.33268
G1 X183.291 Y18.582 E162.36439
G1 X183.634 Y18.899 E162.38614
G1 X183.751 Y19.016 E162.39385
G1 X184.204 Y19.525 E162.42558
G1 X184.593 Y20.083 E162.45725
G1 X184.915 Y20.683 E162.48896
G1 X185.164 Y21.317 E162.52067
G1 X185.337 Y21.976 E162.5524
G1 X185.431 Y22.65 E162.58409
G1 X185.45 Y23.117 E162.60585
G1 X185.45 Y211.883 E171.39559
G1 X185.41 Y212.563 E171.4273
G1 X185.291 Y213.233 E171.45899
G1 X185.094 Y213.885 E171.49071
G1 X184.822 Y214.509 E171.5224
G1 X184.478 Y215.097 E171.55412
G1 X184.068 Y215.641 E171.58584
G1 X183.751 Y215.984 E171.60759
G1 X183.634 Y216.101 E171.6153
G1 X183.125 Y216.554 E171.64702
G1 X182.567 Y216.943 E171.6787
G1 X181.967 Y217.265 E171.71041
G1 X181.333 Y217.514 E171.74212
G1 X180.674 Y217.687 E171.77385
G1 X180 Y217.781 E171.80554
G1 X179.533 Y217.8 E171.8273
G1 X139.267 Y217.8 E173.70225
G1 X138.587 Y217.76 E173.73397
G1 X138.439 Y217.734 E173.74097
G1 X138.1 Y217.781 E173.7569
G1 X137.633 Y217.8 E173.77867
G1 X97.367 Y217.8 E175.65362
G1 X96.687 Y217.76 E175.68534
G1 X96.539 Y217.734 E175.69234
G1 X96.2 Y217.781 E175.70827
G1 X95.733 Y217.8 E175.73004
G1 X55.467 Y217.8 E177.60499
G1 X54.787 Y217.76 E177.63671
G1 X54.117 Y217.641 E177.6684
G1 X53.465 Y217.444 E177.70011
G1 X52.841 Y217.172 E177.73181
G1 X52.253 Y216.828 E177.76353
G1 X51.709 Y216.418 E177.79525
G1 X51.366 Y216.101 E177.817
G1 X51.249 Y215.984 E177.8247
G1 X50.796 Y215.475 E177.85643
G1 X50.407 Y214.917 E177.8881
G1 X50.085 Y214.317 E177.91981
G1 X49.836 Y213.683 E177.95153
G1 X49.663 Y213.024 E177.98325
G1 X49.569 Y212.35 E178.01494
G1 X49.55 Y211.883 E178.0367
G1 X49.55 Y23.117 E186.82644
G1 X49.59 Y22.437 E186.85816
G1 X49.709 Y21.767 E186.88984
G1 X49.906 Y21.115 E186.92156
G0 F6000 X50.306 Y21.188
