;FLAVOR:Marlin
;TIME:12047
;Filament used: 7.15786m
;Layer height: 0.16
;MINX:31.7
;MINY:37.05
;MINZ:0.2
;MAXX:203.3
;MAXY:92.7
;MAXZ:4.88
;Generated with Cura_SteamEngine 4.10.0
M140 S50
M105
M190 S50
M104 S200
M105
M109 S200
M82 ;absolute extrusion mode
; Ender 3 Custom Start G-code
G92 E0 ; Reset Extruder
G28 ; Home all axes
G1 Z2.0 F3000 ; Move Z Axis up little to prevent scratching of Heat Bed
G1 X0.1 Y20 Z0.3 F5000.0 ; Move to start position
G1 X0.1 Y200.0 Z0.3 F1500.0 E15 ; Draw the first line
G1 X0.4 Y200.0 Z0.3 F5000.0 ; Move to side a little
G1 X0.4 Y20 Z0.3 F1500.0 E30 ; Draw the second line
G92 E0 ; Reset Extruder
G1 Z2.0 F3000 ; Move Z Axis up little to prevent scratching of Heat Bed
G1 X5 Y20 Z0.3 F5000.0 ; Move over to prevent blob squish
G92 E0
G92 E0
G1 F2700 E-5
;LAYER_COUNT:26
;LAYER:0
M107
G0 F6000 X34.123 Y39.199 Z0.2
;TYPE:SKIRT
G1 F2700 E0
G1 F1200 X34.722 Y38.684 E0.02627
G1 X35.37 Y38.233 E0.05253
G1 X36.061 Y37.849 E0.07883
G1 X36.786 Y37.537 E0.10508
G1 X37.539 Y37.3 E0.13133
G1 X38.313 Y37.141 E0.15761
G1 X39.098 Y37.06 E0.18386
G1 X39.5 Y37.05 E0.19724
G1 X74 Y37.05 E1.34471
G1 X74.789 Y37.09 E1.37099
G1 X75.569 Y37.209 E1.39723
G1 X76.334 Y37.407 E1.42351
G1 X77.008 Y37.657 E1.44742
G1 X77.286 Y37.537 E1.45749
G1 X78.039 Y37.3 E1.48375
G1 X78.813 Y37.141 E1.51003
G1 X79.598 Y37.06 E1.53628
G1 X80 Y37.05 E1.54965
G1 X114.5 Y37.05 E2.69713
G1 X115.289 Y37.09 E2.7234
G1 X116.069 Y37.209 E2.74965
G1 X116.834 Y37.407 E2.77593
G1 X117.508 Y37.657 E2.79984
G1 X117.786 Y37.537 E2.80991
G1 X118.539 Y37.3 E2.83617
G1 X119.313 Y37.141 E2.86245
G1 X120.098 Y37.06 E2.8887
G1 X120.5 Y37.05 E2.90207
G1 X155 Y37.05 E4.04954
G1 X155.789 Y37.09 E4.07582
G1 X156.569 Y37.209 E4.10206
G1 X157.334 Y37.407 E4.12835
G1 X158.008 Y37.657 E4.15226
G1 X158.286 Y37.537 E4.16233
G1 X159.039 Y37.3 E4.18858
G1 X159.813 Y37.141 E4.21486
G1 X160.598 Y37.06 E4.24111
G1 X161 Y37.05 E4.25449
G1 X195.5 Y37.05 E5.40196
G1 X196.289 Y37.09 E5.42824
G1 X197.069 Y37.209 E5.45448
G1 X197.834 Y37.407 E5.48076
G1 X198.574 Y37.681 E5.50701
G1 X199.283 Y38.029 E5.53328
G1 X199.954 Y38.447 E5.55957
G1 X200.578 Y38.93 E5.58582
G1 X201.151 Y39.473 E5.61207
G1 X201.666 Y40.072 E5.63835
G1 X202.117 Y40.72 E5.6646
G1 X202.501 Y41.411 E5.6909
G1 X202.813 Y42.136 E5.71715
G1 X203.05 Y42.889 E5.74341
G1 X203.209 Y43.663 E5.76969
G1 X203.29 Y44.448 E5.79593
G1 X203.3 Y44.85 E5.80931
G1 X203.3 Y54.6 E6.1336
G1 X203.26 Y55.389 E6.15987
G1 X203.141 Y56.169 E6.18611
G1 X202.943 Y56.934 E6.2124
G1 X202.813 Y57.286 E6.22488
G1 X203.05 Y58.039 E6.25113
G1 X203.209 Y58.813 E6.27741
G1 X203.29 Y59.598 E6.30366
G1 X203.3 Y60 E6.31704
G1 X203.3 Y69.75 E6.64132
G1 X203.26 Y70.539 E6.6676
G1 X203.141 Y71.319 E6.69384
G1 X202.943 Y72.084 E6.72012
G1 X202.813 Y72.436 E6.73261
G1 X203.05 Y73.189 E6.75886
G1 X203.209 Y73.963 E6.78514
G1 X203.29 Y74.748 E6.81139
G1 X203.3 Y75.15 E6.82476
G1 X203.3 Y84.9 E7.14905
G1 X203.26 Y85.689 E7.17533
G1 X203.141 Y86.469 E7.20157
G1 X202.943 Y87.234 E7.22785
G1 X202.669 Y87.974 E7.2541
G1 X202.321 Y88.683 E7.28037
G1 X201.903 Y89.354 E7.30666
G1 X201.42 Y89.978 E7.33291
G1 X200.877 Y90.551 E7.35916
G1 X200.278 Y91.066 E7.38544
G1 X199.63 Y91.517 E7.41169
G1 X198.939 Y91.901 E7.43799
G1 X198.214 Y92.213 E7.46424
G1 X197.461 Y92.45 E7.4905
G1 X196.687 Y92.609 E7.51678
G1 X195.902 Y92.69 E7.54302
G1 X195.5 Y92.7 E7.5564
G1 X161 Y92.7 E8.70387
G1 X160.211 Y92.66 E8.73015
G1 X159.431 Y92.541 E8.75639
G1 X158.666 Y92.343 E8.78268
G1 X157.992 Y92.093 E8.80658
G1 X157.714 Y92.213 E8.81666
G1 X156.961 Y92.45 E8.84291
G1 X156.187 Y92.609 E8.86919
G1 X155.402 Y92.69 E8.89544
G1 X155 Y92.7 E8.90882
G1 X120.5 Y92.7 E10.05629
G1 X119.711 Y92.66 E10.08257
G1 X118.931 Y92.541 E10.10881
G1 X118.166 Y92.343 E10.13509
G1 X117.492 Y92.093 E10.159
G1 X117.214 Y92.213 E10.16907
G1 X116.461 Y92.45 E10.19533
G1 X115.687 Y92.609 E10.22161
G1 X114.902 Y92.69 E10.24786
G1 X114.5 Y92.7 E10.26123
G1 X80 Y92.7 E11.40871
G1 X79.211 Y92.66 E11.43498
G1 X78.431 Y92.541 E11.46123
G1 X77.666 Y92.343 E11.48751
G1 X76.992 Y92.093 E11.51142
G1 X76.714 Y92.213 E11.52149
G1 X75.961 Y92.45 E11.54774
G1 X75.187 Y92.609 E11.57403
G1 X74.402 Y92.69 E11.60027
G1 X74 Y92.7 E11.61365
G1 X39.5 Y92.7 E12.76112
G1 X38.711 Y92.66 E12.7874
G1 X37.931 Y92.541 E12.81364
G1 X37.166 Y92.343 E12.83992
G1 X36.426 Y92.069 E12.86617
G1 X35.717 Y91.721 E12.89244
G1 X35.046 Y91.303 E12.91873
G1 X34.422 Y90.82 E12.94498
G1 X33.849 Y90.277 E12.97123
G1 X33.334 Y89.678 E12.99751
G1 X32.883 Y89.03 E13.02377
G1 X32.499 Y88.339 E13.05006
G1 X32.187 Y87.614 E13.07631
G1 X31.95 Y86.861 E13.10257
G1 X31.791 Y86.087 E13.12885
G1 X31.71 Y85.302 E13.1551
G1 X31.7 Y84.9 E13.16847
G1 X31.7 Y75.15 E13.49276
G1 X31.74 Y74.361 E13.51903
G1 X31.859 Y73.581 E13.54528
G1 X32.057 Y72.816 E13.57156
G1 X32.187 Y72.464 E13.58404
G1 X31.95 Y71.711 E13.6103
G1 X31.791 Y70.937 E13.63658
G1 X31.71 Y70.152 E13.66282
G1 X31.7 Y69.75 E13.6762
G1 X31.7 Y60 E14.00048
G1 X31.74 Y59.211 E14.02676
G1 X31.859 Y58.431 E14.053
G1 X32.057 Y57.666 E14.07929
G1 X32.187 Y57.314 E14.09177
G1 X31.95 Y56.561 E14.11802
G1 X31.791 Y55.787 E14.1443
G1 X31.71 Y55.002 E14.17055
G1 X31.7 Y54.6 E14.18393
G1 X31.7 Y44.85 E14.50821
G1 X31.74 Y44.061 E14.53449
G1 X31.859 Y43.281 E14.56073
G1 X32.057 Y42.516 E14.58701
G1 X32.331 Y41.776 E14.61326
G1 X32.679 Y41.067 E14.63953
G1 X33.097 Y40.396 E14.66582
G1 X33.58 Y39.772 E14.69207
G1 X34.123 Y39.199 E14.71832
G0 F6000 X34.516 Y39.38
G1 F1200 X35.111 Y38.892 E14.74392
G1 X35.753 Y38.469 E14.76949
G1 X36.436 Y38.114 E14.79509
G1 X37.151 Y37.833 E14.82064
G1 X37.893 Y37.627 E14.84626
G1 X38.651 Y37.499 E14.87182
G1 X39.5 Y37.45 E14.90011
G1 X74 Y37.45 E16.04758
G1 X74.768 Y37.49 E16.07316
G1 X75.528 Y37.609 E16.09875
G1 X76.271 Y37.807 E16.12432
G1 X76.99 Y38.081 E16.14991
G1 X77.003 Y38.088 E16.1504
G1 X77.651 Y37.833 E16.17357
G1 X78.393 Y37.627 E16.19918
G1 X79.151 Y37.499 E16.22475
G1 X80 Y37.45 E16.25303
G1 X114.5 Y37.45 E17.40051
G1 X115.268 Y37.49 E17.42608
G1 X116.028 Y37.609 E17.45167
G1 X116.771 Y37.807 E17.47724
G1 X117.49 Y38.081 E17.50284
G1 X117.503 Y38.088 E17.50333
G1 X118.151 Y37.833 E17.52649
G1 X118.893 Y37.627 E17.5521
G1 X119.651 Y37.499 E17.57767
G1 X120.5 Y37.45 E17.60595
G1 X155 Y37.45 E18.75343
G1 X155.768 Y37.49 E18.77901
G1 X156.528 Y37.609 E18.80459
G1 X157.271 Y37.807 E18.83017
G1 X157.99 Y38.081 E18.85576
G1 X158.003 Y38.088 E18.85625
G1 X158.651 Y37.833 E18.87941
G1 X159.393 Y37.627 E18.90502
G1 X160.151 Y37.499 E18.93059
G1 X161 Y37.45 E18.95888
G1 X195.5 Y37.45 E20.10635
G1 X196.268 Y37.49 E20.13193
G1 X197.028 Y37.609 E20.15752
G1 X197.771 Y37.807 E20.18309
G1 X198.49 Y38.081 E20.20868
G1 X199.176 Y38.428 E20.23425
G1 X199.823 Y38.844 E20.25984
G1 X200.423 Y39.325 E20.28541
G1 X200.97 Y39.866 E20.311
G1 X201.458 Y40.461 E20.3366
G1 X201.881 Y41.103 E20.36217
G1 X202.236 Y41.786 E20.38777
G1 X202.517 Y42.501 E20.41332
G1 X202.723 Y43.243 E20.43893
G1 X202.851 Y44.001 E20.4645
G1 X202.9 Y44.85 E20.49279
G1 X202.9 Y54.6 E20.81707
G1 X202.86 Y55.368 E20.84265
G1 X202.741 Y56.128 E20.86824
G1 X202.543 Y56.871 E20.89381
G1 X202.379 Y57.301 E20.90912
G1 X202.517 Y57.651 E20.92163
G1 X202.723 Y58.393 E20.94724
G1 X202.851 Y59.151 E20.97281
G1 X202.9 Y60 E21.0011
G1 X202.9 Y69.75 E21.32538
G1 X202.86 Y70.518 E21.35096
G1 X202.741 Y71.278 E21.37655
G1 X202.543 Y72.021 E21.40212
G1 X202.379 Y72.451 E21.41743
G1 X202.517 Y72.801 E21.42994
G1 X202.723 Y73.543 E21.45555
G1 X202.851 Y74.301 E21.48112
G1 X202.9 Y75.15 E21.50941
G1 X202.9 Y84.9 E21.83369
G1 X202.86 Y85.668 E21.85927
G1 X202.741 Y86.428 E21.88486
G1 X202.543 Y87.171 E21.91043
G1 X202.269 Y87.89 E21.93602
G1 X201.922 Y88.576 E21.96159
G1 X201.506 Y89.223 E21.98718
G1 X201.025 Y89.823 E22.01275
G1 X200.484 Y90.37 E22.03834
G1 X199.889 Y90.858 E22.06394
G1 X199.247 Y91.281 E22.08951
G1 X198.564 Y91.636 E22.11511
G1 X197.849 Y91.917 E22.14066
G1 X197.107 Y92.123 E22.16627
G1 X196.349 Y92.251 E22.19184
G1 X195.5 Y92.3 E22.22013
G1 X161 Y92.3 E23.3676
G1 X160.232 Y92.26 E23.39318
G1 X159.472 Y92.141 E23.41877
G1 X158.729 Y91.943 E23.44434
G1 X158.01 Y91.669 E23.46993
G1 X157.997 Y91.662 E23.47042
G1 X157.349 Y91.917 E23.49358
G1 X156.607 Y92.123 E23.5192
G1 X155.849 Y92.251 E23.54476
G1 X155 Y92.3 E23.57305
G1 X120.5 Y92.3 E24.72052
G1 X119.732 Y92.26 E24.7461
G1 X118.972 Y92.141 E24.77169
G1 X118.229 Y91.943 E24.79726
G1 X117.51 Y91.669 E24.82285
G1 X117.497 Y91.662 E24.82335
G1 X116.849 Y91.917 E24.84651
G1 X116.107 Y92.123 E24.87212
G1 X115.349 Y92.251 E24.89769
G1 X114.5 Y92.3 E24.92597
G1 X80 Y92.3 E26.07345
G1 X79.232 Y92.26 E26.09903
G1 X78.472 Y92.141 E26.12461
G1 X77.729 Y91.943 E26.15019
G1 X77.01 Y91.669 E26.17578
G1 X76.997 Y91.662 E26.17627
G1 X76.349 Y91.917 E26.19943
G1 X75.607 Y92.123 E26.22504
G1 X74.849 Y92.251 E26.25061
G1 X74 Y92.3 E26.2789
G1 X39.5 Y92.3 E27.42637
G1 X38.732 Y92.26 E27.45195
G1 X37.972 Y92.141 E27.47753
G1 X37.229 Y91.943 E27.50311
G1 X36.51 Y91.669 E27.5287
G1 X35.824 Y91.322 E27.55427
G1 X35.177 Y90.906 E27.57985
G1 X34.577 Y90.425 E27.60543
G1 X34.03 Y89.884 E27.63102
G1 X33.542 Y89.289 E27.65661
G1 X33.119 Y88.647 E27.68218
G1 X32.764 Y87.964 E27.70779
G1 X32.483 Y87.249 E27.73334
G1 X32.277 Y86.507 E27.75895
G1 X32.149 Y85.749 E27.78452
G1 X32.1 Y84.9 E27.8128
G1 X32.1 Y75.15 E28.13709
G1 X32.14 Y74.382 E28.16267
G1 X32.259 Y73.622 E28.18825
G1 X32.457 Y72.879 E28.21383
G1 X32.621 Y72.449 E28.22914
G1 X32.483 Y72.099 E28.24165
G1 X32.277 Y71.357 E28.26726
G1 X32.149 Y70.599 E28.29283
G1 X32.1 Y69.75 E28.32111
G1 X32.1 Y60 E28.6454
G1 X32.14 Y59.232 E28.67098
G1 X32.259 Y58.472 E28.69656
G1 X32.457 Y57.729 E28.72214
G1 X32.621 Y57.299 E28.73745
G1 X32.483 Y56.949 E28.74996
G1 X32.277 Y56.207 E28.77557
G1 X32.149 Y55.449 E28.80114
G1 X32.1 Y54.6 E28.82942
G1 X32.1 Y44.85 E29.15371
G1 X32.14 Y44.082 E29.17929
G1 X32.259 Y43.322 E29.20488
G1 X32.457 Y42.579 E29.23045
G1 X32.731 Y41.86 E29.25604
G1 X33.078 Y41.174 E29.28161
G1 X33.494 Y40.527 E29.30719
G1 X33.975 Y39.927 E29.33277
G1 X34.516 Y39.38 E29.35836
G0 F6000 X34.908 Y39.566
G1 F1200 X35.498 Y39.107 E29.38322
G1 X36.134 Y38.712 E29.40812
G1 X36.808 Y38.388 E29.433
G1 X37.513 Y38.138 E29.45788
G1 X38.241 Y37.964 E29.48277
G1 X38.983 Y37.869 E29.50765
G1 X39.5 Y37.85 E29.52486
G1 X74 Y37.85 E30.67233
G1 X74.747 Y37.89 E30.69721
G1 X75.485 Y38.009 E30.72208
G1 X76.207 Y38.207 E30.74698
G1 X76.903 Y38.48 E30.77184
G1 X77.005 Y38.534 E30.77568
G1 X77.308 Y38.388 E30.78687
G1 X78.013 Y38.138 E30.81175
G1 X78.741 Y37.964 E30.83664
G1 X79.483 Y37.869 E30.86152
G1 X80 Y37.85 E30.87873
G1 X114.5 Y37.85 E32.02621
G1 X115.247 Y37.89 E32.05109
G1 X115.985 Y38.009 E32.07595
G1 X116.707 Y38.207 E32.10085
G1 X117.403 Y38.48 E32.12572
G1 X117.505 Y38.534 E32.12956
G1 X117.808 Y38.388 E32.14074
G1 X118.513 Y38.138 E32.16562
G1 X119.241 Y37.964 E32.19052
G1 X119.983 Y37.869 E32.2154
G1 X120.5 Y37.85 E32.2326
G1 X155 Y37.85 E33.38008
G1 X155.747 Y37.89 E33.40496
G1 X156.485 Y38.009 E33.42982
G1 X157.207 Y38.207 E33.45472
G1 X157.903 Y38.48 E33.47959
G1 X158.005 Y38.534 E33.48343
G1 X158.308 Y38.388 E33.49461
G1 X159.013 Y38.138 E33.51949
G1 X159.741 Y37.964 E33.54439
G1 X160.483 Y37.869 E33.56927
G1 X161 Y37.85 E33.58648
G1 X195.5 Y37.85 E34.73395
G1 X196.247 Y37.89 E34.75883
G1 X196.985 Y38.009 E34.7837
G1 X197.707 Y38.207 E34.8086
G1 X198.403 Y38.48 E34.83346
G1 X199.066 Y38.827 E34.85835
G1 X199.689 Y39.242 E34.88325
G1 X200.263 Y39.721 E34.90811
G1 X200.784 Y40.258 E34.933
G1 X201.243 Y40.848 E34.95786
G1 X201.638 Y41.484 E34.98276
G1 X201.962 Y42.158 E35.00764
G1 X202.212 Y42.863 E35.03251
G1 X202.386 Y43.591 E35.05741
G1 X202.481 Y44.333 E35.08229
G1 X202.5 Y44.85 E35.0995
G1 X202.5 Y54.6 E35.42378
G1 X202.46 Y55.347 E35.44867
G1 X202.341 Y56.085 E35.47353
G1 X202.143 Y56.807 E35.49843
G1 X201.953 Y57.29 E35.51569
G1 X201.962 Y57.308 E35.51636
G1 X202.212 Y58.013 E35.54124
G1 X202.386 Y58.741 E35.56614
G1 X202.481 Y59.483 E35.59102
G1 X202.5 Y60 E35.60822
G1 X202.5 Y69.75 E35.93251
G1 X202.46 Y70.497 E35.95739
G1 X202.341 Y71.235 E35.98225
G1 X202.143 Y71.957 E36.00715
G1 X201.953 Y72.44 E36.02442
G1 X201.962 Y72.458 E36.02509
G1 X202.212 Y73.163 E36.04996
G1 X202.386 Y73.891 E36.07486
G1 X202.481 Y74.633 E36.09974
G1 X202.5 Y75.15 E36.11695
G1 X202.5 Y84.9 E36.44123
G1 X202.46 Y85.647 E36.46612
G1 X202.341 Y86.385 E36.49098
G1 X202.143 Y87.107 E36.51588
G1 X201.87 Y87.803 E36.54074
G1 X201.523 Y88.466 E36.56563
G1 X201.108 Y89.089 E36.59053
G1 X200.629 Y89.663 E36.6154
G1 X200.092 Y90.184 E36.64028
G1 X199.502 Y90.643 E36.66514
G1 X198.866 Y91.038 E36.69005
G1 X198.192 Y91.362 E36.71492
G1 X197.487 Y91.612 E36.7398
G1 X196.759 Y91.786 E36.76469
G1 X196.017 Y91.881 E36.78957
G1 X195.5 Y91.9 E36.80678
G1 X161 Y91.9 E37.95426
G1 X160.253 Y91.86 E37.97914
G1 X159.515 Y91.741 E38.004
G1 X158.793 Y91.543 E38.0289
G1 X158.097 Y91.27 E38.05377
G1 X157.995 Y91.216 E38.0576
G1 X157.692 Y91.362 E38.06879
G1 X156.987 Y91.612 E38.09367
G1 X156.259 Y91.786 E38.11857
G1 X155.517 Y91.881 E38.14345
G1 X155 Y91.9 E38.16065
G1 X120.5 Y91.9 E39.30813
G1 X119.753 Y91.86 E39.33301
G1 X119.015 Y91.741 E39.35787
G1 X118.293 Y91.543 E39.38277
G1 X117.597 Y91.27 E39.40764
G1 X117.495 Y91.216 E39.41148
G1 X117.192 Y91.362 E39.42266
G1 X116.487 Y91.612 E39.44754
G1 X115.759 Y91.786 E39.47244
G1 X115.017 Y91.881 E39.49732
G1 X114.5 Y91.9 E39.51453
G1 X80 Y91.9 E40.662
G1 X79.253 Y91.86 E40.68688
G1 X78.515 Y91.741 E40.71174
G1 X77.793 Y91.543 E40.73665
G1 X77.097 Y91.27 E40.76151
G1 X76.995 Y91.216 E40.76535
G1 X76.692 Y91.362 E40.77654
G1 X75.987 Y91.612 E40.80142
G1 X75.259 Y91.786 E40.82631
G1 X74.517 Y91.881 E40.85119
G1 X74 Y91.9 E40.8684
G1 X39.5 Y91.9 E42.01587
G1 X38.753 Y91.86 E42.04075
G1 X38.015 Y91.741 E42.06562
G1 X37.293 Y91.543 E42.09052
G1 X36.597 Y91.27 E42.11538
G1 X35.934 Y90.923 E42.14027
G1 X35.311 Y90.508 E42.16517
G1 X34.737 Y90.029 E42.19004
G1 X34.216 Y89.492 E42.21492
G1 X33.757 Y88.902 E42.23978
G1 X33.362 Y88.266 E42.26468
G1 X33.038 Y87.592 E42.28956
G1 X32.788 Y86.887 E42.31444
G1 X32.614 Y86.159 E42.33933
G1 X32.519 Y85.417 E42.36421
G1 X32.5 Y84.9 E42.38142
G1 X32.5 Y75.15 E42.70571
G1 X32.54 Y74.403 E42.73059
G1 X32.659 Y73.665 E42.75545
G1 X32.857 Y72.943 E42.78035
G1 X33.047 Y72.46 E42.79761
G1 X33.038 Y72.442 E42.79828
G1 X32.788 Y71.737 E42.82316
G1 X32.614 Y71.009 E42.84806
G1 X32.519 Y70.267 E42.87294
G1 X32.5 Y69.75 E42.89014
G1 X32.5 Y60 E43.21443
G1 X32.54 Y59.253 E43.23931
G1 X32.659 Y58.515 E43.26418
G1 X32.857 Y57.793 E43.28908
G1 X33.047 Y57.31 E43.30634
G1 X33.038 Y57.292 E43.30701
G1 X32.788 Y56.587 E43.33189
G1 X32.614 Y55.859 E43.35678
G1 X32.519 Y55.117 E43.38166
G1 X32.5 Y54.6 E43.39887
G1 X32.5 Y44.85 E43.72316
G1 X32.54 Y44.103 E43.74804
G1 X32.659 Y43.365 E43.7729
G1 X32.857 Y42.643 E43.7978
G1 X33.13 Y41.947 E43.82267
G1 X33.477 Y41.284 E43.84756
G1 X33.892 Y40.661 E43.87245
G1 X34.371 Y40.087 E43.89732
G1 X34.908 Y39.566 E43.9222
G0 F6000 X34.765 Y40.252
G1 F1200 X35.299 Y39.759 E43.94638
G1 X35.884 Y39.329 E43.97052
G1 X36.513 Y38.965 E43.9947
G1 X37.178 Y38.672 E44.01887
G1 X37.871 Y38.454 E44.04303
G1 X38.583 Y38.314 E44.06716
G1 X39.5 Y38.25 E44.09774
G1 X74 Y38.25 E45.24521
G1 X74.725 Y38.29 E45.26936
G1 X75.442 Y38.409 E45.29354
G1 X76.141 Y38.607 E45.3177
G1 X76.814 Y38.88 E45.34185
G1 X77.013 Y38.965 E45.34905
G1 X77.678 Y38.672 E45.37322
G1 X78.371 Y38.454 E45.39738
G1 X79.083 Y38.314 E45.42152
G1 X80 Y38.25 E45.45209
G1 X114.5 Y38.25 E46.59957
G1 X115.225 Y38.29 E46.62372
G1 X115.942 Y38.409 E46.64789
G1 X116.641 Y38.607 E46.67206
G1 X117.314 Y38.88 E46.69621
G1 X117.513 Y38.965 E46.70341
G1 X118.178 Y38.672 E46.72758
G1 X118.871 Y38.454 E46.75174
G1 X119.583 Y38.314 E46.77588
G1 X120.5 Y38.25 E46.80645
G1 X155 Y38.25 E47.95392
G1 X155.725 Y38.29 E47.97807
G1 X156.442 Y38.409 E48.00225
G1 X157.141 Y38.607 E48.02641
G1 X157.814 Y38.88 E48.05057
G1 X158.013 Y38.965 E48.05776
G1 X158.678 Y38.672 E48.08193
G1 X159.371 Y38.454 E48.1061
G1 X160.083 Y38.314 E48.13023
