;FLAVOR:Marlin
;TIME:26952
;Filament used: 23.3553m
;Layer height: 0.28
;MINX:20.582
;MINY:12
;MINZ:0.28
;MAXX:209.118
;MAXY:223
;MAXZ:3.36
;Generated with Cura_SteamEngine 4.10.0
M140 S50
M105
M190 S50
M104 S200
M105
M109 S200
M82 ;absolute extrusion mode
; Ender 3 Custom Start G-code
G92 E0 ; Reset Extruder
G28 ; Home all axes
G1 Z2.0 F3000 ; Move Z Axis up little to prevent scratching of Heat Bed
G1 X0.1 Y20 Z0.3 F5000.0 ; Move to start position
G1 X0.1 Y200.0 Z0.3 F1500.0 E15 ; Draw the first line
G1 X0.4 Y200.0 Z0.3 F5000.0 ; Move to side a little
G1 X0.4 Y20 Z0.3 F1500.0 E30 ; Draw the second line
G92 E0 ; Reset Extruder
G1 Z2.0 F3000 ; Move Z Axis up little to prevent scratching of Heat Bed
G1 X5 Y20 Z0.3 F5000.0 ; Move over to prevent blob squish
G92 E0
G92 E0
G1 F2700 E-5
;LAYER_COUNT:12
;LAYER:0
M107
G0 F6000 X22.578 Y16.703 Z0.28
;TYPE:SKIRT
G1 F2700 E0
G1 F1200 X23.148 Y15.958 E0.04368
G1 X23.78 Y15.264 E0.08739
G1 X24.468 Y14.627 E0.13105
G1 X25.208 Y14.051 E0.17471
G1 X25.994 Y13.539 E0.21839
G1 X26.821 Y13.097 E0.26205
G1 X27.683 Y12.727 E0.30573
G1 X28.573 Y12.431 E0.34941
G1 X29.485 Y12.213 E0.39307
G1 X30.412 Y12.072 E0.43673
G1 X31.283 Y12.013 E0.47738
G1 X31.604 Y12.004 E0.49234
G1 X31.912 Y12 E0.50668
G1 X71.879 Y12 E2.36771
G1 X73.255 Y12.005 E2.43178
G1 X73.942 Y12 E2.46377
G1 X113.884 Y12 E4.32364
G1 X115.292 Y12.005 E4.3892
G1 X115.963 Y12 E4.42045
G1 X155.884 Y12 E6.27934
G1 X157.292 Y12.005 E6.3449
G1 X157.963 Y12 E6.37615
G1 X197.569 Y12.001 E8.22037
G1 X198.267 Y12.011 E8.25287
G1 X199.203 Y12.065 E8.29653
G1 X200.131 Y12.197 E8.34017
G1 X201.045 Y12.409 E8.38386
G1 X201.937 Y12.698 E8.42753
G1 X202.802 Y13.061 E8.47121
G1 X203.632 Y13.497 E8.51486
G1 X204.423 Y14.002 E8.55856
G1 X205.167 Y14.573 E8.60223
G1 X205.86 Y15.205 E8.6459
G1 X206.497 Y15.893 E8.68956
G1 X207.072 Y16.634 E8.73324
G1 X207.583 Y17.42 E8.77689
G1 X208.025 Y18.248 E8.8206
G1 X208.394 Y19.11 E8.86426
G1 X208.689 Y20 E8.90792
G1 X208.907 Y20.912 E8.95158
G1 X209.047 Y21.84 E8.99528
G1 X209.105 Y22.701 E9.03546
G1 X209.114 Y23.021 E9.05037
G1 X209.118 Y23.33 E9.06476
G1 X209.117 Y211.4 E17.82209
G1 X209.108 Y212.127 E17.85594
G1 X209.057 Y213.064 E17.89964
G1 X208.925 Y213.992 E17.94328
G1 X208.716 Y214.906 E17.98694
G1 X208.429 Y215.799 E18.03062
G1 X208.067 Y216.665 E18.07432
G1 X207.633 Y217.496 E18.11798
G1 X207.129 Y218.287 E18.16165
G1 X206.56 Y219.032 E18.2053
G1 X205.929 Y219.727 E18.24901
G1 X205.242 Y220.365 E18.29267
G1 X204.503 Y220.942 E18.33633
G1 X203.717 Y221.454 E18.38001
G1 X202.891 Y221.897 E18.42365
G1 X202.029 Y222.269 E18.46737
G1 X201.14 Y222.565 E18.511
G1 X200.228 Y222.785 E18.55468
G1 X199.301 Y222.926 E18.59834
G1 X198.417 Y222.987 E18.6396
G1 X198.096 Y222.996 E18.65456
G1 X197.788 Y223 E18.6689
G1 X157.852 Y223 E20.52849
G1 X156.444 Y222.995 E20.59405
G1 X155.773 Y223 E20.62529
G1 X115.852 Y223 E22.48418
G1 X114.444 Y222.995 E22.54975
G1 X113.773 Y223 E22.58099
G1 X73.821 Y223 E24.44132
G1 X72.445 Y222.995 E24.5054
G1 X71.758 Y223 E24.53739
G1 X32.147 Y222.999 E26.38184
G1 X31.449 Y222.99 E26.41435
G1 X30.513 Y222.938 E26.458
G1 X29.584 Y222.806 E26.50169
G1 X28.67 Y222.596 E26.54536
G1 X27.777 Y222.309 E26.58904
G1 X26.912 Y221.946 E26.63272
G1 X26.081 Y221.512 E26.67637
G1 X25.29 Y221.008 E26.72004
G1 X24.545 Y220.438 E26.76372
G1 X23.851 Y219.807 E26.8074
G1 X23.214 Y219.12 E26.85102
G1 X22.637 Y218.38 E26.89472
G1 X22.125 Y217.594 E26.9384
G1 X21.682 Y216.767 E26.98208
G1 X21.311 Y215.906 E27.02574
G1 X21.015 Y215.016 E27.06941
G1 X20.796 Y214.104 E27.11309
G1 X20.655 Y213.177 E27.15675
G1 X20.595 Y212.288 E27.19824
G1 X20.586 Y211.955 E27.21375
G1 X20.582 Y211.658 E27.22758
G1 X20.583 Y23.525 E35.98784
G1 X20.592 Y22.86 E36.01881
G1 X20.645 Y21.924 E36.06246
G1 X20.777 Y20.995 E36.10616
G1 X20.988 Y20.081 E36.14983
G1 X21.276 Y19.189 E36.19348
G1 X21.639 Y18.324 E36.23716
G1 X22.074 Y17.493 E36.28084
G1 X22.578 Y16.703 E36.32447
G0 F6000 X22.974 Y16.835
G1 F1200 X23.543 Y16.111 E36.36735
G1 X24.171 Y15.439 E36.41018
G1 X24.856 Y14.823 E36.45307
G1 X25.592 Y14.27 E36.49594
G1 X26.373 Y13.782 E36.53882
G1 X27.193 Y13.364 E36.58168
G1 X28.047 Y13.019 E36.62457
G1 X28.927 Y12.749 E36.66743
G1 X29.827 Y12.557 E36.71028
G1 X30.741 Y12.443 E36.75317
G1 X31.294 Y12.413 E36.77896
G1 X31.615 Y12.404 E36.79391
G1 X31.912 Y12.4 E36.80774
G1 X71.878 Y12.4 E38.66873
G1 X73.257 Y12.405 E38.73294
G1 X73.945 Y12.4 E38.76498
G1 X113.883 Y12.4 E40.62466
G1 X115.294 Y12.405 E40.69036
G1 X115.966 Y12.4 E40.72165
G1 X155.883 Y12.4 E42.58035
G1 X157.294 Y12.405 E42.64606
G1 X157.966 Y12.4 E42.67735
G1 X197.563 Y12.401 E44.52115
G1 X198.261 Y12.411 E44.55366
G1 X199.18 Y12.464 E44.59652
G1 X200.091 Y12.597 E44.63939
G1 X200.987 Y12.808 E44.68225
G1 X201.861 Y13.096 E44.7251
G1 X202.708 Y13.459 E44.76801
G1 X203.519 Y13.894 E44.81086
G1 X204.289 Y14.398 E44.85372
G1 X205.013 Y14.967 E44.89659
G1 X205.685 Y15.597 E44.93949
G1 X206.3 Y16.282 E44.98235
G1 X206.853 Y17.018 E45.02522
G1 X207.34 Y17.799 E45.06808
G1 X207.757 Y18.62 E45.11095
G1 X208.102 Y19.474 E45.15384
G1 X208.371 Y20.354 E45.19669
G1 X208.563 Y21.255 E45.23959
G1 X208.676 Y22.168 E45.28242
G1 X208.705 Y22.712 E45.30779
G1 X208.714 Y23.032 E45.3227
G1 X208.718 Y23.33 E45.33658
G1 X208.717 Y211.395 E54.09367
G1 X208.708 Y212.122 E54.12752
G1 X208.657 Y213.041 E54.17038
G1 X208.526 Y213.953 E54.21328
G1 X208.316 Y214.849 E54.25614
G1 X208.03 Y215.724 E54.299
G1 X207.669 Y216.571 E54.34187
G1 X207.235 Y217.383 E54.38475
G1 X206.733 Y218.155 E54.42763
G1 X206.165 Y218.88 E54.47051
G1 X205.537 Y219.553 E54.51337
G1 X204.853 Y220.169 E54.55624
G1 X204.118 Y220.723 E54.59909
G1 X203.338 Y221.212 E54.64196
G1 X202.518 Y221.631 E54.68484
G1 X201.665 Y221.977 E54.7277
G1 X200.785 Y222.248 E54.77058
G1 X199.885 Y222.441 E54.81344
G1 X198.971 Y222.556 E54.85633
G1 X198.406 Y222.587 E54.88268
G1 X198.085 Y222.596 E54.89763
G1 X197.788 Y222.6 E54.91147
G1 X157.853 Y222.6 E56.77101
G1 X156.442 Y222.595 E56.83671
G1 X155.77 Y222.6 E56.868
G1 X115.853 Y222.6 E58.7267
G1 X114.442 Y222.595 E58.79241
G1 X113.77 Y222.6 E58.8237
G1 X73.822 Y222.6 E60.68384
G1 X72.443 Y222.595 E60.74806
G1 X71.755 Y222.6 E60.78009
G1 X32.152 Y222.599 E62.62418
G1 X31.454 Y222.59 E62.65668
G1 X30.535 Y222.538 E62.69954
G1 X29.624 Y222.407 E62.7424
G1 X28.728 Y222.197 E62.78525
G1 X27.853 Y221.91 E62.82813
G1 X27.006 Y221.548 E62.87102
G1 X26.194 Y221.114 E62.91389
G1 X25.423 Y220.612 E62.95673
G1 X24.698 Y220.044 E62.99962
G1 X24.025 Y219.415 E63.04251
G1 X23.41 Y218.731 E63.08534
G1 X22.856 Y217.996 E63.1282
G1 X22.368 Y217.215 E63.17108
G1 X21.949 Y216.395 E63.21396
G1 X21.603 Y215.542 E63.25682
G1 X21.333 Y214.662 E63.29969
G1 X21.14 Y213.761 E63.34259
G1 X21.026 Y212.848 E63.38543
G1 X20.995 Y212.277 E63.41206
G1 X20.986 Y211.944 E63.42757
G1 X20.982 Y211.658 E63.44089
G1 X20.983 Y23.531 E72.20087
G1 X20.992 Y22.866 E72.23184
G1 X21.044 Y21.946 E72.27475
G1 X21.176 Y21.035 E72.31761
G1 X21.387 Y20.139 E72.36047
G1 X21.674 Y19.264 E72.40335
G1 X22.037 Y18.418 E72.44622
G1 X22.471 Y17.606 E72.48909
G1 X22.974 Y16.835 E72.53196
G0 F6000 X23.37 Y16.971
G1 F1200 X23.937 Y16.267 E72.57405
G1 X24.563 Y15.617 E72.61607
G1 X25.244 Y15.024 E72.65812
G1 X25.976 Y14.494 E72.7002
G1 X26.751 Y14.031 E72.74224
G1 X27.564 Y13.638 E72.78428
G1 X28.409 Y13.318 E72.82636
G1 X29.278 Y13.075 E72.86837
G1 X30.166 Y12.909 E72.91044
G1 X31.305 Y12.813 E72.96366
G1 X31.626 Y12.804 E72.97862
G1 X31.912 Y12.8 E72.99193
G1 X71.876 Y12.8 E74.85283
G1 X73.258 Y12.805 E74.91718
G1 X73.948 Y12.8 E74.94931
G1 X113.881 Y12.8 E76.80876
G1 X115.295 Y12.805 E76.8746
G1 X115.969 Y12.8 E76.90598
G1 X155.881 Y12.8 E78.76445
G1 X157.295 Y12.805 E78.8303
G1 X157.969 Y12.8 E78.86168
G1 X197.557 Y12.801 E80.70506
G1 X198.255 Y12.811 E80.73757
G1 X199.157 Y12.864 E80.77964
G1 X200.05 Y12.996 E80.82168
G1 X200.928 Y13.207 E80.86372
G1 X201.784 Y13.495 E80.90578
G1 X202.611 Y13.857 E80.94781
G1 X203.403 Y14.292 E80.98989
G1 X204.154 Y14.794 E81.03195
G1 X204.857 Y15.361 E81.07401
G1 X205.507 Y15.988 E81.11606
G1 X206.099 Y16.67 E81.15811
G1 X206.629 Y17.401 E81.20016
G1 X207.091 Y18.177 E81.24221
G1 X207.484 Y18.99 E81.28426
G1 X207.802 Y19.835 E81.3263
G1 X208.045 Y20.705 E81.36836
G1 X208.21 Y21.593 E81.41042
G1 X208.305 Y22.723 E81.46322
G1 X208.314 Y23.043 E81.47812
G1 X208.318 Y23.33 E81.49149
G1 X208.317 Y211.39 E90.24835
G1 X208.308 Y212.117 E90.28221
G1 X208.257 Y213.019 E90.32427
G1 X208.126 Y213.913 E90.36635
G1 X207.917 Y214.791 E90.40837
G1 X207.631 Y215.648 E90.45044
G1 X207.27 Y216.476 E90.4925
G1 X206.838 Y217.268 E90.53451
G1 X206.337 Y218.02 E90.57659
G1 X205.771 Y218.724 E90.61865
G1 X205.146 Y219.375 E90.66067
G1 X204.465 Y219.969 E90.70275
G1 X203.734 Y220.5 E90.74482
G1 X202.96 Y220.964 E90.78684
G1 X202.147 Y221.358 E90.82891
G1 X201.303 Y221.678 E90.87094
G1 X200.433 Y221.923 E90.91302
G1 X199.546 Y222.089 E90.95504
G1 X198.395 Y222.187 E91.00883
G1 X198.074 Y222.196 E91.02379
G1 X197.788 Y222.2 E91.0371
G1 X157.855 Y222.2 E92.89655
G1 X156.441 Y222.195 E92.96239
G1 X155.767 Y222.2 E92.99378
G1 X115.855 Y222.2 E94.85225
G1 X114.441 Y222.195 E94.91809
G1 X113.767 Y222.2 E94.94948
G1 X73.824 Y222.2 E96.80939
G1 X72.442 Y222.195 E96.87374
G1 X71.752 Y222.2 E96.90587
G1 X32.157 Y222.199 E98.74958
G1 X31.459 Y222.19 E98.78209
G1 X30.558 Y222.139 E98.82411
G1 X29.664 Y222.007 E98.86619
G1 X28.786 Y221.798 E98.90821
G1 X27.929 Y221.511 E98.9503
G1 X27.102 Y221.15 E98.99231
G1 X26.309 Y220.717 E99.03439
G1 X25.558 Y220.216 E99.07642
G1 X24.854 Y219.65 E99.11848
G1 X24.203 Y219.024 E99.16054
G1 X23.61 Y218.343 E99.20259
G1 X23.08 Y217.612 E99.24463
G1 X22.616 Y216.837 E99.28669
G1 X22.222 Y216.024 E99.32876
G1 X21.902 Y215.18 E99.37079
G1 X21.658 Y214.31 E99.41286
G1 X21.492 Y213.422 E99.45493
G1 X21.395 Y212.267 E99.5089
G1 X21.386 Y211.934 E99.52441
G1 X21.382 Y211.658 E99.53726
G1 X21.383 Y23.536 E108.29701
G1 X21.392 Y22.871 E108.32798
G1 X21.444 Y21.969 E108.37005
G1 X21.576 Y21.076 E108.41208
G1 X21.786 Y20.198 E108.45412
G1 X22.073 Y19.341 E108.4962
G1 X22.435 Y18.514 E108.53824
G1 X22.868 Y17.722 E108.58027
G1 X23.37 Y16.971 E108.62233
G1 F2700 E103.62233
;MESH:CE3_GibbonRackx12.stl(3)
G0 F6000 X30.917 Y23.81
G0 X32.392 Y23.81
G0 X71.3 Y23.782
G0 X71.482 Y211.4
;TYPE:WALL-INNER
G1 F2700 E108.62233
G1 F1200 X32.182 Y211.4 E110.45231
G1 X32.182 Y23.6 E119.19706
G1 X71.482 Y23.6 E121.02703
G1 X71.482 Y211.4 E129.77179
G0 F6000 X71.882 Y211.8
;TYPE:WALL-OUTER
G1 F1200 X31.782 Y211.8 E131.63901
G1 X31.782 Y23.2 E140.42102
G1 X71.882 Y23.2 E142.28824
G1 X71.882 Y211.8 E151.07025
G0 F6000 X71.612 Y211.53
G0 X71.372 Y211.01
G0 X71.092 Y211.01
;TYPE:SKIN
G1 F1200 X32.572 Y211.01 E152.8639
G1 X32.572 Y23.99 E161.57234
G1 X71.092 Y23.99 E163.36599
G1 X71.092 Y211.01 E172.07442
G1 F2700 E167.07442
G0 F6000 X71.372 Y211.01
G0 X33.223 Y211.29
G0 X33.223 Y210.848
G1 F2700 E172.07442
G1 F1200 X32.731 Y210.356 E172.10682
G0 F6000 X32.731 Y209.79
G1 F1200 X33.789 Y210.848 E172.17649
G0 F6000 X34.354 Y210.848
G1 F1200 X32.731 Y209.225 E172.28337
G0 F6000 X32.731 Y208.659
G1 F1200 X34.92 Y210.848 E172.42752
G0 F6000 X35.486 Y210.848
G1 F1200 X32.731 Y208.093 E172.60894
G0 F6000 X32.731 Y207.528
G1 F1200 X36.051 Y210.848 E172.82757
G0 F6000 X36.617 Y210.848
G1 F1200 X32.731 Y206.962 E173.08347
G0 F6000 X32.731 Y206.396
G1 F1200 X37.183 Y210.848 E173.37664
G0 F6000 X37.748 Y210.848
G1 F1200 X32.731 Y205.831 E173.70702
G0 F6000 X32.731 Y205.265
G1 F1200 X38.314 Y210.848 E174.07467
G0 F6000 X38.88 Y210.848
G1 F1200 X32.731 Y204.699 E174.47959
G0 F6000 X32.731 Y204.133
G1 F1200 X39.445 Y210.848 E174.92175
G0 F6000 X40.011 Y210.848
G1 F1200 X32.731 Y203.568 E175.40115
G0 F6000 X32.731 Y203.002
G1 F1200 X40.577 Y210.848 E175.91783
G0 F6000 X41.143 Y210.848
G1 F1200 X32.731 Y202.436 E176.47177
G0 F6000 X32.731 Y201.871
G1 F1200 X41.708 Y210.848 E177.06292
G0 F6000 X42.274 Y210.848
G1 F1200 X32.731 Y201.305 E177.69134
G0 F6000 X32.731 Y200.739
G1 F1200 X42.84 Y210.848 E178.35704
G0 F6000 X43.405 Y210.848
G1 F1200 X32.731 Y200.174 E179.05994
G0 F6000 X32.731 Y199.608
G1 F1200 X43.971 Y210.848 E179.80011
G0 F6000 X44.537 Y210.848
G1 F1200 X32.731 Y199.042 E180.57756
G0 F6000 X32.731 Y198.477
G1 F1200 X45.102 Y210.848 E181.39221
G0 F6000 X45.668 Y210.848
G1 F1200 X32.731 Y197.911 E182.24413
G0 F6000 X32.731 Y197.345
G1 F1200 X46.234 Y210.848 E183.13333
G0 F6000 X46.799 Y210.848
G1 F1200 X32.731 Y196.78 E184.05973
G0 F6000 X32.731 Y196.214
G1 F1200 X47.365 Y210.848 E185.0234
G0 F6000 X47.931 Y210.848
G1 F1200 X32.731 Y195.648 E186.02435
G0 F6000 X32.731 Y195.082
G1 F1200 X48.496 Y210.848 E187.06254
G0 F6000 X49.062 Y210.848
G1 F1200 X32.731 Y194.517 E188.13796
G0 F6000 X32.731 Y193.951
G1 F1200 X49.628 Y210.848 E189.25066
G0 F6000 X50.193 Y210.848
G1 F1200 X32.731 Y193.385 E190.40059
G0 F6000 X32.731 Y192.82
G1 F1200 X50.759 Y210.848 E191.58777
G0 F6000 X51.325 Y210.848
G1 F1200 X32.731 Y192.254 E192.81221
G0 F6000 X32.731 Y191.688
G1 F1200 X51.891 Y210.848 E194.07393
G0 F6000 X52.456 Y210.848
G1 F1200 X32.731 Y191.123 E195.37286
G0 F6000 X32.731 Y190.557
G1 F1200 X53.022 Y210.848 E196.70905
G0 F6000 X53.588 Y210.848
G1 F1200 X32.731 Y189.991 E198.08252
G0 F6000 X32.731 Y189.426
G1 F1200 X54.153 Y210.848 E199.4932
G0 F6000 X54.719 Y210.848
G1 F1200 X32.731 Y188.86 E200.94115
G0 F6000 X32.731 Y188.294
G1 F1200 X55.285 Y210.848 E202.42636
G0 F6000 X55.85 Y210.848
G1 F1200 X32.731 Y187.729 E203.94879
G0 F6000 X32.731 Y187.163
G1 F1200 X56.416 Y210.848 E205.50849
G0 F6000 X56.982 Y210.848
G1 F1200 X32.731 Y186.597 E207.10546
G0 F6000 X32.731 Y186.032
G1 F1200 X57.547 Y210.848 E208.73963
G0 F6000 X58.113 Y210.848
G1 F1200 X32.731 Y185.466 E210.41108
G0 F6000 X32.731 Y184.9
G1 F1200 X58.679 Y210.848 E212.1198
G0 F6000 X59.244 Y210.848
G1 F1200 X32.731 Y184.334 E213.86576
G0 F6000 X32.731 Y183.769
G1 F1200 X59.81 Y210.848 E215.64896
G0 F6000 X60.376 Y210.848
G1 F1200 X32.731 Y183.203 E217.46943
G0 F6000 X32.731 Y182.637
G1 F1200 X60.941 Y210.848 E219.32714
G0 F6000 X61.507 Y210.848
G1 F1200 X32.731 Y182.072 E221.22209
G0 F6000 X32.731 Y181.506
G1 F1200 X62.073 Y210.848 E223.15431
G0 F6000 X62.639 Y210.848
G1 F1200 X32.731 Y180.94 E225.1238
G0 F6000 X32.731 Y180.375
G1 F1200 X63.204 Y210.848 E227.1305
G0 F6000 X63.77 Y210.848
G1 F1200 X32.731 Y179.809 E229.17447
G0 F6000 X32.731 Y179.243
G1 F1200 X64.336 Y210.848 E231.25572
G0 F6000 X64.901 Y210.848
G1 F1200 X32.731 Y178.678 E233.37417
G0 F6000 X32.731 Y178.112
G1 F1200 X65.467 Y210.848 E235.52989
G0 F6000 X66.033 Y210.848
G1 F1200 X32.731 Y177.546 E237.72288
G0 F6000 X32.731 Y176.981
G1 F1200 X66.598 Y210.848 E239.95308
G0 F6000 X67.164 Y210.848
G1 F1200 X32.731 Y176.415 E242.22055
G0 F6000 X32.731 Y175.849
G1 F1200 X67.73 Y210.848 E244.5253
G0 F6000 X68.295 Y210.848
G1 F1200 X32.731 Y175.283 E246.86728
G0 F6000 X32.731 Y174.718
G1 F1200 X68.861 Y210.848 E249.2465
G0 F6000 X69.427 Y210.848
G1 F1200 X32.731 Y174.152 E251.663
G0 F6000 X32.731 Y173.586
G1 F1200 X69.992 Y210.848 E254.11673
G0 F6000 X70.558 Y210.848
G1 F1200 X32.731 Y173.021 E256.6077
G0 F6000 X32.731 Y172.455
G1 F1200 X70.932 Y210.656 E259.1233
G0 F6000 X70.932 Y210.09
G1 F1200 X32.731 Y171.889 E261.6389
G0 F6000 X32.731 Y171.324
G1 F1200 X70.932 Y209.524 E264.15447
G0 F6000 X70.932 Y208.959
G1 F1200 X32.731 Y170.758 E266.67007
G0 F6000 X32.731 Y170.192
G1 F1200 X70.932 Y208.393 E269.18567
G0 F6000 X70.932 Y207.827
G1 F1200 X32.731 Y169.627 E271.70124
G0 F6000 X32.731 Y169.061
G1 F1200 X70.932 Y207.262 E274.21684
G0 F6000 X70.932 Y206.696
G1 F1200 X32.731 Y168.495 E276.73244
G0 F6000 X32.731 Y167.93
G1 F1200 X70.932 Y206.13 E279.24801
G0 F6000 X70.932 Y205.565
G1 F1200 X32.731 Y167.364 E281.76361
G0 F6000 X32.731 Y166.798
G1 F1200 X70.932 Y204.999 E284.27921
G0 F6000 X70.932 Y204.433
G1 F1200 X32.731 Y166.233 E286.79478
G0 F6000 X32.731 Y165.667
G1 F1200 X70.932 Y203.868 E289.31038
G0 F6000 X70.932 Y203.302
G1 F1200 X32.731 Y165.101 E291.82598
G0 F6000 X32.731 Y164.535
G1 F1200 X70.932 Y202.736 E294.34159
