;FLAVOR:Marlin
;TIME:24151
;Filament used: 23.9487m
;Layer height: 0.28
;MINX:28.122
;MINY:15.2
;MINZ:0.28
;MAXX:209.91
;MAXY:219.8
;MAXZ:3.36
;Generated with Cura_SteamEngine 4.10.0
M140 S50
M105
M190 S50
M104 S200
M105
M109 S200
M82 ;absolute extrusion mode
; Ender 3 Custom Start G-code
G92 E0 ; Reset Extruder
G28 ; Home all axes
G1 Z2.0 F3000 ; Move Z Axis up little to prevent scratching of Heat Bed
G1 X0.1 Y20 Z0.3 F5000.0 ; Move to start position
G1 X0.1 Y200.0 Z0.3 F1500.0 E15 ; Draw the first line
G1 X0.4 Y200.0 Z0.3 F5000.0 ; Move to side a little
G1 X0.4 Y20 Z0.3 F1500.0 E30 ; Draw the second line
G92 E0 ; Reset Extruder
G1 Z2.0 F3000 ; Move Z Axis up little to prevent scratching of Heat Bed
G1 X5 Y20 Z0.3 F5000.0 ; Move over to prevent blob squish
G92 E0
G92 E0
G1 F2700 E-5
;LAYER_COUNT:12
;LAYER:0
M107
G0 F6000 X29.519 Y18.663 Z0.28
;TYPE:SKIRT
G1 F2700 E0
G1 F1200 X30.002 Y18.039 E0.03674
G1 X30.407 Y17.602 E0.06449
G1 X30.524 Y17.485 E0.07219
G1 X31.11 Y16.955 E0.10898
G1 X31.746 Y16.488 E0.14572
G1 X32.426 Y16.087 E0.18248
G1 X33.144 Y15.757 E0.21928
G1 X33.891 Y15.502 E0.25603
G1 X34.66 Y15.323 E0.2928
G1 X35.444 Y15.223 E0.3296
G1 X36.039 Y15.2 E0.35733
G1 X116.805 Y15.2 E4.11813
G1 X117.594 Y15.24 E4.15492
G1 X118.374 Y15.359 E4.19166
G1 X119.013 Y15.524 E4.22239
G1 X119.079 Y15.502 E4.22563
G1 X119.848 Y15.323 E4.26239
G1 X120.632 Y15.223 E4.29919
G1 X121.227 Y15.2 E4.32692
G1 X201.993 Y15.2 E8.08772
G1 X202.782 Y15.24 E8.12451
G1 X203.562 Y15.359 E8.16125
G1 X204.327 Y15.557 E8.19805
G1 X205.067 Y15.831 E8.23479
G1 X205.776 Y16.179 E8.27157
G1 X206.447 Y16.597 E8.30838
G1 X207.071 Y17.08 E8.34512
G1 X207.508 Y17.485 E8.37286
G1 X207.625 Y17.602 E8.38057
G1 X208.155 Y18.188 E8.41736
G1 X208.622 Y18.824 E8.4541
G1 X209.023 Y19.504 E8.49086
G1 X209.353 Y20.222 E8.52766
G1 X209.608 Y20.969 E8.56441
G1 X209.787 Y21.738 E8.60117
G1 X209.887 Y22.522 E8.63798
G1 X209.91 Y23.117 E8.6657
G1 X209.91 Y211.883 E17.45544
G1 X209.87 Y212.672 E17.49223
G1 X209.751 Y213.452 E17.52897
G1 X209.553 Y214.217 E17.56576
G1 X209.279 Y214.957 E17.6025
G1 X208.931 Y215.666 E17.63928
G1 X208.513 Y216.337 E17.67609
G1 X208.03 Y216.961 E17.71284
G1 X207.625 Y217.398 E17.74058
G1 X207.508 Y217.515 E17.74828
G1 X206.922 Y218.045 E17.78508
G1 X206.286 Y218.512 E17.82182
G1 X205.606 Y218.913 E17.85858
G1 X204.888 Y219.243 E17.89537
G1 X204.141 Y219.498 E17.93213
G1 X203.372 Y219.677 E17.96889
G1 X202.588 Y219.777 E18.00569
G1 X201.993 Y219.8 E18.03342
G1 X121.227 Y219.8 E21.79422
G1 X120.438 Y219.76 E21.83101
G1 X119.658 Y219.641 E21.86775
G1 X119.019 Y219.476 E21.89848
G1 X118.953 Y219.498 E21.90172
G1 X118.184 Y219.677 E21.93848
G1 X117.4 Y219.777 E21.97529
G1 X116.805 Y219.8 E22.00301
G1 X36.039 Y219.8 E25.76382
G1 X35.25 Y219.76 E25.8006
G1 X34.47 Y219.641 E25.83734
G1 X33.705 Y219.443 E25.87414
G1 X32.965 Y219.169 E25.91088
G1 X32.256 Y218.821 E25.94766
G1 X31.585 Y218.403 E25.98447
G1 X30.961 Y217.92 E26.02121
G1 X30.524 Y217.515 E26.04896
G1 X30.407 Y217.398 E26.05666
G1 X29.877 Y216.812 E26.09345
G1 X29.41 Y216.176 E26.13019
G1 X29.009 Y215.496 E26.16695
G1 X28.679 Y214.778 E26.20375
G1 X28.424 Y214.031 E26.2405
G1 X28.245 Y213.262 E26.27727
G1 X28.145 Y212.478 E26.31407
G1 X28.122 Y211.883 E26.3418
G1 X28.122 Y23.117 E35.13153
G1 X28.162 Y22.328 E35.16832
G1 X28.281 Y21.548 E35.20506
G1 X28.479 Y20.783 E35.24185
G1 X28.753 Y20.043 E35.2786
G1 X29.101 Y19.334 E35.31537
G1 X29.519 Y18.663 E35.35218
G0 F6000 X29.916 Y18.794
G1 F1200 X30.397 Y18.194 E35.38799
G1 X30.689 Y17.884 E35.40782
G1 X30.806 Y17.767 E35.41553
G1 X31.378 Y17.253 E35.45134
G1 X32 Y16.8 E35.48717
G1 X32.665 Y16.414 E35.52297
G1 X33.367 Y16.099 E35.5588
G1 X34.098 Y15.859 E35.59462
G1 X34.849 Y15.696 E35.63041
G1 X35.614 Y15.612 E35.66624
G1 X36.039 Y15.6 E35.68604
G1 X116.805 Y15.6 E39.44684
G1 X117.573 Y15.64 E39.48265
G1 X118.333 Y15.759 E39.51847
G1 X119.027 Y15.944 E39.55192
G1 X119.286 Y15.859 E39.56461
G1 X120.037 Y15.696 E39.60039
G1 X120.802 Y15.612 E39.63623
G1 X121.227 Y15.6 E39.65603
G1 X201.993 Y15.6 E43.41683
G1 X202.761 Y15.64 E43.45264
G1 X203.521 Y15.759 E43.48846
G1 X204.264 Y15.957 E43.52427
G1 X204.983 Y16.231 E43.56009
G1 X205.669 Y16.578 E43.59589
G1 X206.316 Y16.994 E43.63171
G1 X206.916 Y17.475 E43.66752
G1 X207.226 Y17.767 E43.68735
G1 X207.343 Y17.884 E43.69505
G1 X207.857 Y18.456 E43.73086
G1 X208.31 Y19.078 E43.76669
G1 X208.696 Y19.743 E43.80249
G1 X209.011 Y20.445 E43.83832
G1 X209.251 Y21.176 E43.87415
G1 X209.414 Y21.927 E43.90993
G1 X209.498 Y22.692 E43.94577
G1 X209.51 Y23.117 E43.96556
G1 X209.51 Y211.883 E52.7553
G1 X209.47 Y212.651 E52.79111
G1 X209.351 Y213.411 E52.82693
G1 X209.153 Y214.154 E52.86273
G1 X208.879 Y214.873 E52.89856
G1 X208.532 Y215.559 E52.93436
G1 X208.116 Y216.206 E52.97018
G1 X207.635 Y216.806 E53.00598
G1 X207.343 Y217.116 E53.02581
G1 X207.226 Y217.233 E53.03352
G1 X206.654 Y217.747 E53.06933
G1 X206.032 Y218.2 E53.10516
G1 X205.367 Y218.586 E53.14096
G1 X204.665 Y218.901 E53.17679
G1 X203.934 Y219.141 E53.21262
G1 X203.183 Y219.304 E53.2484
G1 X202.418 Y219.388 E53.28424
G1 X201.993 Y219.4 E53.30403
G1 X121.227 Y219.4 E57.06484
G1 X120.459 Y219.36 E57.10065
G1 X119.699 Y219.241 E57.13647
G1 X119.005 Y219.056 E57.16991
G1 X118.746 Y219.141 E57.1826
G1 X117.995 Y219.304 E57.21839
G1 X117.23 Y219.388 E57.25422
G1 X116.805 Y219.4 E57.27402
G1 X36.039 Y219.4 E61.03482
G1 X35.271 Y219.36 E61.07063
G1 X34.511 Y219.241 E61.10645
G1 X33.768 Y219.043 E61.14226
G1 X33.049 Y218.769 E61.17809
G1 X32.363 Y218.422 E61.21388
G1 X31.716 Y218.006 E61.2497
G1 X31.116 Y217.525 E61.28551
G1 X30.806 Y217.233 E61.30534
G1 X30.689 Y217.116 E61.31304
G1 X30.175 Y216.544 E61.34885
G1 X29.722 Y215.922 E61.38468
G1 X29.336 Y215.257 E61.42049
G1 X29.021 Y214.555 E61.45631
G1 X28.781 Y213.824 E61.49214
G1 X28.618 Y213.073 E61.52792
G1 X28.534 Y212.308 E61.56376
G1 X28.522 Y211.883 E61.58356
G1 X28.522 Y23.117 E70.37329
G1 X28.562 Y22.349 E70.4091
G1 X28.681 Y21.589 E70.44492
G1 X28.879 Y20.846 E70.48073
G1 X29.153 Y20.127 E70.51656
G1 X29.5 Y19.441 E70.55235
G1 X29.916 Y18.794 E70.58817
G0 F6000 X30.314 Y18.928
G1 F1200 X30.972 Y18.167 E70.63501
G1 X31.089 Y18.05 E70.64272
G1 X31.646 Y17.55 E70.67757
G1 X32.252 Y17.113 E70.71236
G1 X32.902 Y16.742 E70.74721
G1 X33.588 Y16.443 E70.78206
G1 X34.302 Y16.219 E70.8169
G1 X35.035 Y16.072 E70.85171
G1 X36.039 Y16 E70.89858
G1 X116.805 Y16 E74.65939
G1 X117.552 Y16.04 E74.69422
G1 X118.29 Y16.159 E74.72903
G1 X119.012 Y16.357 E74.76389
G1 X119.029 Y16.364 E74.76474
G1 X119.49 Y16.219 E74.78725
G1 X120.223 Y16.072 E74.82206
G1 X121.227 Y16 E74.86893
G1 X201.993 Y16 E78.62973
G1 X202.74 Y16.04 E78.66457
G1 X203.478 Y16.159 E78.69937
G1 X204.2 Y16.357 E78.73423
G1 X204.896 Y16.63 E78.76905
G1 X205.559 Y16.977 E78.80389
G1 X206.182 Y17.392 E78.83875
G1 X206.943 Y18.05 E78.88559
G1 X207.06 Y18.167 E78.8933
G1 X207.56 Y18.724 E78.92815
G1 X207.997 Y19.33 E78.96294
G1 X208.368 Y19.98 E78.99779
G1 X208.667 Y20.666 E79.03264
G1 X208.891 Y21.38 E79.06748
G1 X209.038 Y22.113 E79.10229
G1 X209.11 Y23.117 E79.14916
G1 X209.11 Y211.883 E87.9389
G1 X209.07 Y212.63 E87.97373
G1 X208.951 Y213.368 E88.00854
G1 X208.753 Y214.09 E88.0434
G1 X208.48 Y214.786 E88.07821
G1 X208.133 Y215.449 E88.11306
G1 X207.718 Y216.072 E88.14791
G1 X207.06 Y216.833 E88.19476
G1 X206.943 Y216.95 E88.20246
G1 X206.386 Y217.45 E88.23732
G1 X205.78 Y217.887 E88.27211
G1 X205.13 Y218.258 E88.30696
G1 X204.444 Y218.557 E88.3418
G1 X203.73 Y218.781 E88.37665
G1 X202.997 Y218.928 E88.41146
G1 X201.993 Y219 E88.45833
G1 X121.227 Y219 E92.21913
G1 X120.48 Y218.96 E92.25396
G1 X119.742 Y218.841 E92.28877
G1 X119.02 Y218.643 E92.32363
G1 X119.003 Y218.636 E92.32449
G1 X118.542 Y218.781 E92.34699
G1 X117.809 Y218.928 E92.3818
G1 X116.805 Y219 E92.42867
G1 X36.039 Y219 E96.18948
G1 X35.292 Y218.96 E96.22431
G1 X34.554 Y218.841 E96.25912
G1 X33.832 Y218.643 E96.29398
G1 X33.136 Y218.37 E96.32879
G1 X32.473 Y218.023 E96.36364
G1 X31.85 Y217.608 E96.39849
G1 X31.089 Y216.95 E96.44534
G1 X30.972 Y216.833 E96.45304
G1 X30.472 Y216.276 E96.48789
G1 X30.035 Y215.67 E96.52268
G1 X29.664 Y215.02 E96.55753
G1 X29.365 Y214.334 E96.59238
G1 X29.141 Y213.62 E96.62722
G1 X28.994 Y212.887 E96.66204
G1 X28.922 Y211.883 E96.70891
G1 X28.922 Y23.117 E105.49864
G1 X28.962 Y22.37 E105.53347
G1 X29.081 Y21.632 E105.56828
G1 X29.279 Y20.91 E105.60314
G1 X29.552 Y20.214 E105.63796
G1 X29.899 Y19.551 E105.6728
G1 X30.314 Y18.928 E105.70766
G0 F6000 X30.711 Y19.067
G1 F1200 X31.255 Y18.45 E105.74596
G1 X31.372 Y18.333 E105.75366
G1 X31.913 Y17.849 E105.78747
G1 X32.504 Y17.426 E105.82131
G1 X33.138 Y17.072 E105.85512
G1 X33.807 Y16.789 E105.88894
G1 X34.503 Y16.581 E105.92277
G1 X35.218 Y16.451 E105.95661
G1 X36.039 Y16.4 E105.99491
G1 X116.805 Y16.4 E109.75571
G1 X117.53 Y16.44 E109.78952
G1 X118.247 Y16.559 E109.82337
G1 X118.946 Y16.757 E109.8572
G1 X119.012 Y16.784 E109.86052
G1 X119.691 Y16.581 E109.89352
G1 X120.406 Y16.451 E109.92736
G1 X121.227 Y16.4 E109.96566
G1 X201.993 Y16.4 E113.72646
G1 X202.718 Y16.44 E113.76027
G1 X203.435 Y16.559 E113.79412
G1 X204.134 Y16.757 E113.82794
G1 X204.807 Y17.03 E113.86176
G1 X205.446 Y17.375 E113.89558
G1 X206.043 Y17.789 E113.92941
G1 X206.66 Y18.333 E113.96771
G1 X206.777 Y18.45 E113.97541
G1 X207.261 Y18.991 E114.00921
G1 X207.684 Y19.582 E114.04306
G1 X208.038 Y20.216 E114.07687
G1 X208.321 Y20.885 E114.11069
G1 X208.529 Y21.581 E114.14452
G1 X208.659 Y22.296 E114.17836
G1 X208.71 Y23.117 E114.21666
G1 X208.71 Y211.883 E123.00639
G1 X208.67 Y212.608 E123.0402
G1 X208.551 Y213.325 E123.07405
G1 X208.353 Y214.024 E123.10788
G1 X208.08 Y214.697 E123.14169
G1 X207.735 Y215.336 E123.17551
G1 X207.321 Y215.933 E123.20934
G1 X206.777 Y216.55 E123.24764
G1 X206.66 Y216.667 E123.25535
G1 X206.119 Y217.151 E123.28915
G1 X205.528 Y217.574 E123.32299
G1 X204.894 Y217.928 E123.3568
G1 X204.225 Y218.211 E123.39062
G1 X203.529 Y218.419 E123.42445
G1 X202.814 Y218.549 E123.45829
G1 X201.993 Y218.6 E123.49659
G1 X121.227 Y218.6 E127.25739
G1 X120.502 Y218.56 E127.29121
G1 X119.785 Y218.441 E127.32505
G1 X119.086 Y218.243 E127.35888
G1 X119.02 Y218.216 E127.3622
G1 X118.341 Y218.419 E127.3952
G1 X117.626 Y218.549 E127.42904
G1 X116.805 Y218.6 E127.46734
G1 X36.039 Y218.6 E131.22814
G1 X35.314 Y218.56 E131.26195
G1 X34.597 Y218.441 E131.2958
G1 X33.898 Y218.243 E131.32963
G1 X33.225 Y217.97 E131.36344
G1 X32.586 Y217.625 E131.39726
G1 X31.989 Y217.211 E131.43109
G1 X31.372 Y216.667 E131.46939
G1 X31.255 Y216.55 E131.47709
G1 X30.771 Y216.009 E131.51089
G1 X30.348 Y215.418 E131.54474
G1 X29.994 Y214.784 E131.57855
G1 X29.711 Y214.115 E131.61237
G1 X29.503 Y213.419 E131.6462
G1 X29.373 Y212.704 E131.68004
G1 X29.322 Y211.883 E131.71834
G1 X29.322 Y23.117 E140.50808
G1 X29.362 Y22.392 E140.54189
G1 X29.481 Y21.675 E140.57573
G1 X29.679 Y20.976 E140.60956
G1 X29.952 Y20.303 E140.64338
G1 X30.297 Y19.664 E140.67719
G1 X30.711 Y19.067 E140.71102
G0 F6000 X30.696 Y19.782
G1 F1200 X31.107 Y19.211 E140.74378
G1 X31.538 Y18.733 E140.77375
G1 X31.655 Y18.616 E140.78145
G1 X32.18 Y18.147 E140.81423
G1 X32.755 Y17.741 E140.84701
G1 X33.373 Y17.403 E140.87981
G1 X34.024 Y17.136 E140.91257
G1 X34.702 Y16.946 E140.94536
G1 X35.397 Y16.833 E140.97815
G1 X36.039 Y16.8 E141.00808
G1 X116.805 Y16.8 E144.76888
G1 X117.508 Y16.84 E144.80167
G1 X118.202 Y16.959 E144.83446
G1 X118.877 Y17.157 E144.86721
G1 X119.017 Y17.216 E144.87429
G1 X119.212 Y17.136 E144.8841
G1 X119.89 Y16.946 E144.91689
G1 X120.585 Y16.833 E144.94968
G1 X121.227 Y16.8 E144.97961
G1 X201.993 Y16.8 E148.74041
G1 X202.696 Y16.84 E148.7732
G1 X203.39 Y16.959 E148.80599
G1 X204.065 Y17.157 E148.83874
G1 X204.714 Y17.429 E148.87151
G1 X205.328 Y17.774 E148.9043
G1 X205.899 Y18.185 E148.93706
G1 X206.377 Y18.616 E148.96703
G1 X206.494 Y18.733 E148.97474
G1 X206.963 Y19.258 E149.00752
G1 X207.369 Y19.833 E149.04029
G1 X207.707 Y20.451 E149.07309
G1 X207.974 Y21.102 E149.10586
G1 X208.164 Y21.78 E149.13864
G1 X208.277 Y22.475 E149.17143
G1 X208.31 Y23.117 E149.20136
G1 X208.31 Y211.883 E157.9911
G1 X208.27 Y212.586 E158.02389
G1 X208.151 Y213.28 E158.05668
G1 X207.953 Y213.955 E158.08943
G1 X207.681 Y214.604 E158.1222
G1 X207.336 Y215.218 E158.15499
G1 X206.925 Y215.789 E158.18775
G1 X206.494 Y216.267 E158.21772
G1 X206.377 Y216.384 E158.22543
G1 X205.852 Y216.853 E158.25821
G1 X205.277 Y217.259 E158.29098
G1 X204.659 Y217.597 E158.32378
G1 X204.008 Y217.864 E158.35655
G1 X203.33 Y218.054 E158.38933
G1 X202.635 Y218.167 E158.42212
G1 X201.993 Y218.2 E158.45205
G1 X121.227 Y218.2 E162.21286
G1 X120.524 Y218.16 E162.24564
G1 X119.83 Y218.041 E162.27843
G1 X119.155 Y217.843 E162.31119
G1 X119.015 Y217.784 E162.31826
G1 X118.82 Y217.864 E162.32807
G1 X118.142 Y218.054 E162.36086
G1 X117.447 Y218.167 E162.39365
G1 X116.805 Y218.2 E162.42358
G1 X36.039 Y218.2 E166.18439
G1 X35.336 Y218.16 E166.21717
G1 X34.642 Y218.041 E166.24996
G1 X33.967 Y217.843 E166.28272
G1 X33.318 Y217.571 E166.31548
G1 X32.704 Y217.226 E166.34828
G1 X32.133 Y216.815 E166.38104
G1 X31.655 Y216.384 E166.41101
G1 X31.538 Y216.267 E166.41871
G1 X31.069 Y215.742 E166.45149
G1 X30.663 Y215.167 E166.48427
G1 X30.325 Y214.549 E166.51707
G1 X30.058 Y213.898 E166.54983
G1 X29.868 Y213.22 E166.58262
G1 X29.755 Y212.525 E166.6154
G1 X29.722 Y211.883 E166.64534
G1 X29.722 Y23.117 E175.43507
G1 X29.762 Y22.414 E175.46786
G1 X29.881 Y21.72 E175.50065
G1 X30.079 Y21.045 E175.5334
G1 X30.351 Y20.396 E175.56617
G1 X30.696 Y19.782 E175.59896
G0 F6000 X31.094 Y19.903
G1 F1200 X31.504 Y19.359 E175.63068
G1 X31.821 Y19.016 E175.65243
G1 X31.938 Y18.899 E175.66014
G1 X32.447 Y18.446 E175.69187
G1 X33.005 Y18.057 E175.72354
G1 X33.605 Y17.735 E175.75525
G1 X34.239 Y17.486 E175.78696
G1 X34.898 Y17.313 E175.81869
G1 X35.572 Y17.219 E175.85038
G1 X36.039 Y17.2 E175.87214
G1 X116.805 Y17.2 E179.63294
G1 X117.485 Y17.24 E179.66466
G1 X118.155 Y17.359 E179.69635
G1 X118.807 Y17.556 E179.72806
G1 X119.016 Y17.647 E179.73868
G1 X119.427 Y17.486 E179.75923
G1 X120.086 Y17.313 E179.79096
G1 X120.76 Y17.219 E179.82265
G1 X121.227 Y17.2 E179.84441
G1 X201.993 Y17.2 E183.60521
G1 X202.673 Y17.24 E183.63693
G1 X203.343 Y17.359 E183.66862
G1 X203.995 Y17.556 E183.70033
G1 X204.619 Y17.828 E183.73203
G1 X205.207 Y18.172 E183.76375
G1 X205.751 Y18.582 E183.79547
G1 X206.094 Y18.899 E183.81722
G1 X206.211 Y19.016 E183.82492
G1 X206.664 Y19.525 E183.85665
G1 X207.053 Y20.083 E183.88832
G1 X207.375 Y20.683 E183.92003
G1 X207.624 Y21.317 E183.95175
G1 X207.797 Y21.976 E183.98347
G1 X207.891 Y22.65 E184.01516
G1 X207.91 Y23.117 E184.03692
G1 X207.91 Y211.883 E192.82666
G1 X207.87 Y212.563 E192.85838
G1 X207.751 Y213.233 E192.89007
G1 X207.554 Y213.885 E192.92178
G1 X207.282 Y214.509 E192.95348
G1 X206.938 Y215.097 E192.9852
G1 X206.528 Y215.641 E193.01692
G1 X206.211 Y215.984 E193.03867
G1 X206.094 Y216.101 E193.04637
G1 X205.585 Y216.554 E193.0781
G1 X205.027 Y216.943 E193.10977
G1 X204.427 Y217.265 E193.14148
G1 X203.793 Y217.514 E193.1732
G1 X203.134 Y217.687 E193.20492
G1 X202.46 Y217.781 E193.23661
G1 X201.993 Y217.8 E193.25837
G1 X121.227 Y217.8 E197.01918
G1 X120.547 Y217.76 E197.0509
G1 X119.877 Y217.641 E197.08258
G1 X119.225 Y217.444 E197.1143
G1 X119.016 Y217.353 E197.12491
G1 X118.605 Y217.514 E197.14547
G1 X117.946 Y217.687 E197.17719
G1 X117.272 Y217.781 E197.20888
G1 X116.805 Y217.8 E197.23064
G1 X36.039 Y217.8 E200.99145
G1 X35.359 Y217.76 E201.02316
G1 X34.689 Y217.641 E201.05485
G1 X34.037 Y217.444 E201.08657
G1 X33.413 Y217.172 E201.11826
G1 X32.825 Y216.828 E201.14998
G1 X32.281 Y216.418 E201.1817
G1 X31.938 Y216.101 E201.20345
G1 X31.821 Y215.984 E201.21116
G1 X31.368 Y215.475 E201.24288
G1 X30.979 Y214.917 E201.27456
G1 X30.657 Y214.317 E201.30626
G1 X30.408 Y213.683 E201.33798
G1 X30.235 Y213.024 E201.36971
G1 X30.141 Y212.35 E201.4014
G1 X30.122 Y211.883 E201.42316
G1 X30.122 Y23.117 E210.21289
G1 X30.162 Y22.437 E210.24461
G1 X30.281 Y21.767 E210.2763
G1 X30.478 Y21.115 E210.30801
G1 X30.75 Y20.491 E210.33971
