;FLAVOR:Marlin
;TIME:18574
;Filament used: 16.1367m
;Layer height: 0.28
;MINX:64.358
;MINY:15.2
;MINZ:0.28
;MAXX:162.542
;MAXY:219.8
;MAXZ:5.04
;Generated with Cura_SteamEngine 4.10.0
M140 S50
M105
M190 S50
M104 S200
M105
M109 S200
M82 ;absolute extrusion mode
; Ender 3 Custom Start G-code
G92 E0 ; Reset Extruder
G28 ; Home all axes
G1 Z2.0 F3000 ; Move Z Axis up little to prevent scratching of Heat Bed
G1 X0.1 Y20 Z0.3 F5000.0 ; Move to start position
G1 X0.1 Y200.0 Z0.3 F1500.0 E15 ; Draw the first line
G1 X0.4 Y200.0 Z0.3 F5000.0 ; Move to side a little
G1 X0.4 Y20 Z0.3 F1500.0 E30 ; Draw the second line
G92 E0 ; Reset Extruder
G1 Z2.0 F3000 ; Move Z Axis up little to prevent scratching of Heat Bed
G1 X5 Y20 Z0.3 F5000.0 ; Move over to prevent blob squish
G92 E0
G92 E0
G1 F2700 E-5
;LAYER_COUNT:18
;LAYER:0
M107
G0 F6000 X64.715 Y20.783 Z0.28
;TYPE:SKIRT
G1 F2700 E0
G1 F1200 X64.989 Y20.043 E0.03674
G1 X65.337 Y19.334 E0.07352
G1 X65.755 Y18.663 E0.11033
G1 X66.238 Y18.039 E0.14707
G1 X66.643 Y17.602 E0.17482
G1 X66.76 Y17.485 E0.18252
G1 X67.346 Y16.955 E0.21931
G1 X67.982 Y16.488 E0.25606
G1 X68.662 Y16.087 E0.29281
G1 X69.38 Y15.757 E0.32961
G1 X70.127 Y15.502 E0.36636
G1 X70.896 Y15.323 E0.40313
G1 X71.68 Y15.223 E0.43993
G1 X72.275 Y15.2 E0.46766
G1 X112.541 Y15.2 E2.34261
G1 X113.33 Y15.24 E2.3794
G1 X113.467 Y15.261 E2.38585
G1 X113.764 Y15.223 E2.39979
G1 X114.359 Y15.2 E2.42752
G1 X154.625 Y15.2 E4.30247
G1 X155.414 Y15.24 E4.33926
G1 X156.194 Y15.359 E4.376
G1 X156.959 Y15.557 E4.4128
G1 X157.699 Y15.831 E4.44954
G1 X158.408 Y16.179 E4.48632
G1 X159.079 Y16.597 E4.52313
G1 X159.703 Y17.08 E4.55987
G1 X160.14 Y17.485 E4.58761
G1 X160.257 Y17.602 E4.59532
G1 X160.787 Y18.188 E4.63211
G1 X161.254 Y18.824 E4.66885
G1 X161.655 Y19.504 E4.70561
G1 X161.985 Y20.222 E4.74241
G1 X162.24 Y20.969 E4.77916
G1 X162.419 Y21.738 E4.81593
G1 X162.519 Y22.522 E4.85273
G1 X162.542 Y23.117 E4.88045
G1 X162.542 Y211.883 E13.67019
G1 X162.502 Y212.672 E13.70698
G1 X162.383 Y213.452 E13.74372
G1 X162.185 Y214.217 E13.78051
G1 X161.911 Y214.957 E13.81726
G1 X161.563 Y215.666 E13.85403
G1 X161.145 Y216.337 E13.89084
G1 X160.662 Y216.961 E13.92759
G1 X160.257 Y217.398 E13.95533
G1 X160.14 Y217.515 E13.96303
G1 X159.554 Y218.045 E13.99983
G1 X158.918 Y218.512 E14.03657
G1 X158.238 Y218.913 E14.07333
G1 X157.52 Y219.243 E14.11012
G1 X156.773 Y219.498 E14.14688
G1 X156.004 Y219.677 E14.18364
G1 X155.22 Y219.777 E14.22044
G1 X154.625 Y219.8 E14.24817
G1 X114.359 Y219.8 E16.12312
G1 X113.57 Y219.76 E16.15991
G1 X113.433 Y219.739 E16.16636
G1 X113.136 Y219.777 E16.18031
G1 X112.541 Y219.8 E16.20803
G1 X72.275 Y219.8 E18.08299
G1 X71.486 Y219.76 E18.11977
G1 X70.706 Y219.641 E18.15651
G1 X69.941 Y219.443 E18.19331
G1 X69.201 Y219.169 E18.23005
G1 X68.492 Y218.821 E18.26683
G1 X67.821 Y218.403 E18.30364
G1 X67.197 Y217.92 E18.34038
G1 X66.76 Y217.515 E18.36813
G1 X66.643 Y217.398 E18.37583
G1 X66.113 Y216.812 E18.41262
G1 X65.646 Y216.176 E18.44936
G1 X65.245 Y215.496 E18.48612
G1 X64.915 Y214.778 E18.52292
G1 X64.66 Y214.031 E18.55967
G1 X64.481 Y213.262 E18.59644
G1 X64.381 Y212.478 E18.63324
G1 X64.358 Y211.883 E18.66097
G1 X64.358 Y23.117 E27.4507
G1 X64.398 Y22.328 E27.48749
G1 X64.517 Y21.548 E27.52423
G1 X64.715 Y20.783 E27.56102
G0 F6000 X65.115 Y20.846
G1 F1200 X65.389 Y20.127 E27.59685
G1 X65.736 Y19.441 E27.63265
G1 X66.152 Y18.794 E27.66847
G1 X66.633 Y18.194 E27.70427
G1 X66.925 Y17.884 E27.7241
G1 X67.042 Y17.767 E27.73181
G1 X67.614 Y17.253 E27.76762
G1 X68.236 Y16.8 E27.80345
G1 X68.901 Y16.414 E27.83925
G1 X69.603 Y16.099 E27.87508
G1 X70.334 Y15.859 E27.9109
G1 X71.085 Y15.696 E27.94669
G1 X71.85 Y15.612 E27.98252
G1 X72.275 Y15.6 E28.00232
G1 X112.541 Y15.6 E29.87728
G1 X113.309 Y15.64 E29.91309
G1 X113.462 Y15.664 E29.9203
G1 X113.934 Y15.612 E29.94241
G1 X114.359 Y15.6 E29.96221
G1 X154.625 Y15.6 E31.83716
G1 X155.393 Y15.64 E31.87297
G1 X156.153 Y15.759 E31.90879
G1 X156.896 Y15.957 E31.94459
G1 X157.615 Y16.231 E31.98042
G1 X158.301 Y16.578 E32.01622
G1 X158.948 Y16.994 E32.05204
G1 X159.548 Y17.475 E32.08784
G1 X159.858 Y17.767 E32.10767
G1 X159.975 Y17.884 E32.11538
G1 X160.489 Y18.456 E32.15119
G1 X160.942 Y19.078 E32.18702
G1 X161.328 Y19.743 E32.22282
G1 X161.643 Y20.445 E32.25865
G1 X161.883 Y21.176 E32.29447
G1 X162.046 Y21.927 E32.33026
G1 X162.13 Y22.692 E32.36609
G1 X162.142 Y23.117 E32.38589
G1 X162.142 Y211.883 E41.17563
G1 X162.102 Y212.651 E41.21144
G1 X161.983 Y213.411 E41.24726
G1 X161.785 Y214.154 E41.28306
G1 X161.511 Y214.873 E41.31889
G1 X161.164 Y215.559 E41.35469
G1 X160.748 Y216.206 E41.3905
G1 X160.267 Y216.806 E41.42631
G1 X159.975 Y217.116 E41.44614
G1 X159.858 Y217.233 E41.45385
G1 X159.286 Y217.747 E41.48966
G1 X158.664 Y218.2 E41.52549
G1 X157.999 Y218.586 E41.56129
G1 X157.297 Y218.901 E41.59712
G1 X156.566 Y219.141 E41.63294
G1 X155.815 Y219.304 E41.66873
G1 X155.05 Y219.388 E41.70456
G1 X154.625 Y219.4 E41.72436
G1 X114.359 Y219.4 E43.59931
G1 X113.591 Y219.36 E43.63512
G1 X113.438 Y219.336 E43.64234
G1 X112.966 Y219.388 E43.66445
G1 X112.541 Y219.4 E43.68424
G1 X72.275 Y219.4 E45.5592
G1 X71.507 Y219.36 E45.59501
G1 X70.747 Y219.241 E45.63083
G1 X70.004 Y219.043 E45.66663
G1 X69.285 Y218.769 E45.70246
G1 X68.599 Y218.422 E45.73826
G1 X67.952 Y218.006 E45.77408
G1 X67.352 Y217.525 E45.80988
G1 X67.042 Y217.233 E45.82971
G1 X66.925 Y217.116 E45.83742
G1 X66.411 Y216.544 E45.87323
G1 X65.958 Y215.922 E45.90906
G1 X65.572 Y215.257 E45.94486
G1 X65.257 Y214.555 E45.98069
G1 X65.017 Y213.824 E46.01651
G1 X64.854 Y213.073 E46.0523
G1 X64.77 Y212.308 E46.08813
G1 X64.758 Y211.883 E46.10793
G1 X64.758 Y23.117 E54.89767
G1 X64.798 Y22.349 E54.93348
G1 X64.917 Y21.589 E54.9693
G1 X65.115 Y20.846 E55.0051
G0 F6000 X65.515 Y20.91
G1 F1200 X65.788 Y20.214 E55.03991
G1 X66.135 Y19.551 E55.07476
G1 X66.55 Y18.928 E55.10962
G1 X67.208 Y18.167 E55.15646
G1 X67.325 Y18.05 E55.16416
G1 X67.882 Y17.55 E55.19902
G1 X68.488 Y17.113 E55.23381
G1 X69.138 Y16.742 E55.26866
G1 X69.824 Y16.443 E55.3035
G1 X70.538 Y16.219 E55.33835
G1 X71.271 Y16.072 E55.37316
G1 X72.275 Y16 E55.42003
G1 X112.541 Y16 E57.29498
G1 X113.288 Y16.04 E57.32982
G1 X113.446 Y16.065 E57.33726
G1 X114.359 Y16 E57.37989
G1 X154.625 Y16 E59.25484
G1 X155.372 Y16.04 E59.28967
G1 X156.11 Y16.159 E59.32448
G1 X156.832 Y16.357 E59.35934
G1 X157.528 Y16.63 E59.39415
G1 X158.191 Y16.977 E59.429
G1 X158.814 Y17.392 E59.46385
G1 X159.575 Y18.05 E59.5107
G1 X159.692 Y18.167 E59.5184
G1 X160.192 Y18.724 E59.55326
G1 X160.629 Y19.33 E59.58805
G1 X161 Y19.98 E59.6229
G1 X161.299 Y20.666 E59.65774
G1 X161.523 Y21.38 E59.69259
G1 X161.67 Y22.113 E59.7274
G1 X161.742 Y23.117 E59.77427
G1 X161.742 Y211.883 E68.564
G1 X161.702 Y212.63 E68.59884
G1 X161.583 Y213.368 E68.63365
G1 X161.385 Y214.09 E68.66851
G1 X161.112 Y214.786 E68.70332
G1 X160.765 Y215.449 E68.73816
G1 X160.35 Y216.072 E68.77302
G1 X159.692 Y216.833 E68.81986
G1 X159.575 Y216.95 E68.82757
G1 X159.018 Y217.45 E68.86242
G1 X158.412 Y217.887 E68.89721
G1 X157.762 Y218.258 E68.93206
G1 X157.076 Y218.557 E68.96691
G1 X156.362 Y218.781 E69.00175
G1 X155.629 Y218.928 E69.03656
G1 X154.625 Y219 E69.08343
G1 X114.359 Y219 E70.95839
G1 X113.612 Y218.96 E70.99322
G1 X113.454 Y218.935 E71.00067
G1 X112.541 Y219 E71.04329
G1 X72.275 Y219 E72.91824
G1 X71.528 Y218.96 E72.95308
G1 X70.79 Y218.841 E72.98788
G1 X70.068 Y218.643 E73.02275
G1 X69.372 Y218.37 E73.05756
G1 X68.709 Y218.023 E73.0924
G1 X68.086 Y217.608 E73.12726
G1 X67.325 Y216.95 E73.1741
G1 X67.208 Y216.833 E73.18181
G1 X66.708 Y216.276 E73.21666
G1 X66.271 Y215.67 E73.25145
G1 X65.9 Y215.02 E73.2863
G1 X65.601 Y214.334 E73.32115
G1 X65.377 Y213.62 E73.35599
G1 X65.23 Y212.887 E73.3908
G1 X65.158 Y211.883 E73.43767
G1 X65.158 Y23.117 E82.22741
G1 X65.198 Y22.37 E82.26224
G1 X65.317 Y21.632 E82.29705
G1 X65.515 Y20.91 E82.33191
G0 F6000 X65.915 Y20.976
G1 F1200 X66.188 Y20.303 E82.36573
G1 X66.533 Y19.664 E82.39954
G1 X66.947 Y19.067 E82.43337
G1 X67.491 Y18.45 E82.47167
G1 X67.608 Y18.333 E82.47938
G1 X68.149 Y17.849 E82.51318
G1 X68.74 Y17.426 E82.54702
G1 X69.374 Y17.072 E82.58083
G1 X70.043 Y16.789 E82.61466
G1 X70.739 Y16.581 E82.64848
G1 X71.454 Y16.451 E82.68232
G1 X72.275 Y16.4 E82.72062
G1 X112.541 Y16.4 E84.59558
G1 X113.266 Y16.44 E84.62939
G1 X113.538 Y16.451 E84.64206
G1 X114.359 Y16.4 E84.68037
G1 X154.625 Y16.4 E86.55532
G1 X155.35 Y16.44 E86.58913
G1 X156.067 Y16.559 E86.62297
G1 X156.766 Y16.757 E86.6568
G1 X157.439 Y17.03 E86.69062
G1 X158.078 Y17.375 E86.72444
G1 X158.675 Y17.789 E86.75826
G1 X159.292 Y18.333 E86.79657
G1 X159.409 Y18.45 E86.80427
G1 X159.893 Y18.991 E86.83807
G1 X160.316 Y19.582 E86.87192
G1 X160.67 Y20.216 E86.90573
G1 X160.953 Y20.885 E86.93955
G1 X161.161 Y21.581 E86.97338
G1 X161.291 Y22.296 E87.00722
G1 X161.342 Y23.117 E87.04552
G1 X161.342 Y211.883 E95.83525
G1 X161.302 Y212.608 E95.86906
G1 X161.183 Y213.325 E95.90291
G1 X160.985 Y214.024 E95.93674
G1 X160.712 Y214.697 E95.97055
G1 X160.367 Y215.336 E96.00437
G1 X159.953 Y215.933 E96.0382
G1 X159.409 Y216.55 E96.0765
G1 X159.292 Y216.667 E96.0842
G1 X158.751 Y217.151 E96.11801
G1 X158.16 Y217.574 E96.15185
G1 X157.526 Y217.928 E96.18566
G1 X156.857 Y218.211 E96.21948
G1 X156.161 Y218.419 E96.25331
G1 X155.446 Y218.549 E96.28715
G1 X154.625 Y218.6 E96.32545
G1 X114.359 Y218.6 E98.2004
G1 X113.634 Y218.56 E98.23421
G1 X113.362 Y218.549 E98.24689
G1 X112.541 Y218.6 E98.28519
G1 X72.275 Y218.6 E100.16015
G1 X71.55 Y218.56 E100.19396
G1 X70.833 Y218.441 E100.2278
G1 X70.134 Y218.243 E100.26163
G1 X69.461 Y217.97 E100.29545
G1 X68.822 Y217.625 E100.32926
G1 X68.225 Y217.211 E100.36309
G1 X67.608 Y216.667 E100.40139
G1 X67.491 Y216.55 E100.4091
G1 X67.007 Y216.009 E100.4429
G1 X66.584 Y215.418 E100.47674
G1 X66.23 Y214.784 E100.51055
G1 X65.947 Y214.115 E100.54438
G1 X65.739 Y213.419 E100.5782
G1 X65.609 Y212.704 E100.61204
G1 X65.558 Y211.883 E100.65034
G1 X65.558 Y23.117 E109.44008
G1 X65.598 Y22.392 E109.47389
G1 X65.717 Y21.675 E109.50773
G1 X65.915 Y20.976 E109.54156
G0 F6000 X66.315 Y21.045
G1 F1200 X66.587 Y20.396 E109.57433
G1 X66.932 Y19.782 E109.60712
G1 X67.343 Y19.211 E109.63988
G1 X67.774 Y18.733 E109.66985
G1 X67.891 Y18.616 E109.67756
G1 X68.416 Y18.147 E109.71034
G1 X68.991 Y17.741 E109.74311
G1 X69.609 Y17.403 E109.77591
G1 X70.26 Y17.136 E109.80868
G1 X70.938 Y16.946 E109.84146
G1 X71.633 Y16.833 E109.87425
G1 X72.275 Y16.8 E109.90418
G1 X112.541 Y16.8 E111.77914
G1 X113.244 Y16.84 E111.81193
G1 X113.453 Y16.876 E111.8218
G1 X113.717 Y16.833 E111.83426
G1 X114.359 Y16.8 E111.86419
G1 X154.625 Y16.8 E113.73914
G1 X155.328 Y16.84 E113.77193
G1 X156.022 Y16.959 E113.80472
G1 X156.697 Y17.157 E113.83747
G1 X157.346 Y17.429 E113.87024
G1 X157.96 Y17.774 E113.90303
G1 X158.531 Y18.185 E113.93579
G1 X159.009 Y18.616 E113.96576
G1 X159.126 Y18.733 E113.97347
G1 X159.595 Y19.258 E114.00625
G1 X160.001 Y19.833 E114.03902
G1 X160.339 Y20.451 E114.07182
G1 X160.606 Y21.102 E114.10459
G1 X160.796 Y21.78 E114.13737
G1 X160.909 Y22.475 E114.17016
G1 X160.942 Y23.117 E114.2001
G1 X160.942 Y211.883 E122.98983
G1 X160.902 Y212.586 E123.02262
G1 X160.783 Y213.28 E123.05541
G1 X160.585 Y213.955 E123.08816
G1 X160.313 Y214.604 E123.12093
G1 X159.968 Y215.218 E123.15372
G1 X159.557 Y215.789 E123.18648
G1 X159.126 Y216.267 E123.21645
G1 X159.009 Y216.384 E123.22416
G1 X158.484 Y216.853 E123.25694
G1 X157.909 Y217.259 E123.28971
G1 X157.291 Y217.597 E123.32251
G1 X156.64 Y217.864 E123.35528
G1 X155.962 Y218.054 E123.38806
G1 X155.267 Y218.167 E123.42085
G1 X154.625 Y218.2 E123.45078
G1 X114.359 Y218.2 E125.32574
G1 X113.656 Y218.16 E125.35852
G1 X113.447 Y218.124 E125.3684
G1 X113.183 Y218.167 E125.38085
G1 X112.541 Y218.2 E125.41079
G1 X72.275 Y218.2 E127.28574
G1 X71.572 Y218.16 E127.31853
G1 X70.878 Y218.041 E127.35132
G1 X70.203 Y217.843 E127.38407
G1 X69.554 Y217.571 E127.41684
G1 X68.94 Y217.226 E127.44963
G1 X68.369 Y216.815 E127.48239
G1 X67.891 Y216.384 E127.51236
G1 X67.774 Y216.267 E127.52007
G1 X67.305 Y215.742 E127.55285
G1 X66.899 Y215.167 E127.58562
G1 X66.561 Y214.549 E127.61842
G1 X66.294 Y213.898 E127.65119
G1 X66.104 Y213.22 E127.68397
G1 X65.991 Y212.525 E127.71676
G1 X65.958 Y211.883 E127.74669
G1 X65.958 Y23.117 E136.53643
G1 X65.998 Y22.414 E136.56922
G1 X66.117 Y21.72 E136.602
G1 X66.315 Y21.045 E136.63476
G0 F6000 X66.714 Y21.115
G1 F1200 X66.986 Y20.491 E136.66646
G1 X67.33 Y19.903 E136.69818
G1 X67.74 Y19.359 E136.7299
G1 X68.057 Y19.016 E136.75164
G1 X68.174 Y18.899 E136.75935
G1 X68.683 Y18.446 E136.79108
G1 X69.241 Y18.057 E136.82275
G1 X69.841 Y17.735 E136.85446
G1 X70.475 Y17.486 E136.88618
G1 X71.134 Y17.313 E136.9179
G1 X71.808 Y17.219 E136.94959
G1 X72.275 Y17.2 E136.97135
G1 X112.541 Y17.2 E138.84631
G1 X113.221 Y17.24 E138.87802
G1 X113.45 Y17.281 E138.88886
G1 X113.892 Y17.219 E138.90964
G1 X114.359 Y17.2 E138.9314
G1 X154.625 Y17.2 E140.80636
G1 X155.305 Y17.24 E140.83808
G1 X155.975 Y17.359 E140.86976
G1 X156.627 Y17.556 E140.90148
G1 X157.251 Y17.828 E140.93317
G1 X157.839 Y18.172 E140.96489
G1 X158.383 Y18.582 E140.99661
G1 X158.726 Y18.899 E141.01836
G1 X158.843 Y19.016 E141.02607
G1 X159.296 Y19.525 E141.0578
G1 X159.685 Y20.083 E141.08947
G1 X160.007 Y20.683 E141.12118
G1 X160.256 Y21.317 E141.15289
G1 X160.429 Y21.976 E141.18462
G1 X160.523 Y22.65 E141.21631
G1 X160.542 Y23.117 E141.23807
G1 X160.542 Y211.883 E150.02781
G1 X160.502 Y212.563 E150.05952
G1 X160.383 Y213.233 E150.09121
G1 X160.186 Y213.885 E150.12293
G1 X159.914 Y214.509 E150.15462
G1 X159.57 Y215.097 E150.18634
G1 X159.16 Y215.641 E150.21806
G1 X158.843 Y215.984 E150.23981
G1 X158.726 Y216.101 E150.24752
G1 X158.217 Y216.554 E150.27924
G1 X157.659 Y216.943 E150.31092
G1 X157.059 Y217.265 E150.34263
G1 X156.425 Y217.514 E150.37434
G1 X155.766 Y217.687 E150.40607
G1 X155.092 Y217.781 E150.43776
G1 X154.625 Y217.8 E150.45952
G1 X114.359 Y217.8 E152.33447
G1 X113.679 Y217.76 E152.36619
G1 X113.45 Y217.719 E152.37702
G1 X113.008 Y217.781 E152.39781
G1 X112.541 Y217.8 E152.41957
G1 X72.275 Y217.8 E154.29452
G1 X71.595 Y217.76 E154.32624
G1 X70.925 Y217.641 E154.35793
G1 X70.273 Y217.444 E154.38964
G1 X69.649 Y217.172 E154.42134
G1 X69.061 Y216.828 E154.45306
G1 X68.517 Y216.418 E154.48478
G1 X68.174 Y216.101 E154.50653
G1 X68.057 Y215.984 E154.51423
G1 X67.604 Y215.475 E154.54596
G1 X67.215 Y214.917 E154.57764
G1 X66.893 Y214.317 E154.60934
G1 X66.644 Y213.683 E154.64106
G1 X66.471 Y213.024 E154.67279
G1 X66.377 Y212.35 E154.70447
G1 X66.358 Y211.883 E154.72624
G1 X66.358 Y23.117 E163.51597
G1 X66.398 Y22.437 E163.54769
G1 X66.517 Y21.767 E163.57938
G1 X66.714 Y21.115 E163.61109
G0 F6000 X66.917 Y21.815
G1 F1200 X67.114 Y21.188 E163.6417
G1 X67.386 Y20.59 E163.67229
G1 X67.728 Y20.029 E163.70288
G1 X68.34 Y19.299 E163.74724
G1 X68.457 Y19.182 E163.75494
G1 X68.949 Y18.746 E163.78555
G1 X69.49 Y18.374 E163.81612
G1 X70.072 Y18.07 E163.8467
G1 X70.687 Y17.839 E163.87729
G1 X71.326 Y17.684 E163.90791
G1 X72.275 Y17.6 E163.95227
G1 X112.541 Y17.6 E165.82722
G1 X113.197 Y17.64 E165.85783
G1 X113.427 Y17.682 E165.86871
G1 X114.359 Y17.6 E165.91228
G1 X154.625 Y17.6 E167.78723
G1 X155.281 Y17.64 E167.81783
G1 X155.927 Y17.759 E167.84842
G1 X156.554 Y17.956 E167.87902
G1 X157.152 Y18.228 E167.90961
G1 X157.713 Y18.57 E167.94021
G1 X158.443 Y19.182 E167.98457
G1 X158.56 Y19.299 E167.99227
G1 X158.996 Y19.791 E168.02288
G1 X159.368 Y20.332 E168.05345
G1 X159.672 Y20.914 E168.08403
G1 X159.903 Y21.529 E168.11462
G1 X160.058 Y22.168 E168.14524
G1 X160.142 Y23.117 E168.1896
G1 X160.142 Y211.883 E176.97933
G1 X160.102 Y212.539 E177.00994
G1 X159.983 Y213.185 E177.04052
G1 X159.786 Y213.812 E177.07113
G1 X159.514 Y214.41 E177.10172
G1 X159.172 Y214.971 E177.13231
G1 X158.56 Y215.701 E177.17667
G1 X158.443 Y215.818 E177.18437
G1 X157.951 Y216.254 E177.21498
G1 X157.41 Y216.626 E177.24555
G1 X156.828 Y216.93 E177.27613
G1 X156.213 Y217.161 E177.30672
G1 X155.574 Y217.316 E177.33734
G1 X154.625 Y217.4 E177.3817
G1 X114.359 Y217.4 E179.25665
