;FLAVOR:Marlin
;TIME:42297
;Filament used: 26.6924m
;Layer height: 0.2
;MINX:2.45
;MINY:12
;MINZ:0.2
;MAXX:232.55
;MAXY:223
;MAXZ:3.2
;Generated with Cura_SteamEngine 4.10.0
M140 S50
M105
M190 S50
M104 S200
M105
M109 S200
M82 ;absolute extrusion mode
; Ender 3 Custom Start G-code
G92 E0 ; Reset Extruder
G28 ; Home all axes
G1 Z2.0 F3000 ; Move Z Axis up little to prevent scratching of Heat Bed
G1 X0.1 Y20 Z0.3 F5000.0 ; Move to start position
G1 X0.1 Y200.0 Z0.3 F1500.0 E15 ; Draw the first line
G1 X0.4 Y200.0 Z0.3 F5000.0 ; Move to side a little
G1 X0.4 Y20 Z0.3 F1500.0 E30 ; Draw the second line
G92 E0 ; Reset Extruder
G1 Z2.0 F3000 ; Move Z Axis up little to prevent scratching of Heat Bed
G1 X5 Y20 Z0.3 F5000.0 ; Move over to prevent blob squish
G92 E0
G92 E0
G1 F2700 E-5
;LAYER_COUNT:17
;LAYER:0
M107
G0 F6000 X7.862 Y13.539 Z0.2
;TYPE:SKIRT
G1 F2700 E0
G1 F1200 X8.689 Y13.097 E0.03119
G1 X9.551 Y12.727 E0.06239
G1 X10.441 Y12.431 E0.09358
G1 X11.353 Y12.213 E0.12477
G1 X12.28 Y12.072 E0.15596
G1 X13.151 Y12.013 E0.18499
G1 X13.472 Y12.004 E0.19567
G1 X13.78 Y12 E0.20592
G1 X53.986 Y12 E1.54318
G1 X55.135 Y12.004 E1.58139
G1 X55.628 Y12 E1.59779
G1 X95.886 Y12 E2.93678
G1 X97.035 Y12.004 E2.97499
G1 X97.528 Y12 E2.99139
G1 X137.786 Y12 E4.33038
G1 X138.935 Y12.004 E4.36859
G1 X139.428 Y12 E4.38499
G1 X179.686 Y12 E5.72398
G1 X180.835 Y12.004 E5.76219
G1 X181.328 Y12 E5.77859
G1 X221.001 Y12.001 E7.09812
G1 X221.699 Y12.011 E7.12134
G1 X222.635 Y12.065 E7.15252
G1 X223.563 Y12.197 E7.1837
G1 X224.477 Y12.409 E7.21491
G1 X225.369 Y12.698 E7.24609
G1 X226.234 Y13.061 E7.27729
G1 X227.064 Y13.497 E7.30848
G1 X227.855 Y14.002 E7.33969
G1 X228.599 Y14.573 E7.37088
G1 X229.292 Y15.205 E7.40208
G1 X229.929 Y15.893 E7.43326
G1 X230.504 Y16.634 E7.46446
G1 X231.015 Y17.42 E7.49564
G1 X231.457 Y18.248 E7.52686
G1 X231.826 Y19.11 E7.55804
G1 X232.121 Y20 E7.58923
G1 X232.339 Y20.912 E7.62042
G1 X232.479 Y21.84 E7.65163
G1 X232.537 Y22.701 E7.68033
G1 X232.546 Y23.021 E7.69098
G1 X232.55 Y23.33 E7.70126
G1 X232.549 Y211.4 E13.95649
G1 X232.54 Y212.127 E13.98067
G1 X232.489 Y213.064 E14.01189
G1 X232.357 Y213.992 E14.04306
G1 X232.148 Y214.906 E14.07425
G1 X231.861 Y215.799 E14.10544
G1 X231.499 Y216.665 E14.13666
G1 X231.065 Y217.496 E14.16784
G1 X230.561 Y218.287 E14.19904
G1 X229.992 Y219.032 E14.23022
G1 X229.361 Y219.727 E14.26144
G1 X228.674 Y220.365 E14.29262
G1 X227.935 Y220.942 E14.32381
G1 X227.149 Y221.454 E14.35501
G1 X226.323 Y221.897 E14.38618
G1 X225.461 Y222.269 E14.41741
G1 X224.572 Y222.565 E14.44857
G1 X223.66 Y222.785 E14.47977
G1 X222.733 Y222.926 E14.51096
G1 X221.849 Y222.987 E14.54043
G1 X221.528 Y222.996 E14.55111
G1 X221.22 Y223 E14.56136
G1 X181.014 Y223 E15.89862
G1 X179.865 Y222.996 E15.93683
G1 X179.372 Y223 E15.95323
G1 X139.114 Y223 E17.29222
G1 X137.965 Y222.996 E17.33043
G1 X137.472 Y223 E17.34683
G1 X97.214 Y223 E18.68582
G1 X96.065 Y222.996 E18.72403
G1 X95.572 Y223 E18.74043
G1 X55.314 Y223 E20.07942
G1 X54.165 Y222.996 E20.11763
G1 X53.672 Y223 E20.13403
G1 X14.015 Y222.999 E21.45303
G1 X13.317 Y222.99 E21.47625
G1 X12.381 Y222.938 E21.50743
G1 X11.452 Y222.806 E21.53863
G1 X10.538 Y222.596 E21.56983
G1 X9.645 Y222.309 E21.60102
G1 X8.78 Y221.946 E21.63222
G1 X7.949 Y221.512 E21.66341
G1 X7.158 Y221.008 E21.6946
G1 X6.413 Y220.438 E21.7258
G1 X5.719 Y219.807 E21.757
G1 X5.082 Y219.12 E21.78816
G1 X4.505 Y218.38 E21.81937
G1 X3.993 Y217.594 E21.85057
G1 X3.55 Y216.767 E21.88177
G1 X3.179 Y215.906 E21.91295
G1 X2.883 Y215.016 E21.94415
G1 X2.664 Y214.104 E21.97535
G1 X2.523 Y213.177 E22.00653
G1 X2.463 Y212.288 E22.03617
G1 X2.454 Y211.955 E22.04725
G1 X2.45 Y211.658 E22.05713
G1 X2.451 Y23.525 E28.31446
G1 X2.46 Y22.86 E28.33658
G1 X2.513 Y21.924 E28.36776
G1 X2.645 Y20.995 E28.39897
G1 X2.856 Y20.081 E28.43017
G1 X3.144 Y19.189 E28.46134
G1 X3.507 Y18.324 E28.49254
G1 X3.942 Y17.493 E28.52374
G1 X4.446 Y16.703 E28.55491
G1 X5.016 Y15.958 E28.58611
G1 X5.648 Y15.264 E28.61733
G1 X6.336 Y14.627 E28.64851
G1 X7.076 Y14.051 E28.6797
G1 X7.862 Y13.539 E28.7109
G0 F6000 X8.241 Y13.782
G1 F1200 X9.061 Y13.364 E28.74151
G1 X9.915 Y13.019 E28.77215
G1 X10.795 Y12.749 E28.80276
G1 X11.695 Y12.557 E28.83337
G1 X12.609 Y12.443 E28.86401
G1 X13.162 Y12.413 E28.88243
G1 X13.483 Y12.404 E28.89311
G1 X13.78 Y12.4 E28.90299
G1 X53.984 Y12.4 E30.24018
G1 X55.136 Y12.404 E30.27849
G1 X55.631 Y12.4 E30.29496
G1 X95.884 Y12.4 E31.63378
G1 X97.036 Y12.404 E31.67209
G1 X97.531 Y12.4 E31.68856
G1 X137.784 Y12.4 E33.02738
G1 X138.936 Y12.404 E33.06569
G1 X139.431 Y12.4 E33.08216
G1 X179.684 Y12.4 E34.42098
G1 X180.836 Y12.404 E34.45929
G1 X181.331 Y12.4 E34.47576
G1 X220.995 Y12.401 E35.79499
G1 X221.693 Y12.411 E35.81821
G1 X222.612 Y12.464 E35.84882
G1 X223.523 Y12.597 E35.87944
G1 X224.419 Y12.808 E35.91006
G1 X225.293 Y13.096 E35.94067
G1 X226.14 Y13.459 E35.97132
G1 X226.951 Y13.894 E36.00193
G1 X227.721 Y14.398 E36.03253
G1 X228.445 Y14.967 E36.06316
G1 X229.117 Y15.597 E36.0938
G1 X229.732 Y16.282 E36.12442
G1 X230.285 Y17.018 E36.15504
G1 X230.772 Y17.799 E36.18565
G1 X231.189 Y18.62 E36.21628
G1 X231.534 Y19.474 E36.24691
G1 X231.803 Y20.354 E36.27752
G1 X231.995 Y21.255 E36.30816
G1 X232.108 Y22.168 E36.33875
G1 X232.137 Y22.712 E36.35687
G1 X232.146 Y23.032 E36.36752
G1 X232.15 Y23.33 E36.37743
G1 X232.149 Y211.395 E42.6325
G1 X232.14 Y212.122 E42.65668
G1 X232.089 Y213.041 E42.6873
G1 X231.958 Y213.953 E42.71794
G1 X231.748 Y214.849 E42.74855
G1 X231.462 Y215.724 E42.77917
G1 X231.101 Y216.571 E42.80979
G1 X230.667 Y217.383 E42.84041
G1 X230.165 Y218.155 E42.87104
G1 X229.597 Y218.88 E42.90167
G1 X228.969 Y219.553 E42.93229
G1 X228.285 Y220.169 E42.96291
G1 X227.55 Y220.723 E42.99352
G1 X226.77 Y221.212 E43.02414
G1 X225.95 Y221.631 E43.05476
G1 X225.097 Y221.977 E43.08538
G1 X224.217 Y222.248 E43.11601
G1 X223.317 Y222.441 E43.14662
G1 X222.403 Y222.556 E43.17726
G1 X221.838 Y222.587 E43.19608
G1 X221.517 Y222.596 E43.20676
G1 X221.22 Y222.6 E43.21664
G1 X181.016 Y222.6 E44.55383
G1 X179.864 Y222.596 E44.59215
G1 X179.369 Y222.6 E44.60861
G1 X139.116 Y222.6 E45.94743
G1 X137.964 Y222.596 E45.98575
G1 X137.469 Y222.6 E46.00221
G1 X97.216 Y222.6 E47.34103
G1 X96.064 Y222.596 E47.37935
G1 X95.569 Y222.6 E47.39581
G1 X55.316 Y222.6 E48.73463
G1 X54.164 Y222.596 E48.77295
G1 X53.669 Y222.6 E48.78941
G1 X14.02 Y222.599 E50.10814
G1 X13.322 Y222.59 E50.13136
G1 X12.403 Y222.538 E50.16198
G1 X11.492 Y222.407 E50.19259
G1 X10.596 Y222.197 E50.2232
G1 X9.721 Y221.91 E50.25382
G1 X8.874 Y221.548 E50.28446
G1 X8.062 Y221.114 E50.31508
G1 X7.291 Y220.612 E50.34568
G1 X6.566 Y220.044 E50.37632
G1 X5.893 Y219.415 E50.40696
G1 X5.278 Y218.731 E50.43755
G1 X4.724 Y217.996 E50.46816
G1 X4.236 Y217.215 E50.49879
G1 X3.817 Y216.395 E50.52942
G1 X3.471 Y215.542 E50.56003
G1 X3.201 Y214.662 E50.59065
G1 X3.008 Y213.761 E50.6213
G1 X2.894 Y212.848 E50.6519
G1 X2.863 Y212.277 E50.67092
G1 X2.854 Y211.944 E50.682
G1 X2.85 Y211.658 E50.69151
G1 X2.851 Y23.531 E56.94864
G1 X2.86 Y22.866 E56.97076
G1 X2.912 Y21.946 E57.00141
G1 X3.044 Y21.035 E57.03203
G1 X3.255 Y20.139 E57.06264
G1 X3.542 Y19.264 E57.09327
G1 X3.905 Y18.418 E57.12389
G1 X4.339 Y17.606 E57.15451
G1 X4.842 Y16.835 E57.18513
G1 X5.411 Y16.111 E57.21576
G1 X6.039 Y15.439 E57.24635
G1 X6.724 Y14.823 E57.27699
G1 X7.46 Y14.27 E57.30761
G1 X8.241 Y13.782 E57.33824
G0 F6000 X8.619 Y14.031
G1 F1200 X9.432 Y13.638 E57.36827
G1 X10.277 Y13.318 E57.39833
G1 X11.146 Y13.075 E57.42834
G1 X12.034 Y12.909 E57.45838
G1 X13.173 Y12.813 E57.4964
G1 X13.494 Y12.804 E57.50708
G1 X13.78 Y12.8 E57.5166
G1 X53.983 Y12.8 E58.85375
G1 X55.138 Y12.804 E58.89217
G1 X55.634 Y12.8 E58.90867
G1 X95.883 Y12.8 E60.24735
G1 X97.038 Y12.804 E60.28577
G1 X97.534 Y12.8 E60.30227
G1 X137.783 Y12.8 E61.64095
G1 X138.938 Y12.804 E61.67937
G1 X139.434 Y12.8 E61.69587
G1 X179.683 Y12.8 E63.03455
G1 X180.838 Y12.804 E63.07297
G1 X181.334 Y12.8 E63.08947
G1 X220.989 Y12.801 E64.4084
G1 X221.687 Y12.811 E64.43162
G1 X222.589 Y12.864 E64.46167
G1 X223.482 Y12.996 E64.49169
G1 X224.36 Y13.207 E64.52173
G1 X225.216 Y13.495 E64.55177
G1 X226.043 Y13.857 E64.58179
G1 X226.835 Y14.292 E64.61185
G1 X227.586 Y14.794 E64.64189
G1 X228.289 Y15.361 E64.67193
G1 X228.939 Y15.988 E64.70197
G1 X229.531 Y16.67 E64.732
G1 X230.061 Y17.401 E64.76204
G1 X230.523 Y18.177 E64.79207
G1 X230.916 Y18.99 E64.82211
G1 X231.234 Y19.835 E64.85214
G1 X231.477 Y20.705 E64.88218
G1 X231.642 Y21.593 E64.91222
G1 X231.737 Y22.723 E64.94994
G1 X231.746 Y23.043 E64.96059
G1 X231.75 Y23.33 E64.97013
G1 X231.749 Y211.39 E71.22503
G1 X231.74 Y212.117 E71.24921
G1 X231.689 Y213.019 E71.27926
G1 X231.558 Y213.913 E71.30932
G1 X231.349 Y214.791 E71.33933
G1 X231.063 Y215.648 E71.36938
G1 X230.702 Y216.476 E71.39943
G1 X230.27 Y217.268 E71.42943
G1 X229.769 Y218.02 E71.45949
G1 X229.203 Y218.724 E71.48953
G1 X228.578 Y219.375 E71.51955
G1 X227.897 Y219.969 E71.5496
G1 X227.166 Y220.5 E71.57965
G1 X226.392 Y220.964 E71.60967
G1 X225.579 Y221.358 E71.63972
G1 X224.735 Y221.678 E71.66974
G1 X223.865 Y221.923 E71.6998
G1 X222.978 Y222.089 E71.72981
G1 X221.827 Y222.187 E71.76823
G1 X221.506 Y222.196 E71.77891
G1 X221.22 Y222.2 E71.78843
G1 X181.017 Y222.2 E73.12559
G1 X179.862 Y222.196 E73.164
G1 X179.366 Y222.2 E73.1805
G1 X139.117 Y222.2 E74.51919
G1 X137.962 Y222.196 E74.5576
G1 X137.466 Y222.2 E74.5741
G1 X97.217 Y222.2 E75.91279
G1 X96.062 Y222.196 E75.9512
G1 X95.566 Y222.2 E75.9677
G1 X55.317 Y222.2 E77.30639
G1 X54.162 Y222.196 E77.3448
G1 X53.666 Y222.2 E77.3613
G1 X14.025 Y222.199 E78.67976
G1 X13.327 Y222.19 E78.70298
G1 X12.426 Y222.139 E78.733
G1 X11.532 Y222.007 E78.76305
G1 X10.654 Y221.798 E78.79307
G1 X9.797 Y221.511 E78.82313
G1 X8.97 Y221.15 E78.85315
G1 X8.177 Y220.717 E78.8832
G1 X7.426 Y220.216 E78.91322
G1 X6.722 Y219.65 E78.94327
G1 X6.071 Y219.024 E78.97331
G1 X5.478 Y218.343 E79.00334
G1 X4.948 Y217.612 E79.03337
G1 X4.484 Y216.837 E79.06341
G1 X4.09 Y216.024 E79.09346
G1 X3.77 Y215.18 E79.12348
G1 X3.526 Y214.31 E79.15354
G1 X3.36 Y213.422 E79.18358
G1 X3.263 Y212.267 E79.22213
G1 X3.254 Y211.934 E79.23321
G1 X3.25 Y211.658 E79.2424
G1 X3.251 Y23.536 E85.49936
G1 X3.26 Y22.871 E85.52148
G1 X3.312 Y21.969 E85.55153
G1 X3.444 Y21.076 E85.58155
G1 X3.654 Y20.198 E85.61158
G1 X3.941 Y19.341 E85.64164
G1 X4.303 Y18.514 E85.67166
G1 X4.736 Y17.722 E85.70169
G1 X5.238 Y16.971 E85.73173
G1 X5.805 Y16.267 E85.7618
G1 X6.431 Y15.617 E85.79181
G1 X7.112 Y15.024 E85.82185
G1 X7.844 Y14.494 E85.8519
G1 X8.619 Y14.031 E85.88193
G1 F2700 E80.88193
;MESH:CE3_GibbonRackx12.stl(3)
G0 F6000 X14.26 Y22.335
G0 X14.26 Y23.81
G0 X53.168 Y23.782
G0 X53.35 Y211.4
;TYPE:WALL-INNER
G1 F2700 E85.88193
G1 F1200 X14.05 Y211.4 E87.18905
G1 X14.05 Y23.6 E93.43531
G1 X53.35 Y23.6 E94.74243
G1 X53.35 Y211.4 E100.98868
G0 F6000 X53.75 Y211.8
;TYPE:WALL-OUTER
G1 F1200 X13.65 Y211.8 E102.32241
G1 X13.65 Y23.2 E108.59528
G1 X53.75 Y23.2 E109.92901
G1 X53.75 Y211.8 E116.20187
G0 F6000 X53.48 Y211.53
G0 X53.24 Y211.01
G0 X52.96 Y211.01
;TYPE:SKIN
G1 F1200 X14.44 Y211.01 E117.48305
G1 X14.44 Y23.99 E123.70336
G1 X52.96 Y23.99 E124.98454
G1 X52.96 Y211.01 E131.20485
G1 F2700 E126.20485
G0 F6000 X53.24 Y211.01
G0 X15.122 Y211.29
G0 X15.122 Y210.849
G1 F2700 E131.20485
G1 F1200 X14.6 Y210.327 E131.2294
G0 F6000 X14.6 Y209.761
G1 F1200 X15.687 Y210.849 E131.28056
G0 F6000 X16.253 Y210.849
G1 F1200 X14.6 Y209.196 E131.35831
G0 F6000 X14.6 Y208.63
G1 F1200 X16.819 Y210.849 E131.46268
G0 F6000 X17.384 Y210.849
G1 F1200 X14.6 Y208.064 E131.59366
G0 F6000 X14.6 Y207.499
G1 F1200 X17.95 Y210.849 E131.75123
G0 F6000 X18.516 Y210.849
G1 F1200 X14.6 Y206.933 E131.93543
G0 F6000 X14.6 Y206.367
G1 F1200 X19.081 Y210.849 E132.14622
G0 F6000 X19.647 Y210.849
G1 F1200 X14.6 Y205.802 E132.38362
G0 F6000 X14.6 Y205.236
G1 F1200 X20.213 Y210.849 E132.64764
G0 F6000 X20.779 Y210.849
G1 F1200 X14.6 Y204.67 E132.93828
G0 F6000 X14.6 Y204.104
G1 F1200 X21.344 Y210.849 E133.25552
G0 F6000 X21.91 Y210.849
G1 F1200 X14.6 Y203.539 E133.59936
G0 F6000 X14.6 Y202.973
G1 F1200 X22.476 Y210.849 E133.96982
G0 F6000 X23.041 Y210.849
G1 F1200 X14.6 Y202.407 E134.36688
G0 F6000 X14.6 Y201.842
G1 F1200 X23.607 Y210.849 E134.79055
G0 F6000 X24.173 Y210.849
G1 F1200 X14.6 Y201.276 E135.24083
G0 F6000 X14.6 Y200.71
G1 F1200 X24.738 Y210.849 E135.71771
G0 F6000 X25.304 Y210.849
G1 F1200 X14.6 Y200.145 E136.2212
G0 F6000 X14.6 Y199.579
G1 F1200 X25.87 Y210.849 E136.7513
G0 F6000 X26.435 Y210.849
G1 F1200 X14.6 Y199.013 E137.30801
G0 F6000 X14.6 Y198.448
G1 F1200 X27.001 Y210.849 E137.89132
G0 F6000 X27.567 Y210.849
G1 F1200 X14.6 Y197.882 E138.50124
G0 F6000 X14.6 Y197.316
G1 F1200 X28.132 Y210.849 E139.13777
G0 F6000 X28.698 Y210.849
G1 F1200 X14.6 Y196.751 E139.8009
G0 F6000 X14.6 Y196.185
G1 F1200 X29.264 Y210.849 E140.49065
G0 F6000 X29.83 Y210.849
G1 F1200 X14.6 Y195.619 E141.20702
G0 F6000 X14.6 Y195.053
G1 F1200 X30.395 Y210.849 E141.94999
G0 F6000 X30.961 Y210.849
G1 F1200 X14.6 Y194.488 E142.71956
G0 F6000 X14.6 Y193.922
G1 F1200 X31.527 Y210.849 E143.51576
G0 F6000 X32.092 Y210.849
G1 F1200 X14.6 Y193.356 E144.33855
G0 F6000 X14.6 Y192.791
G1 F1200 X32.658 Y210.849 E145.18794
G0 F6000 X33.224 Y210.849
G1 F1200 X14.6 Y192.225 E146.06396
G0 F6000 X14.6 Y191.659
G1 F1200 X33.789 Y210.849 E146.96657
G0 F6000 X34.355 Y210.849
G1 F1200 X14.6 Y191.094 E147.89579
G0 F6000 X14.6 Y190.528
G1 F1200 X34.921 Y210.849 E148.85163
G0 F6000 X35.486 Y210.849
G1 F1200 X14.6 Y189.962 E149.83406
G0 F6000 X14.6 Y189.397
G1 F1200 X36.052 Y210.849 E150.8431
G0 F6000 X36.618 Y210.849
G1 F1200 X14.6 Y188.831 E151.87876
G0 F6000 X14.6 Y188.265
G1 F1200 X37.183 Y210.849 E152.94102
G0 F6000 X37.749 Y210.849
G1 F1200 X14.6 Y187.7 E154.02988
G0 F6000 X14.6 Y187.134
G1 F1200 X38.315 Y210.849 E155.14536
G0 F6000 X38.88 Y210.849
G1 F1200 X14.6 Y186.568 E156.28744
G0 F6000 X14.6 Y186.003
G1 F1200 X39.446 Y210.849 E157.45612
G0 F6000 X40.012 Y210.849
G1 F1200 X14.6 Y185.437 E158.65142
G0 F6000 X14.6 Y184.871
G1 F1200 X40.578 Y210.849 E159.87334
G0 F6000 X41.143 Y210.849
G1 F1200 X14.6 Y184.305 E161.12187
G0 F6000 X14.6 Y183.74
G1 F1200 X41.709 Y210.849 E162.39699
G0 F6000 X42.275 Y210.849
G1 F1200 X14.6 Y183.174 E163.69874
G0 F6000 X14.6 Y182.608
G1 F1200 X42.84 Y210.849 E165.02709
G0 F6000 X43.406 Y210.849
G1 F1200 X14.6 Y182.043 E166.38203
G0 F6000 X14.6 Y181.477
G1 F1200 X43.972 Y210.849 E167.7636
G0 F6000 X44.537 Y210.849
G1 F1200 X14.6 Y180.911 E169.17177
G0 F6000 X14.6 Y180.346
G1 F1200 X45.103 Y210.849 E170.60654
G0 F6000 X45.669 Y210.849
G1 F1200 X14.6 Y179.78 E172.06793
G0 F6000 X14.6 Y179.214
G1 F1200 X46.234 Y210.849 E173.55592
G0 F6000 X46.8 Y210.849
G1 F1200 X14.6 Y178.649 E175.07051
G0 F6000 X14.6 Y178.083
G1 F1200 X47.366 Y210.849 E176.61172
G0 F6000 X47.931 Y210.849
G1 F1200 X14.6 Y177.517 E178.17953
G0 F6000 X14.6 Y176.952
G1 F1200 X48.497 Y210.849 E179.77394
G0 F6000 X49.063 Y210.849
G1 F1200 X14.6 Y176.386 E181.39498
G0 F6000 X14.6 Y175.82
G1 F1200 X49.628 Y210.849 E183.04261
G0 F6000 X50.194 Y210.849
G1 F1200 X14.6 Y175.255 E184.71684
G0 F6000 X14.6 Y174.689
G1 F1200 X50.76 Y210.849 E186.4177
G0 F6000 X51.326 Y210.849
G1 F1200 X14.6 Y174.123 E188.14518
G0 F6000 X14.6 Y173.557
G1 F1200 X51.891 Y210.849 E189.89925
G0 F6000 X52.457 Y210.849
G1 F1200 X14.6 Y172.992 E191.67993
G0 F6000 X14.6 Y172.426
G1 F1200 X52.799 Y210.625 E193.47669
G0 F6000 X52.799 Y210.06
G1 F1200 X14.6 Y171.86 E195.27348
G0 F6000 X14.6 Y171.295
G1 F1200 X52.799 Y209.494 E197.07025
G0 F6000 X52.799 Y208.928
G1 F1200 X14.6 Y170.729 E198.86701
G0 F6000 X14.6 Y170.163
G1 F1200 X52.799 Y208.363 E200.6638
G0 F6000 X52.799 Y207.797
G1 F1200 X14.6 Y169.598 E202.46056
G0 F6000 X14.6 Y169.032
G1 F1200 X52.799 Y207.231 E204.25732
G0 F6000 X52.799 Y206.666
G1 F1200 X14.6 Y168.466 E206.05411
G0 F6000 X14.6 Y167.901
G1 F1200 X52.799 Y206.1 E207.85088
G0 F6000 X52.799 Y205.534
G1 F1200 X14.6 Y167.335 E209.64764
G0 F6000 X14.6 Y166.769
G1 F1200 X52.799 Y204.969 E211.44443
G0 F6000 X52.799 Y204.403
G1 F1200 X14.6 Y166.204 E213.24119
