;FLAVOR:Marlin
;TIME:9306
;Filament used: 5.78757m
;Layer height: 0.16
;MINX:86.25
;MINY:12
;MINZ:0.2
;MAXX:148.75
;MAXY:223
;MAXZ:3.28
;Generated with Cura_SteamEngine 4.10.0
M140 S50
M105
M190 S50
M104 S200
M105
M109 S200
M82 ;absolute extrusion mode
; Ender 3 Custom Start G-code
G92 E0 ; Reset Extruder
G28 ; Home all axes
G1 Z2.0 F3000 ; Move Z Axis up little to prevent scratching of Heat Bed
G1 X0.1 Y20 Z0.3 F5000.0 ; Move to start position
G1 X0.1 Y200.0 Z0.3 F1500.0 E15 ; Draw the first line
G1 X0.4 Y200.0 Z0.3 F5000.0 ; Move to side a little
G1 X0.4 Y20 Z0.3 F1500.0 E30 ; Draw the second line
G92 E0 ; Reset Extruder
G1 Z2.0 F3000 ; Move Z Axis up little to prevent scratching of Heat Bed
G1 X5 Y20 Z0.3 F5000.0 ; Move over to prevent blob squish
G92 E0
G92 E0
G1 F2700 E-5
;LAYER_COUNT:18
;LAYER:0
M107
G0 F6000 X86.656 Y20.081 Z0.2
;TYPE:SKIRT
G1 F2700 E0
G1 F1200 X86.944 Y19.189 E0.03118
G1 X87.307 Y18.324 E0.06238
G1 X87.742 Y17.493 E0.09357
G1 X88.246 Y16.703 E0.12474
G1 X88.816 Y15.958 E0.15594
G1 X89.448 Y15.264 E0.18716
G1 X90.136 Y14.627 E0.21835
G1 X90.876 Y14.051 E0.24953
G1 X91.662 Y13.539 E0.28073
G1 X92.489 Y13.097 E0.31192
G1 X93.351 Y12.727 E0.34312
G1 X94.241 Y12.431 E0.37432
G1 X95.153 Y12.213 E0.40551
G1 X96.08 Y12.072 E0.43669
G1 X96.951 Y12.013 E0.46573
G1 X97.272 Y12.004 E0.47641
G1 X97.58 Y12 E0.48665
G1 X137.043 Y12 E1.7992
G1 X137.899 Y12.011 E1.82767
G1 X138.835 Y12.065 E1.85886
G1 X139.763 Y12.197 E1.89003
G1 X140.677 Y12.409 E1.92124
G1 X141.569 Y12.698 E1.95242
G1 X142.434 Y13.061 E1.98363
G1 X143.264 Y13.497 E2.01481
G1 X144.055 Y14.002 E2.04602
G1 X144.799 Y14.573 E2.07721
G1 X145.492 Y15.205 E2.10841
G1 X146.129 Y15.893 E2.13959
G1 X146.704 Y16.634 E2.17079
G1 X147.215 Y17.42 E2.20197
G1 X147.657 Y18.248 E2.23319
G1 X148.026 Y19.11 E2.26438
G1 X148.321 Y20 E2.29556
G1 X148.539 Y20.912 E2.32675
G1 X148.679 Y21.84 E2.35796
G1 X148.737 Y22.701 E2.38667
G1 X148.746 Y23.021 E2.39731
G1 X148.75 Y23.33 E2.40759
G1 X148.749 Y211.4 E8.66283
G1 X148.74 Y212.127 E8.68701
G1 X148.689 Y213.064 E8.71822
G1 X148.557 Y213.992 E8.74939
G1 X148.348 Y214.906 E8.78058
G1 X148.061 Y215.799 E8.81178
G1 X147.699 Y216.665 E8.84299
G1 X147.265 Y217.496 E8.87418
G1 X146.761 Y218.287 E8.90537
G1 X146.192 Y219.032 E8.93655
G1 X145.561 Y219.727 E8.96777
G1 X144.874 Y220.365 E8.99896
G1 X144.135 Y220.942 E9.03014
G1 X143.349 Y221.454 E9.06134
G1 X142.523 Y221.897 E9.09251
G1 X141.661 Y222.269 E9.12374
G1 X140.772 Y222.565 E9.1549
G1 X139.86 Y222.785 E9.18611
G1 X138.933 Y222.926 E9.21729
G1 X138.049 Y222.987 E9.24677
G1 X137.728 Y222.996 E9.25745
G1 X137.42 Y223 E9.26769
G1 X97.815 Y222.999 E10.58496
G1 X97.117 Y222.99 E10.60818
G1 X96.181 Y222.938 E10.63936
G1 X95.252 Y222.806 E10.67057
G1 X94.338 Y222.596 E10.70176
G1 X93.445 Y222.309 E10.73296
G1 X92.58 Y221.946 E10.76416
G1 X91.749 Y221.512 E10.79534
G1 X90.958 Y221.008 E10.82653
G1 X90.213 Y220.438 E10.85773
G1 X89.519 Y219.807 E10.88893
G1 X88.882 Y219.12 E10.92009
G1 X88.305 Y218.38 E10.9513
G1 X87.793 Y217.594 E10.9825
G1 X87.35 Y216.767 E11.0137
G1 X86.979 Y215.906 E11.04489
G1 X86.683 Y215.016 E11.07608
G1 X86.464 Y214.104 E11.10728
G1 X86.323 Y213.177 E11.13846
G1 X86.263 Y212.288 E11.1681
G1 X86.254 Y211.955 E11.17918
G1 X86.25 Y211.658 E11.18906
G1 X86.251 Y23.525 E17.44639
G1 X86.26 Y22.86 E17.46851
G1 X86.313 Y21.924 E17.49969
G1 X86.445 Y20.995 E17.5309
G1 X86.656 Y20.081 E17.5621
G0 F6000 X87.055 Y20.139
G1 F1200 X87.342 Y19.264 E17.59273
G1 X87.705 Y18.418 E17.62334
G1 X88.139 Y17.606 E17.65397
G1 X88.642 Y16.835 E17.68459
G1 X89.211 Y16.111 E17.71521
G1 X89.839 Y15.439 E17.7458
G1 X90.524 Y14.823 E17.77644
G1 X91.26 Y14.27 E17.80706
G1 X92.041 Y13.782 E17.83769
G1 X92.861 Y13.364 E17.86831
G1 X93.715 Y13.019 E17.89894
G1 X94.595 Y12.749 E17.92956
G1 X95.495 Y12.557 E17.96016
G1 X96.409 Y12.443 E17.9908
G1 X96.962 Y12.413 E18.00922
G1 X97.283 Y12.404 E18.0199
G1 X97.58 Y12.4 E18.02978
G1 X137.043 Y12.4 E19.34232
G1 X137.893 Y12.411 E19.3706
G1 X138.812 Y12.464 E19.40121
G1 X139.723 Y12.597 E19.43184
G1 X140.619 Y12.808 E19.46245
G1 X141.493 Y13.096 E19.49306
G1 X142.34 Y13.459 E19.52371
G1 X143.151 Y13.894 E19.55432
G1 X143.921 Y14.398 E19.58493
G1 X144.645 Y14.967 E19.61555
G1 X145.317 Y15.597 E19.64619
G1 X145.932 Y16.282 E19.67681
G1 X146.485 Y17.018 E19.70743
G1 X146.972 Y17.799 E19.73804
G1 X147.389 Y18.62 E19.76867
G1 X147.734 Y19.474 E19.7993
G1 X148.003 Y20.354 E19.82991
G1 X148.195 Y21.255 E19.86055
G1 X148.308 Y22.168 E19.89115
G1 X148.337 Y22.712 E19.90926
G1 X148.346 Y23.032 E19.91991
G1 X148.35 Y23.33 E19.92982
G1 X148.349 Y211.395 E26.18489
G1 X148.34 Y212.122 E26.20907
G1 X148.289 Y213.041 E26.23969
G1 X148.158 Y213.953 E26.27033
G1 X147.948 Y214.849 E26.30094
G1 X147.662 Y215.724 E26.33156
G1 X147.301 Y216.571 E26.36218
G1 X146.867 Y217.383 E26.3928
G1 X146.365 Y218.155 E26.42343
G1 X145.797 Y218.88 E26.45406
G1 X145.169 Y219.553 E26.48468
G1 X144.485 Y220.169 E26.5153
G1 X143.75 Y220.723 E26.54591
G1 X142.97 Y221.212 E26.57653
G1 X142.15 Y221.631 E26.60716
G1 X141.297 Y221.977 E26.63777
G1 X140.417 Y222.248 E26.6684
G1 X139.517 Y222.441 E26.69901
G1 X138.603 Y222.556 E26.72965
G1 X138.038 Y222.587 E26.74847
G1 X137.717 Y222.596 E26.75915
G1 X137.42 Y222.6 E26.76903
G1 X97.82 Y222.599 E28.08613
G1 X97.122 Y222.59 E28.10935
G1 X96.203 Y222.538 E28.13997
G1 X95.292 Y222.407 E28.17058
G1 X94.396 Y222.197 E28.20119
G1 X93.521 Y221.91 E28.23181
G1 X92.674 Y221.548 E28.26245
G1 X91.862 Y221.114 E28.29307
G1 X91.091 Y220.612 E28.32367
G1 X90.366 Y220.044 E28.35431
G1 X89.693 Y219.415 E28.38494
G1 X89.078 Y218.731 E28.41554
G1 X88.524 Y217.996 E28.44615
G1 X88.036 Y217.215 E28.47678
G1 X87.617 Y216.395 E28.50741
G1 X87.271 Y215.542 E28.53802
G1 X87.001 Y214.662 E28.56864
G1 X86.808 Y213.761 E28.59929
G1 X86.694 Y212.848 E28.62989
G1 X86.663 Y212.277 E28.64891
G1 X86.654 Y211.944 E28.65999
G1 X86.65 Y211.658 E28.6695
G1 X86.651 Y23.531 E34.92663
G1 X86.66 Y22.866 E34.94875
G1 X86.712 Y21.946 E34.9794
G1 X86.844 Y21.035 E35.01002
G1 X87.055 Y20.139 E35.04063
G0 F6000 X87.454 Y20.198
G1 F1200 X87.741 Y19.341 E35.07069
G1 X88.103 Y18.514 E35.10072
G1 X88.536 Y17.722 E35.13074
G1 X89.038 Y16.971 E35.16079
G1 X89.605 Y16.267 E35.19085
G1 X90.231 Y15.617 E35.22087
G1 X90.912 Y15.024 E35.2509
G1 X91.644 Y14.494 E35.28096
G1 X92.419 Y14.031 E35.31098
G1 X93.232 Y13.638 E35.34102
G1 X94.077 Y13.318 E35.37107
G1 X94.946 Y13.075 E35.40108
G1 X95.834 Y12.909 E35.43113
G1 X96.973 Y12.813 E35.46915
G1 X97.294 Y12.804 E35.47983
G1 X97.58 Y12.8 E35.48934
G1 X137.043 Y12.8 E36.80188
G1 X137.887 Y12.811 E36.82996
G1 X138.789 Y12.864 E36.86001
G1 X139.682 Y12.996 E36.89004
G1 X140.56 Y13.207 E36.92007
G1 X141.416 Y13.495 E36.95011
G1 X142.243 Y13.857 E36.98013
G1 X143.035 Y14.292 E37.01019
G1 X143.786 Y14.794 E37.04023
G1 X144.489 Y15.361 E37.07027
G1 X145.139 Y15.988 E37.10031
G1 X145.731 Y16.67 E37.13035
G1 X146.261 Y17.401 E37.16038
G1 X146.723 Y18.177 E37.19042
G1 X147.116 Y18.99 E37.22045
G1 X147.434 Y19.835 E37.25048
G1 X147.677 Y20.705 E37.28052
G1 X147.842 Y21.593 E37.31056
G1 X147.937 Y22.723 E37.34828
G1 X147.946 Y23.043 E37.35893
G1 X147.95 Y23.33 E37.36847
G1 X147.949 Y211.39 E43.62337
G1 X147.94 Y212.117 E43.64756
G1 X147.889 Y213.019 E43.67761
G1 X147.758 Y213.913 E43.70766
G1 X147.549 Y214.791 E43.73768
G1 X147.263 Y215.648 E43.76773
G1 X146.902 Y216.476 E43.79777
G1 X146.47 Y217.268 E43.82777
G1 X145.969 Y218.02 E43.85783
G1 X145.403 Y218.724 E43.88787
G1 X144.778 Y219.375 E43.91789
G1 X144.097 Y219.969 E43.94794
G1 X143.366 Y220.5 E43.97799
G1 X142.592 Y220.964 E44.00801
G1 X141.779 Y221.358 E44.03806
G1 X140.935 Y221.678 E44.06808
G1 X140.065 Y221.923 E44.09814
G1 X139.178 Y222.089 E44.12816
G1 X138.027 Y222.187 E44.16658
G1 X137.706 Y222.196 E44.17726
G1 X137.42 Y222.2 E44.18677
G1 X97.825 Y222.199 E45.50371
G1 X97.127 Y222.19 E45.52692
G1 X96.226 Y222.139 E45.55694
G1 X95.332 Y222.007 E45.587
G1 X94.454 Y221.798 E45.61701
G1 X93.597 Y221.511 E45.64707
G1 X92.77 Y221.15 E45.67709
G1 X91.977 Y220.717 E45.70714
G1 X91.226 Y220.216 E45.73716
G1 X90.522 Y219.65 E45.76721
G1 X89.871 Y219.024 E45.79725
G1 X89.278 Y218.343 E45.82728
G1 X88.748 Y217.612 E45.85731
G1 X88.284 Y216.837 E45.88735
G1 X87.89 Y216.024 E45.9174
G1 X87.57 Y215.18 E45.94742
G1 X87.326 Y214.31 E45.97748
G1 X87.16 Y213.422 E46.00752
G1 X87.063 Y212.267 E46.04607
G1 X87.054 Y211.934 E46.05715
G1 X87.05 Y211.658 E46.06634
G1 X87.051 Y23.536 E52.3233
G1 X87.06 Y22.871 E52.34542
G1 X87.112 Y21.969 E52.37547
G1 X87.244 Y21.076 E52.40549
G1 X87.454 Y20.198 E52.43552
G1 F2700 E47.43552
;MESH:CE3_GibbonRackx12.stl
G0 F6000 X96.585 Y24.21
G0 X98.46 Y24.21
G0 X136.568 Y24.182
G0 X136.75 Y211
;TYPE:WALL-INNER
G1 F2700 E52.43552
G1 F1200 X98.25 Y211 E53.71603
G1 X98.25 Y24 E59.93568
G1 X136.75 Y24 E61.21619
G1 X136.75 Y211 E67.43584
G0 F6000 X137.15 Y211.4
G1 F1200 X97.85 Y211.4 E68.74296
G1 X97.85 Y23.6 E74.98922
G1 X137.15 Y23.6 E76.29634
G1 X137.15 Y211.4 E82.54259
G0 F6000 X137.55 Y211.8
;TYPE:WALL-OUTER
G1 F1200 X97.45 Y211.8 E83.87632
G1 X97.45 Y23.2 E90.14919
G1 X137.55 Y23.2 E91.48292
G1 X137.55 Y211.8 E97.75578
G0 F6000 X137.28 Y211.53
G0 X136.64 Y210.61
G0 X136.36 Y210.61
;TYPE:SKIN
G1 F1200 X98.64 Y210.61 E99.01035
G1 X98.64 Y24.39 E105.20405
G1 X136.36 Y24.39 E106.45863
G1 X136.36 Y210.61 E112.65233
G1 F2700 E107.65233
G0 F6000 X136.64 Y210.61
G0 X99.009 Y210.89
G0 X99.009 Y210.449
G1 F2700 E112.65233
G1 F1200 X98.799 Y210.239 E112.66221
G0 F6000 X98.799 Y209.673
G1 F1200 X99.574 Y210.449 E112.69868
G0 F6000 X100.14 Y210.449
G1 F1200 X98.799 Y209.107 E112.76178
G0 F6000 X98.799 Y208.542
G1 F1200 X100.706 Y210.449 E112.85148
G0 F6000 X101.271 Y210.449
G1 F1200 X98.799 Y207.976 E112.96778
G0 F6000 X98.799 Y207.41
G1 F1200 X101.837 Y210.449 E113.1107
G0 F6000 X102.403 Y210.449
G1 F1200 X98.799 Y206.844 E113.28025
G0 F6000 X98.799 Y206.279
G1 F1200 X102.968 Y210.449 E113.47637
G0 F6000 X103.534 Y210.449
G1 F1200 X98.799 Y205.713 E113.69911
G0 F6000 X98.799 Y205.147
G1 F1200 X104.1 Y210.449 E113.94848
G0 F6000 X104.665 Y210.449
G1 F1200 X98.799 Y204.582 E114.22442
G0 F6000 X98.799 Y204.016
G1 F1200 X105.231 Y210.449 E114.52699
G0 F6000 X105.797 Y210.449
G1 F1200 X98.799 Y203.45 E114.85617
G0 F6000 X98.799 Y202.885
G1 F1200 X106.363 Y210.449 E115.21196
G0 F6000 X106.928 Y210.449
G1 F1200 X98.799 Y202.319 E115.59435
G0 F6000 X98.799 Y201.753
G1 F1200 X107.494 Y210.449 E116.00336
G0 F6000 X108.06 Y210.449
G1 F1200 X98.799 Y201.188 E116.43897
G0 F6000 X98.799 Y200.622
G1 F1200 X108.625 Y210.449 E116.90117
G0 F6000 X109.191 Y210.449
G1 F1200 X98.799 Y200.056 E117.39001
G0 F6000 X98.799 Y199.491
G1 F1200 X109.757 Y210.449 E117.90544
G0 F6000 X110.322 Y210.449
G1 F1200 X98.799 Y198.925 E118.44747
G0 F6000 X98.799 Y198.359
G1 F1200 X110.888 Y210.449 E119.01612
G0 F6000 X111.454 Y210.449
G1 F1200 X98.799 Y197.794 E119.61137
G0 F6000 X98.799 Y197.228
G1 F1200 X112.019 Y210.449 E120.23322
G0 F6000 X112.585 Y210.449
G1 F1200 X98.799 Y196.662 E120.8817
G0 F6000 X98.799 Y196.096
G1 F1200 X113.151 Y210.449 E121.5568
G0 F6000 X113.716 Y210.449
G1 F1200 X98.799 Y195.531 E122.25847
G0 F6000 X98.799 Y194.965
G1 F1200 X114.282 Y210.449 E122.98677
G0 F6000 X114.848 Y210.449
G1 F1200 X98.799 Y194.399 E123.74169
G0 F6000 X98.799 Y193.834
G1 F1200 X115.413 Y210.449 E124.52318
G0 F6000 X115.979 Y210.449
G1 F1200 X98.799 Y193.268 E125.3313
G0 F6000 X98.799 Y192.702
G1 F1200 X116.545 Y210.449 E126.16604
G0 F6000 X117.111 Y210.449
G1 F1200 X98.799 Y192.137 E127.02738
G0 F6000 X98.799 Y191.571
G1 F1200 X117.676 Y210.449 E127.91532
G0 F6000 X118.242 Y210.449
G1 F1200 X98.799 Y191.005 E128.82988
G0 F6000 X98.799 Y190.44
G1 F1200 X118.808 Y210.449 E129.77104
G0 F6000 X119.373 Y210.449
G1 F1200 X98.799 Y189.874 E130.73881
G0 F6000 X98.799 Y189.308
G1 F1200 X119.939 Y210.449 E131.73319
G0 F6000 X120.505 Y210.449
G1 F1200 X98.799 Y188.743 E132.75417
G0 F6000 X98.799 Y188.177
G1 F1200 X121.07 Y210.449 E133.80176
G0 F6000 X121.636 Y210.449
G1 F1200 X98.799 Y187.611 E134.87596
G0 F6000 X98.799 Y187.046
G1 F1200 X122.202 Y210.449 E135.97677
G0 F6000 X122.767 Y210.449
G1 F1200 X98.799 Y186.48 E137.10417
G0 F6000 X98.799 Y185.914
G1 F1200 X123.333 Y210.449 E138.2582
G0 F6000 X123.899 Y210.449
G1 F1200 X98.799 Y185.348 E139.43885
G0 F6000 X98.799 Y184.783
G1 F1200 X124.464 Y210.449 E140.64608
G0 F6000 X125.03 Y210.449
G1 F1200 X98.799 Y184.217 E141.87993
G0 F6000 X98.799 Y183.651
G1 F1200 X125.596 Y210.449 E143.1404
G0 F6000 X126.161 Y210.449
G1 F1200 X98.799 Y183.086 E144.42745
G0 F6000 X98.799 Y182.52
G1 F1200 X126.727 Y210.449 E145.74112
G0 F6000 X127.293 Y210.449
G1 F1200 X98.799 Y181.954 E147.08141
G0 F6000 X98.799 Y181.389
G1 F1200 X127.859 Y210.449 E148.44831
G0 F6000 X128.424 Y210.449
G1 F1200 X98.799 Y180.823 E149.8418
G0 F6000 X98.799 Y180.257
G1 F1200 X128.99 Y210.449 E151.26191
G0 F6000 X129.556 Y210.449
G1 F1200 X98.799 Y179.692 E152.70863
G0 F6000 X98.799 Y179.126
G1 F1200 X130.121 Y210.449 E154.18194
G0 F6000 X130.687 Y210.449
G1 F1200 X98.799 Y178.56 E155.68188
G0 F6000 X98.799 Y177.995
G1 F1200 X131.253 Y210.449 E157.20842
G0 F6000 X131.818 Y210.449
G1 F1200 X98.799 Y177.429 E158.76155
G0 F6000 X98.799 Y176.863
G1 F1200 X132.384 Y210.449 E160.34131
G0 F6000 X132.95 Y210.449
G1 F1200 X98.799 Y176.297 E161.94769
G0 F6000 X98.799 Y175.732
G1 F1200 X133.515 Y210.449 E163.58065
G0 F6000 X134.081 Y210.449
G1 F1200 X98.799 Y175.166 E165.24023
G0 F6000 X98.799 Y174.6
G1 F1200 X134.647 Y210.449 E166.92644
G0 F6000 X135.212 Y210.449
G1 F1200 X98.799 Y174.035 E168.63922
G0 F6000 X98.799 Y173.469
G1 F1200 X135.778 Y210.449 E170.37862
G0 F6000 X136.2 Y210.304
G1 F1200 X98.799 Y172.903 E172.13785
G0 F6000 X98.799 Y172.338
G1 F1200 X136.2 Y209.739 E173.89707
G0 F6000 X136.2 Y209.173
G1 F1200 X98.799 Y171.772 E175.6563
G0 F6000 X98.799 Y171.206
G1 F1200 X136.2 Y208.607 E177.41553
G0 F6000 X136.2 Y208.042
G1 F1200 X98.799 Y170.641 E179.17476
G0 F6000 X98.799 Y170.075
G1 F1200 X136.2 Y207.476 E180.93399
G0 F6000 X136.2 Y206.91
G1 F1200 X98.799 Y169.509 E182.69322
G0 F6000 X98.799 Y168.944
G1 F1200 X136.2 Y206.345 E184.45244
G0 F6000 X136.2 Y205.779
G1 F1200 X98.799 Y168.378 E186.21167
G0 F6000 X98.799 Y167.812
G1 F1200 X136.2 Y205.213 E187.9709
G0 F6000 X136.2 Y204.648
G1 F1200 X98.799 Y167.247 E189.73013
G0 F6000 X98.799 Y166.681
G1 F1200 X136.2 Y204.082 E191.48936
G0 F6000 X136.2 Y203.516
G1 F1200 X98.799 Y166.115 E193.24859
G0 F6000 X98.799 Y165.549
G1 F1200 X136.2 Y202.95 E195.00781
G0 F6000 X136.2 Y202.385
G1 F1200 X98.799 Y164.984 E196.76704
G0 F6000 X98.799 Y164.418
G1 F1200 X136.2 Y201.819 E198.52627
G0 F6000 X136.2 Y201.253
G1 F1200 X98.799 Y163.852 E200.2855
G0 F6000 X98.799 Y163.287
G1 F1200 X136.2 Y200.688 E202.04473
G0 F6000 X136.2 Y200.122
G1 F1200 X98.799 Y162.721 E203.80396
G0 F6000 X98.799 Y162.155
G1 F1200 X136.2 Y199.556 E205.56318
G0 F6000 X136.2 Y198.991
G1 F1200 X98.799 Y161.59 E207.32241
G0 F6000 X98.799 Y161.024
G1 F1200 X136.2 Y198.425 E209.08164
G0 F6000 X136.2 Y197.859
G1 F1200 X98.799 Y160.458 E210.84087
G0 F6000 X98.799 Y159.893
G1 F1200 X136.2 Y197.294 E212.6001
G0 F6000 X136.2 Y196.728
G1 F1200 X98.799 Y159.327 E214.35933
G0 F6000 X98.799 Y158.761
G1 F1200 X136.2 Y196.162 E216.11856
G0 F6000 X136.2 Y195.597
G1 F1200 X98.799 Y158.196 E217.87778
G0 F6000 X98.799 Y157.63
G1 F1200 X136.2 Y195.031 E219.63701
G0 F6000 X136.2 Y194.465
G1 F1200 X98.799 Y157.064 E221.39624
G0 F6000 X98.799 Y156.498
G1 F1200 X136.2 Y193.899 E223.15547
G0 F6000 X136.2 Y193.334
G1 F1200 X98.799 Y155.933 E224.9147
G0 F6000 X98.799 Y155.367
G1 F1200 X136.2 Y192.768 E226.67393
G0 F6000 X136.2 Y192.202
G1 F1200 X98.799 Y154.801 E228.43315
G0 F6000 X98.799 Y154.236
G1 F1200 X136.2 Y191.637 E230.19238
G0 F6000 X136.2 Y191.071
G1 F1200 X98.799 Y153.67 E231.95161
G0 F6000 X98.799 Y153.104
G1 F1200 X136.2 Y190.505 E233.71084
G0 F6000 X136.2 Y189.94
G1 F1200 X98.799 Y152.539 E235.47007
G0 F6000 X98.799 Y151.973
G1 F1200 X136.2 Y189.374 E237.2293
G0 F6000 X136.2 Y188.808
