;FLAVOR:Marlin
;TIME:1089
;Filament used: 0.642497m
;Layer height: 0.16
;MINX:89.7
;MINY:103.2
;MINZ:0.2
;MAXX:145.3
;MAXY:131.8
;MAXZ:4.96
;Generated with Cura_SteamEngine 4.10.0
M140 S50
M105
M190 S50
M104 S200
M105
M109 S200
M82 ;absolute extrusion mode
; Ender 3 Custom Start G-code
G92 E0 ; Reset Extruder
G28 ; Home all axes
G1 Z2.0 F3000 ; Move Z Axis up little to prevent scratching of Heat Bed
G1 X0.1 Y20 Z0.3 F5000.0 ; Move to start position
G1 X0.1 Y200.0 Z0.3 F1500.0 E15 ; Draw the first line
G1 X0.4 Y200.0 Z0.3 F5000.0 ; Move to side a little
G1 X0.4 Y20 Z0.3 F1500.0 E30 ; Draw the second line
G92 E0 ; Reset Extruder
G1 Z2.0 F3000 ; Move Z Axis up little to prevent scratching of Heat Bed
G1 X5 Y20 Z0.3 F5000.0 ; Move over to prevent blob squish
G92 E0
G92 E0
G1 F2700 E-5
;LAYER_COUNT:27
;LAYER:0
M107
G0 F6000 X92.688 Y104.955 Z0.2
;TYPE:SKIRT
G1 F2700 E0
G1 F1200 X93.324 Y104.488 E0.02624
G1 X94.004 Y104.087 E0.0525
G1 X94.722 Y103.757 E0.07878
G1 X95.469 Y103.502 E0.10504
G1 X96.238 Y103.323 E0.1313
G1 X97.022 Y103.223 E0.15758
G1 X97.617 Y103.2 E0.17739
G1 X137.383 Y103.2 E1.50001
G1 X138.172 Y103.24 E1.52629
G1 X138.952 Y103.359 E1.55253
G1 X139.717 Y103.557 E1.57881
G1 X140.457 Y103.831 E1.60506
G1 X141.166 Y104.179 E1.63133
G1 X141.837 Y104.597 E1.65762
G1 X142.461 Y105.08 E1.68387
G1 X142.898 Y105.485 E1.70368
G1 X143.015 Y105.602 E1.70919
G1 X143.545 Y106.188 E1.73547
G1 X144.012 Y106.824 E1.76171
G1 X144.413 Y107.504 E1.78797
G1 X144.743 Y108.222 E1.81425
G1 X144.998 Y108.969 E1.8405
G1 X145.177 Y109.738 E1.86676
G1 X145.277 Y110.522 E1.89305
G1 X145.3 Y111.117 E1.91285
G1 X145.3 Y123.883 E2.33745
G1 X145.26 Y124.672 E2.36373
G1 X145.141 Y125.452 E2.38997
G1 X144.943 Y126.217 E2.41625
G1 X144.669 Y126.957 E2.4425
G1 X144.321 Y127.666 E2.46877
G1 X143.903 Y128.337 E2.49506
G1 X143.42 Y128.961 E2.52131
G1 X143.015 Y129.398 E2.54112
G1 X142.898 Y129.515 E2.54663
G1 X142.312 Y130.045 E2.57291
G1 X141.676 Y130.512 E2.59915
G1 X140.996 Y130.913 E2.62541
G1 X140.278 Y131.243 E2.65169
G1 X139.531 Y131.498 E2.67794
G1 X138.762 Y131.677 E2.7042
G1 X137.978 Y131.777 E2.73049
G1 X137.383 Y131.8 E2.7503
G1 X97.617 Y131.8 E4.07292
G1 X96.828 Y131.76 E4.09919
G1 X96.048 Y131.641 E4.12544
G1 X95.283 Y131.443 E4.15172
G1 X94.543 Y131.169 E4.17796
G1 X93.834 Y130.821 E4.20423
G1 X93.163 Y130.403 E4.23053
G1 X92.539 Y129.92 E4.25677
G1 X92.102 Y129.515 E4.27659
G1 X91.985 Y129.398 E4.28209
G1 X91.455 Y128.812 E4.30837
G1 X90.988 Y128.176 E4.33462
G1 X90.587 Y127.496 E4.36087
G1 X90.257 Y126.778 E4.38715
G1 X90.002 Y126.031 E4.41341
G1 X89.823 Y125.262 E4.43967
G1 X89.723 Y124.478 E4.46596
G1 X89.7 Y123.883 E4.48576
G1 X89.7 Y111.117 E4.91036
G1 X89.74 Y110.328 E4.93664
G1 X89.859 Y109.548 E4.96288
G1 X90.057 Y108.783 E4.98916
G1 X90.331 Y108.043 E5.01541
G1 X90.679 Y107.334 E5.04168
G1 X91.097 Y106.663 E5.06797
G1 X91.58 Y106.039 E5.09421
G1 X91.985 Y105.602 E5.11403
G1 X92.102 Y105.485 E5.11953
G1 X92.688 Y104.955 E5.14581
G0 F6000 X92.956 Y105.253
G1 F1200 X93.578 Y104.8 E5.17141
G1 X94.243 Y104.414 E5.19698
G1 X94.945 Y104.099 E5.22257
G1 X95.676 Y103.859 E5.24816
G1 X96.427 Y103.696 E5.27372
G1 X97.192 Y103.612 E5.29932
G1 X97.617 Y103.6 E5.31346
G1 X137.383 Y103.6 E6.63608
G1 X138.151 Y103.64 E6.66166
G1 X138.911 Y103.759 E6.68725
G1 X139.654 Y103.957 E6.71282
G1 X140.373 Y104.231 E6.73841
G1 X141.059 Y104.578 E6.76398
G1 X141.706 Y104.994 E6.78957
G1 X142.306 Y105.475 E6.81514
G1 X142.616 Y105.767 E6.82931
G1 X142.733 Y105.884 E6.83481
G1 X143.247 Y106.456 E6.86039
G1 X143.7 Y107.078 E6.88598
G1 X144.086 Y107.743 E6.91156
G1 X144.401 Y108.445 E6.93715
G1 X144.641 Y109.176 E6.96274
G1 X144.804 Y109.927 E6.9883
G1 X144.888 Y110.692 E7.01389
G1 X144.9 Y111.117 E7.02804
G1 X144.9 Y123.883 E7.45263
G1 X144.86 Y124.651 E7.47821
G1 X144.741 Y125.411 E7.5038
G1 X144.543 Y126.154 E7.52937
G1 X144.269 Y126.873 E7.55496
G1 X143.922 Y127.559 E7.58053
G1 X143.506 Y128.206 E7.60612
G1 X143.025 Y128.806 E7.63169
G1 X142.733 Y129.116 E7.64586
G1 X142.616 Y129.233 E7.65136
G1 X142.044 Y129.747 E7.67694
G1 X141.422 Y130.2 E7.70253
G1 X140.757 Y130.586 E7.72811
G1 X140.055 Y130.901 E7.7537
G1 X139.324 Y131.141 E7.77929
G1 X138.573 Y131.304 E7.80485
G1 X137.808 Y131.388 E7.83044
G1 X137.383 Y131.4 E7.84459
G1 X97.617 Y131.4 E9.16721
G1 X96.849 Y131.36 E9.19279
G1 X96.089 Y131.241 E9.21837
G1 X95.346 Y131.043 E9.24395
G1 X94.627 Y130.769 E9.26954
G1 X93.941 Y130.422 E9.29511
G1 X93.294 Y130.006 E9.32069
G1 X92.694 Y129.525 E9.34627
G1 X92.384 Y129.233 E9.36043
G1 X92.267 Y129.116 E9.36594
G1 X91.753 Y128.544 E9.39151
G1 X91.3 Y127.922 E9.41711
G1 X90.914 Y127.257 E9.44268
G1 X90.599 Y126.555 E9.46827
G1 X90.359 Y125.824 E9.49386
G1 X90.196 Y125.073 E9.51942
G1 X90.112 Y124.308 E9.54502
G1 X90.1 Y123.883 E9.55916
G1 X90.1 Y111.117 E9.98376
G1 X90.14 Y110.349 E10.00934
G1 X90.259 Y109.589 E10.03492
G1 X90.457 Y108.846 E10.0605
G1 X90.731 Y108.127 E10.08609
G1 X91.078 Y107.441 E10.11166
G1 X91.494 Y106.794 E10.13724
G1 X91.975 Y106.194 E10.16282
G1 X92.267 Y105.884 E10.17698
G1 X92.384 Y105.767 E10.18249
G1 X92.956 Y105.253 E10.20807
G0 F6000 X93.224 Y105.55
G1 F1200 X93.83 Y105.113 E10.23291
G1 X94.48 Y104.742 E10.25781
G1 X95.166 Y104.443 E10.2827
G1 X95.88 Y104.219 E10.30759
G1 X96.613 Y104.072 E10.33245
G1 X97.617 Y104 E10.36593
G1 X137.383 Y104 E11.68855
G1 X138.13 Y104.04 E11.71343
G1 X138.868 Y104.159 E11.7383
G1 X139.59 Y104.357 E11.7632
G1 X140.286 Y104.63 E11.78806
G1 X140.949 Y104.977 E11.81295
G1 X141.572 Y105.392 E11.83785
G1 X142.333 Y106.05 E11.87131
G1 X142.45 Y106.167 E11.87681
G1 X142.95 Y106.724 E11.90171
G1 X143.387 Y107.33 E11.92656
G1 X143.758 Y107.98 E11.95145
G1 X144.057 Y108.666 E11.97634
G1 X144.281 Y109.38 E12.00123
G1 X144.428 Y110.113 E12.02609
G1 X144.5 Y111.117 E12.05957
G1 X144.5 Y123.883 E12.48417
G1 X144.46 Y124.63 E12.50905
G1 X144.341 Y125.368 E12.53392
G1 X144.143 Y126.09 E12.55882
G1 X143.87 Y126.786 E12.58368
G1 X143.523 Y127.449 E12.60857
G1 X143.108 Y128.072 E12.63347
G1 X142.45 Y128.833 E12.66693
G1 X142.333 Y128.95 E12.67243
G1 X141.776 Y129.45 E12.69733
G1 X141.17 Y129.887 E12.72218
G1 X140.52 Y130.258 E12.74707
G1 X139.834 Y130.557 E12.77196
G1 X139.12 Y130.781 E12.79685
G1 X138.387 Y130.928 E12.82171
G1 X137.383 Y131 E12.85519
G1 X97.617 Y131 E14.17782
G1 X96.87 Y130.96 E14.2027
G1 X96.132 Y130.841 E14.22756
G1 X95.41 Y130.643 E14.25246
G1 X94.714 Y130.37 E14.27733
G1 X94.051 Y130.023 E14.30222
G1 X93.428 Y129.608 E14.32711
G1 X92.667 Y128.95 E14.36057
G1 X92.55 Y128.833 E14.36608
G1 X92.05 Y128.276 E14.39097
G1 X91.613 Y127.67 E14.41582
G1 X91.242 Y127.02 E14.44071
G1 X90.943 Y126.334 E14.4656
G1 X90.719 Y125.62 E14.49049
G1 X90.572 Y124.887 E14.51536
G1 X90.5 Y123.883 E14.54884
G1 X90.5 Y111.117 E14.97344
G1 X90.54 Y110.37 E14.99832
G1 X90.659 Y109.632 E15.02318
G1 X90.857 Y108.91 E15.04808
G1 X91.13 Y108.214 E15.07295
G1 X91.477 Y107.551 E15.09784
G1 X91.892 Y106.928 E15.12273
G1 X92.55 Y106.167 E15.15619
G1 X92.667 Y106.05 E15.1617
G1 X93.224 Y105.55 E15.18659
G0 F6000 X93.491 Y105.849
G1 F1200 X94.082 Y105.426 E15.21077
G1 X94.716 Y105.072 E15.23492
G1 X95.385 Y104.789 E15.25908
G1 X96.081 Y104.581 E15.28324
G1 X96.796 Y104.451 E15.30741
G1 X97.617 Y104.4 E15.33477
G1 X137.383 Y104.4 E16.65739
G1 X138.108 Y104.44 E16.68154
G1 X138.825 Y104.559 E16.70571
G1 X139.524 Y104.757 E16.72988
G1 X140.197 Y105.03 E16.75403
G1 X140.836 Y105.375 E16.77819
G1 X141.433 Y105.789 E16.80235
G1 X142.05 Y106.333 E16.82971
G1 X142.167 Y106.45 E16.83521
G1 X142.651 Y106.991 E16.85936
G1 X143.074 Y107.582 E16.88353
G1 X143.428 Y108.216 E16.90768
G1 X143.711 Y108.885 E16.93184
G1 X143.919 Y109.581 E16.956
G1 X144.049 Y110.296 E16.98017
G1 X144.1 Y111.117 E17.00753
G1 X144.1 Y123.883 E17.43213
G1 X144.06 Y124.608 E17.45628
G1 X143.941 Y125.325 E17.48045
G1 X143.743 Y126.024 E17.50462
G1 X143.47 Y126.697 E17.52877
G1 X143.125 Y127.336 E17.55293
G1 X142.711 Y127.933 E17.57709
G1 X142.167 Y128.55 E17.60445
G1 X142.05 Y128.667 E17.60995
G1 X141.509 Y129.151 E17.6341
G1 X140.918 Y129.574 E17.65827
G1 X140.284 Y129.928 E17.68242
G1 X139.615 Y130.211 E17.70658
G1 X138.919 Y130.419 E17.73074
G1 X138.204 Y130.549 E17.75491
G1 X137.383 Y130.6 E17.78227
G1 X97.617 Y130.6 E19.10489
G1 X96.892 Y130.56 E19.12904
G1 X96.175 Y130.441 E19.15322
G1 X95.476 Y130.243 E19.17738
G1 X94.803 Y129.97 E19.20154
G1 X94.164 Y129.625 E19.22569
G1 X93.567 Y129.211 E19.24985
G1 X92.95 Y128.667 E19.27721
G1 X92.833 Y128.55 E19.28271
G1 X92.349 Y128.009 E19.30686
G1 X91.926 Y127.418 E19.33103
G1 X91.572 Y126.784 E19.35518
G1 X91.289 Y126.115 E19.37934
G1 X91.081 Y125.419 E19.4035
G1 X90.951 Y124.704 E19.42767
G1 X90.9 Y123.883 E19.45503
G1 X90.9 Y111.117 E19.87963
G1 X90.94 Y110.392 E19.90378
G1 X91.059 Y109.675 E19.92796
G1 X91.257 Y108.976 E19.95212
G1 X91.53 Y108.303 E19.97628
G1 X91.875 Y107.664 E20.00043
G1 X92.289 Y107.067 E20.02459
G1 X92.833 Y106.45 E20.05195
G1 X92.95 Y106.333 E20.05745
G1 X93.491 Y105.849 E20.0816
G0 F6000 X93.758 Y106.147
G1 F1200 X94.333 Y105.741 E20.10501
G1 X94.951 Y105.403 E20.12844
G1 X95.602 Y105.136 E20.15184
G1 X96.28 Y104.946 E20.17526
G1 X96.975 Y104.833 E20.19868
G1 X97.617 Y104.8 E20.22006
G1 X137.383 Y104.8 E21.54268
G1 X138.086 Y104.84 E21.5661
G1 X138.78 Y104.959 E21.58952
G1 X139.455 Y105.157 E21.61292
G1 X140.104 Y105.429 E21.63632
G1 X140.718 Y105.774 E21.65975
G1 X141.289 Y106.185 E21.68315
G1 X141.767 Y106.616 E21.70455
G1 X141.884 Y106.733 E21.71006
G1 X142.353 Y107.258 E21.73347
G1 X142.759 Y107.833 E21.75688
G1 X143.097 Y108.451 E21.78031
G1 X143.364 Y109.102 E21.80371
G1 X143.554 Y109.78 E21.82713
G1 X143.667 Y110.475 E21.85055
G1 X143.7 Y111.117 E21.87193
G1 X143.7 Y123.883 E22.29653
G1 X143.66 Y124.586 E22.31995
G1 X143.541 Y125.28 E22.34337
G1 X143.343 Y125.955 E22.36677
G1 X143.071 Y126.604 E22.39017
G1 X142.726 Y127.218 E22.4136
G1 X142.315 Y127.789 E22.437
G1 X141.884 Y128.267 E22.4584
G1 X141.767 Y128.384 E22.46391
G1 X141.242 Y128.853 E22.48732
G1 X140.667 Y129.259 E22.51073
G1 X140.049 Y129.597 E22.53416
G1 X139.398 Y129.864 E22.55756
G1 X138.72 Y130.054 E22.58098
G1 X138.025 Y130.167 E22.6044
G1 X137.383 Y130.2 E22.62578
G1 X97.617 Y130.2 E23.94841
G1 X96.914 Y130.16 E23.97183
G1 X96.22 Y130.041 E23.99525
G1 X95.545 Y129.843 E24.01864
G1 X94.896 Y129.571 E24.04205
G1 X94.282 Y129.226 E24.06547
G1 X93.711 Y128.815 E24.08887
G1 X93.233 Y128.384 E24.11028
G1 X93.116 Y128.267 E24.11578
G1 X92.647 Y127.742 E24.1392
G1 X92.241 Y127.167 E24.16261
G1 X91.903 Y126.549 E24.18604
G1 X91.636 Y125.898 E24.20944
G1 X91.446 Y125.22 E24.23286
G1 X91.333 Y124.525 E24.25628
G1 X91.3 Y123.883 E24.27766
G1 X91.3 Y111.117 E24.70226
G1 X91.34 Y110.414 E24.72568
G1 X91.459 Y109.72 E24.7491
G1 X91.657 Y109.045 E24.77249
G1 X91.929 Y108.396 E24.7959
G1 X92.274 Y107.782 E24.81932
G1 X92.685 Y107.211 E24.84272
G1 X93.116 Y106.733 E24.86413
G1 X93.233 Y106.616 E24.86963
G1 X93.758 Y106.147 E24.89305
G0 F6000 X94.025 Y106.446
G1 F1200 X94.583 Y106.057 E24.91567
G1 X95.183 Y105.735 E24.93832
G1 X95.817 Y105.486 E24.96097
G1 X96.476 Y105.313 E24.98363
G1 X97.15 Y105.219 E25.00627
G1 X97.617 Y105.2 E25.02181
G1 X137.383 Y105.2 E26.34444
G1 X138.063 Y105.24 E26.36709
G1 X138.733 Y105.359 E26.38973
G1 X139.385 Y105.556 E26.41238
G1 X140.009 Y105.828 E26.43502
G1 X140.597 Y106.172 E26.45768
G1 X141.141 Y106.582 E26.48033
G1 X141.484 Y106.899 E26.49587
G1 X141.601 Y107.016 E26.50137
G1 X142.054 Y107.525 E26.52404
G1 X142.443 Y108.083 E26.54666
G1 X142.765 Y108.683 E26.56931
G1 X143.014 Y109.317 E26.59196
G1 X143.187 Y109.976 E26.61462
G1 X143.281 Y110.65 E26.63726
G1 X143.3 Y111.117 E26.6528
G1 X143.3 Y123.883 E27.0774
G1 X143.26 Y124.563 E27.10006
G1 X143.141 Y125.233 E27.12269
G1 X142.944 Y125.885 E27.14535
G1 X142.672 Y126.509 E27.16799
G1 X142.328 Y127.097 E27.19064
G1 X141.918 Y127.641 E27.2133
G1 X141.601 Y127.984 E27.22883
G1 X141.484 Y128.101 E27.23434
G1 X140.975 Y128.554 E27.257
G1 X140.417 Y128.943 E27.27962
G1 X139.817 Y129.265 E27.30227
G1 X139.183 Y129.514 E27.32493
G1 X138.524 Y129.687 E27.34759
G1 X137.85 Y129.781 E27.37022
G1 X137.383 Y129.8 E27.38577
G1 X97.617 Y129.8 E28.70839
G1 X96.937 Y129.76 E28.73105
G1 X96.267 Y129.641 E28.75368
G1 X95.615 Y129.444 E28.77633
G1 X94.991 Y129.172 E28.79897
G1 X94.403 Y128.828 E28.82163
G1 X93.859 Y128.418 E28.84429
G1 X93.516 Y128.101 E28.85982
G1 X93.399 Y127.984 E28.86533
G1 X92.946 Y127.475 E28.88799
G1 X92.557 Y126.917 E28.91061
G1 X92.235 Y126.317 E28.93326
G1 X91.986 Y125.683 E28.95592
G1 X91.813 Y125.024 E28.97858
G1 X91.719 Y124.35 E29.00121
G1 X91.7 Y123.883 E29.01676
G1 X91.7 Y111.117 E29.44136
G1 X91.74 Y110.437 E29.46401
G1 X91.859 Y109.767 E29.48665
G1 X92.056 Y109.115 E29.5093
G1 X92.328 Y108.491 E29.53194
G1 X92.672 Y107.903 E29.5546
G1 X93.082 Y107.359 E29.57725
G1 X93.399 Y107.016 E29.59279
G1 X93.516 Y106.899 E29.59829
G1 X94.025 Y106.446 E29.62096
G0 F6000 X94.291 Y106.746
G1 F1200 X94.832 Y106.374 E29.64279
G1 X95.414 Y106.07 E29.66463
G1 X96.029 Y105.839 E29.68648
G1 X96.668 Y105.684 E29.70835
G1 X97.617 Y105.6 E29.74004
G1 X137.383 Y105.6 E31.06266
G1 X138.039 Y105.64 E31.08452
G1 X138.685 Y105.759 E31.10637
G1 X139.312 Y105.956 E31.12823
G1 X139.91 Y106.228 E31.15008
G1 X140.471 Y106.57 E31.17193
G1 X141.201 Y107.182 E31.20361
G1 X141.318 Y107.299 E31.20912
G1 X141.754 Y107.791 E31.23098
G1 X142.126 Y108.332 E31.25282
G1 X142.43 Y108.914 E31.27466
G1 X142.661 Y109.529 E31.29651
G1 X142.816 Y110.168 E31.31838
G1 X142.9 Y111.117 E31.35007
G1 X142.9 Y123.883 E31.77466
G1 X142.86 Y124.539 E31.79652
G1 X142.741 Y125.185 E31.81837
G1 X142.544 Y125.812 E31.84023
G1 X142.272 Y126.41 E31.86208
G1 X141.93 Y126.971 E31.88393
G1 X141.318 Y127.701 E31.91562
G1 X141.201 Y127.818 E31.92112
G1 X140.709 Y128.254 E31.94299
G1 X140.168 Y128.626 E31.96482
G1 X139.586 Y128.93 E31.98666
G1 X138.971 Y129.161 E32.00851
G1 X138.332 Y129.316 E32.03038
G1 X137.383 Y129.4 E32.06207
G1 X97.617 Y129.4 E33.38469
G1 X96.961 Y129.36 E33.40655
G1 X96.315 Y129.241 E33.4284
G1 X95.688 Y129.044 E33.45026
G1 X95.09 Y128.772 E33.47211
G1 X94.529 Y128.43 E33.49396
G1 X93.799 Y127.818 E33.52564
G1 X93.682 Y127.701 E33.53115
G1 X93.246 Y127.209 E33.55301
G1 X92.874 Y126.668 E33.57485
G1 X92.57 Y126.086 E33.59669
G1 X92.339 Y125.471 E33.61854
G1 X92.184 Y124.832 E33.64041
G1 X92.1 Y123.883 E33.67209
G1 X92.1 Y111.117 E34.09669
G1 X92.14 Y110.461 E34.11855
G1 X92.259 Y109.815 E34.1404
G1 X92.456 Y109.188 E34.16226
G1 X92.728 Y108.59 E34.18411
G1 X93.07 Y108.029 E34.20596
G1 X93.682 Y107.299 E34.23765
G1 X93.799 Y107.182 E34.24315
G1 X94.291 Y106.746 E34.26501
G0 F6000 X94.556 Y107.047
G1 F1200 X95.079 Y106.692 E34.28604
G1 X95.643 Y106.406 E34.30707
G1 X96.238 Y106.194 E34.32808
G1 X96.856 Y106.058 E34.34913
G1 X97.617 Y106 E34.37451
G1 X137.383 Y106 E35.69713
G1 X138.014 Y106.04 E35.71816
G1 X138.635 Y106.159 E35.73919
G1 X139.235 Y106.356 E35.7602
G1 X139.807 Y106.627 E35.78125
G1 X140.339 Y106.967 E35.80225
G1 X140.919 Y107.464 E35.82765
G1 X141.036 Y107.581 E35.83316
G1 X141.453 Y108.056 E35.85418
G1 X141.808 Y108.579 E35.8752
G1 X142.094 Y109.143 E35.89624
G1 X142.306 Y109.738 E35.91724
G1 X142.442 Y110.356 E35.93829
G1 X142.5 Y111.117 E35.96367
G1 X142.5 Y123.883 E36.38827
G1 X142.46 Y124.514 E36.4093
G1 X142.341 Y125.135 E36.43033
G1 X142.144 Y125.735 E36.45134
G1 X141.873 Y126.307 E36.47239
G1 X141.533 Y126.839 E36.49339
G1 X141.036 Y127.419 E36.51879
G1 X140.919 Y127.536 E36.5243
G1 X140.444 Y127.953 E36.54532
G1 X139.921 Y128.308 E36.56634
G1 X139.357 Y128.594 E36.58738
G1 X138.762 Y128.806 E36.60838
G1 X138.144 Y128.942 E36.62943
G1 X137.383 Y129 E36.65482
G1 X97.617 Y129 E37.97744
G1 X96.986 Y128.96 E37.99847
G1 X96.365 Y128.841 E38.0195
G1 X95.765 Y128.644 E38.0405
G1 X95.193 Y128.373 E38.06155
G1 X94.661 Y128.033 E38.08255
G1 X94.081 Y127.536 E38.10796
G1 X93.964 Y127.419 E38.11346
G1 X93.547 Y126.944 E38.13448
G1 X93.192 Y126.421 E38.15551
G1 X92.906 Y125.857 E38.17654
G1 X92.694 Y125.262 E38.19755
G1 X92.558 Y124.644 E38.2186
