;FLAVOR:Marlin
;TIME:4426
;Filament used: 4.37896m
;Layer height: 0.28
;MINX:58
;MINY:90.75
;MINZ:0.28
;MAXX:177
;MAXY:144.25
;MAXZ:11.2
;Generated with Cura_SteamEngine 4.10.0
M140 S50
M105
M190 S50
M104 S200
M105
M109 S200
M82 ;absolute extrusion mode
; Ender 3 Custom Start G-code
G92 E0 ; Reset Extruder
G28 ; Home all axes
G1 Z2.0 F3000 ; Move Z Axis up little to prevent scratching of Heat Bed
G1 X0.1 Y20 Z0.3 F5000.0 ; Move to start position
G1 X0.1 Y200.0 Z0.3 F1500.0 E15 ; Draw the first line
G1 X0.4 Y200.0 Z0.3 F5000.0 ; Move to side a little
G1 X0.4 Y20 Z0.3 F1500.0 E30 ; Draw the second line
G92 E0 ; Reset Extruder
G1 Z2.0 F3000 ; Move Z Axis up little to prevent scratching of Heat Bed
G1 X5 Y20 Z0.3 F5000.0 ; Move over to prevent blob squish
G92 E0
G92 E0
G1 F2700 E-5
;LAYER_COUNT:40
;LAYER:0
M107
G0 F6000 X62.626 Y92.801 Z0.28
;TYPE:SKIRT
G1 F2700 E0
G1 F1200 X63.412 Y92.289 E0.04368
G1 X64.239 Y91.847 E0.08734
G1 X65.101 Y91.477 E0.13102
G1 X65.991 Y91.181 E0.1747
G1 X66.903 Y90.963 E0.21836
G1 X67.83 Y90.822 E0.26202
G1 X68.701 Y90.763 E0.30267
G1 X69.022 Y90.754 E0.31762
G1 X69.33 Y90.75 E0.33197
G1 X165.293 Y90.75 E4.80041
G1 X166.149 Y90.761 E4.84027
G1 X167.085 Y90.815 E4.88393
G1 X168.013 Y90.947 E4.92757
G1 X168.927 Y91.159 E4.97126
G1 X169.819 Y91.448 E5.01492
G1 X170.684 Y91.811 E5.0586
G1 X171.514 Y92.247 E5.10226
G1 X172.305 Y92.752 E5.14596
G1 X173.049 Y93.323 E5.18963
G1 X173.742 Y93.955 E5.2333
G1 X174.379 Y94.643 E5.27696
G1 X174.954 Y95.384 E5.32063
G1 X175.465 Y96.17 E5.36429
G1 X175.907 Y96.998 E5.40799
G1 X176.276 Y97.86 E5.45165
G1 X176.571 Y98.75 E5.49531
G1 X176.789 Y99.662 E5.53898
G1 X176.929 Y100.59 E5.58268
G1 X176.987 Y101.451 E5.62286
G1 X176.996 Y101.771 E5.63777
G1 X177 Y102.08 E5.65216
G1 X176.999 Y132.65 E7.07562
G1 X176.99 Y133.377 E7.10948
G1 X176.939 Y134.314 E7.15317
G1 X176.807 Y135.242 E7.19682
G1 X176.598 Y136.156 E7.24048
G1 X176.311 Y137.049 E7.28415
G1 X175.949 Y137.915 E7.32786
G1 X175.515 Y138.746 E7.37151
G1 X175.011 Y139.537 E7.41519
G1 X174.442 Y140.282 E7.45884
G1 X173.811 Y140.977 E7.50255
G1 X173.124 Y141.615 E7.54621
G1 X172.385 Y142.192 E7.58986
G1 X171.599 Y142.704 E7.63354
G1 X170.773 Y143.147 E7.67719
G1 X169.911 Y143.519 E7.7209
G1 X169.022 Y143.815 E7.76453
G1 X168.11 Y144.035 E7.80822
G1 X167.183 Y144.176 E7.85188
G1 X166.299 Y144.237 E7.89314
G1 X165.978 Y144.246 E7.90809
G1 X165.67 Y144.25 E7.92244
G1 X69.565 Y144.249 E12.39749
G1 X68.867 Y144.24 E12.42999
G1 X67.931 Y144.188 E12.47364
G1 X67.002 Y144.056 E12.51734
G1 X66.088 Y143.846 E12.56101
G1 X65.195 Y143.559 E12.60468
G1 X64.33 Y143.196 E12.64836
G1 X63.499 Y142.762 E12.69202
G1 X62.708 Y142.258 E12.73569
G1 X61.963 Y141.688 E12.77937
G1 X61.269 Y141.057 E12.82305
G1 X60.632 Y140.37 E12.86667
G1 X60.055 Y139.63 E12.91036
G1 X59.543 Y138.844 E12.95404
G1 X59.1 Y138.017 E12.99773
G1 X58.729 Y137.156 E13.04139
G1 X58.433 Y136.266 E13.08506
G1 X58.214 Y135.354 E13.12873
G1 X58.073 Y134.427 E13.17239
G1 X58.013 Y133.538 E13.21388
G1 X58.004 Y133.205 E13.2294
G1 X58 Y132.908 E13.24323
G1 X58.001 Y102.275 E14.66963
G1 X58.01 Y101.61 E14.7006
G1 X58.063 Y100.674 E14.74425
G1 X58.195 Y99.745 E14.78794
G1 X58.406 Y98.831 E14.83162
G1 X58.694 Y97.939 E14.87527
G1 X59.057 Y97.074 E14.91895
G1 X59.492 Y96.243 E14.96262
G1 X59.996 Y95.453 E15.00626
G1 X60.566 Y94.708 E15.04994
G1 X61.198 Y94.014 E15.09365
G1 X61.886 Y93.377 E15.1373
G1 X62.626 Y92.801 E15.18097
G0 F6000 X63.01 Y93.02
G1 F1200 X63.791 Y92.532 E15.22385
G1 X64.611 Y92.114 E15.26671
G1 X65.465 Y91.769 E15.3096
G1 X66.345 Y91.499 E15.35246
G1 X67.245 Y91.307 E15.39531
G1 X68.159 Y91.193 E15.4382
G1 X68.712 Y91.163 E15.46399
G1 X69.033 Y91.154 E15.47894
G1 X69.33 Y91.15 E15.49277
G1 X165.293 Y91.15 E19.96121
G1 X166.143 Y91.161 E20.00079
G1 X167.062 Y91.214 E20.04366
G1 X167.973 Y91.347 E20.08653
G1 X168.869 Y91.558 E20.12939
G1 X169.743 Y91.846 E20.17224
G1 X170.59 Y92.209 E20.21515
G1 X171.401 Y92.644 E20.258
G1 X172.171 Y93.148 E20.30085
G1 X172.895 Y93.717 E20.34373
G1 X173.567 Y94.347 E20.38662
G1 X174.182 Y95.032 E20.42949
G1 X174.735 Y95.768 E20.47236
G1 X175.222 Y96.549 E20.51521
G1 X175.639 Y97.37 E20.55809
G1 X175.984 Y98.224 E20.60098
G1 X176.253 Y99.104 E20.64383
G1 X176.445 Y100.005 E20.68672
G1 X176.558 Y100.918 E20.72956
G1 X176.587 Y101.462 E20.75493
G1 X176.596 Y101.782 E20.76983
G1 X176.6 Y102.08 E20.78371
G1 X176.599 Y132.645 E22.20695
G1 X176.59 Y133.372 E22.2408
G1 X176.539 Y134.291 E22.28366
G1 X176.408 Y135.203 E22.32656
G1 X176.198 Y136.099 E22.36941
G1 X175.912 Y136.974 E22.41228
G1 X175.551 Y137.821 E22.45515
G1 X175.117 Y138.633 E22.49802
G1 X174.615 Y139.405 E22.5409
G1 X174.047 Y140.13 E22.58379
G1 X173.419 Y140.803 E22.62665
G1 X172.735 Y141.419 E22.66951
G1 X172 Y141.973 E22.71237
G1 X171.22 Y142.462 E22.75524
G1 X170.4 Y142.881 E22.79812
G1 X169.547 Y143.227 E22.84098
G1 X168.667 Y143.498 E22.88385
G1 X167.767 Y143.691 E22.92671
G1 X166.853 Y143.806 E22.96961
G1 X166.288 Y143.837 E22.99596
G1 X165.967 Y143.846 E23.01091
G1 X165.67 Y143.85 E23.02474
G1 X69.57 Y143.849 E27.49956
G1 X68.872 Y143.84 E27.53207
G1 X67.953 Y143.788 E27.57493
G1 X67.042 Y143.657 E27.61778
G1 X66.146 Y143.447 E27.66063
G1 X65.271 Y143.16 E27.70351
G1 X64.424 Y142.798 E27.74641
G1 X63.612 Y142.364 E27.78928
G1 X62.841 Y141.862 E27.83212
G1 X62.116 Y141.294 E27.875
G1 X61.443 Y140.665 E27.9179
G1 X60.828 Y139.981 E27.96073
G1 X60.274 Y139.246 E28.00359
G1 X59.786 Y138.465 E28.04647
G1 X59.367 Y137.645 E28.08935
G1 X59.021 Y136.792 E28.13221
G1 X58.751 Y135.912 E28.17507
G1 X58.558 Y135.011 E28.21798
G1 X58.444 Y134.098 E28.26082
G1 X58.413 Y133.527 E28.28745
G1 X58.404 Y133.194 E28.30296
G1 X58.4 Y132.908 E28.31628
G1 X58.401 Y102.281 E29.7424
G1 X58.41 Y101.616 E29.77337
G1 X58.462 Y100.696 E29.81627
G1 X58.594 Y99.785 E29.85914
G1 X58.805 Y98.889 E29.902
G1 X59.092 Y98.014 E29.94488
G1 X59.455 Y97.168 E29.98775
G1 X59.889 Y96.356 E30.03062
G1 X60.392 Y95.585 E30.07348
G1 X60.961 Y94.861 E30.11636
G1 X61.589 Y94.189 E30.15919
G1 X62.274 Y93.573 E30.20209
G1 X63.01 Y93.02 E30.24495
G0 F6000 X63.394 Y93.244
G1 F1200 X64.169 Y92.781 E30.28699
G1 X64.982 Y92.388 E30.32904
G1 X65.827 Y92.068 E30.37111
G1 X66.696 Y91.825 E30.41313
G1 X67.584 Y91.659 E30.45519
G1 X68.723 Y91.563 E30.50842
G1 X69.044 Y91.554 E30.52337
G1 X69.33 Y91.55 E30.53669
G1 X165.293 Y91.55 E35.00513
G1 X166.137 Y91.561 E35.04443
G1 X167.039 Y91.614 E35.08651
G1 X167.932 Y91.746 E35.12854
G1 X168.81 Y91.957 E35.17059
G1 X169.666 Y92.245 E35.21264
G1 X170.493 Y92.607 E35.25468
G1 X171.285 Y93.042 E35.29675
G1 X172.036 Y93.544 E35.33882
G1 X172.739 Y94.111 E35.38087
G1 X173.389 Y94.738 E35.42292
G1 X173.981 Y95.42 E35.46498
G1 X174.511 Y96.151 E35.50702
G1 X174.973 Y96.927 E35.54907
G1 X175.366 Y97.74 E35.59112
G1 X175.684 Y98.585 E35.63316
G1 X175.927 Y99.455 E35.67522
G1 X176.092 Y100.343 E35.71728
G1 X176.187 Y101.473 E35.77008
G1 X176.196 Y101.793 E35.78499
G1 X176.2 Y102.08 E35.79835
G1 X176.199 Y132.64 E37.22136
G1 X176.19 Y133.367 E37.25521
G1 X176.139 Y134.269 E37.29728
G1 X176.008 Y135.163 E37.33935
G1 X175.799 Y136.041 E37.38138
G1 X175.513 Y136.898 E37.42345
G1 X175.152 Y137.726 E37.46551
G1 X174.72 Y138.518 E37.50751
G1 X174.219 Y139.27 E37.54959
G1 X173.653 Y139.974 E37.59165
G1 X173.028 Y140.625 E37.63367
G1 X172.347 Y141.219 E37.67575
G1 X171.616 Y141.75 E37.71782
G1 X170.842 Y142.214 E37.75984
G1 X170.029 Y142.608 E37.80191
G1 X169.185 Y142.928 E37.84394
G1 X168.315 Y143.173 E37.88603
G1 X167.428 Y143.339 E37.92805
G1 X166.277 Y143.437 E37.98184
G1 X165.956 Y143.446 E37.99679
G1 X165.67 Y143.45 E38.01011
G1 X69.575 Y143.449 E42.48469
G1 X68.877 Y143.44 E42.5172
G1 X67.976 Y143.389 E42.55922
G1 X67.082 Y143.257 E42.6013
G1 X66.204 Y143.048 E42.64333
G1 X65.347 Y142.761 E42.68541
G1 X64.52 Y142.4 E42.72743
G1 X63.727 Y141.967 E42.7695
G1 X62.976 Y141.466 E42.81154
G1 X62.272 Y140.9 E42.8536
G1 X61.621 Y140.274 E42.89565
G1 X61.028 Y139.593 E42.9377
G1 X60.498 Y138.862 E42.97974
G1 X60.034 Y138.087 E43.0218
G1 X59.64 Y137.274 E43.06387
G1 X59.32 Y136.43 E43.1059
G1 X59.076 Y135.56 E43.14798
G1 X58.91 Y134.672 E43.19004
G1 X58.813 Y133.517 E43.24401
G1 X58.804 Y133.184 E43.25952
G1 X58.8 Y132.908 E43.27238
G1 X58.801 Y102.286 E44.69827
G1 X58.81 Y101.621 E44.72923
G1 X58.862 Y100.719 E44.7713
G1 X58.994 Y99.826 E44.81334
G1 X59.204 Y98.948 E44.85537
G1 X59.491 Y98.091 E44.89746
G1 X59.853 Y97.264 E44.93949
G1 X60.286 Y96.472 E44.98152
G1 X60.788 Y95.721 E45.02359
G1 X61.355 Y95.017 E45.06568
G1 X61.981 Y94.367 E45.1077
G1 X62.662 Y93.774 E45.14975
G1 X63.394 Y93.244 E45.19183
G1 F2700 E40.19183
;MESH:GibbonRackLargeTest.stl
G0 F6000 X69.42 Y101.085
G0 X69.42 Y102.17
G0 X165.218 Y102.532
G0 X165.4 Y132.65
;TYPE:WALL-INNER
G1 F2700 E45.19183
G1 F1200 X69.6 Y132.65 E49.65268
G1 X69.6 Y102.35 E51.06357
G1 X165.4 Y102.35 E55.52442
G1 X165.4 Y132.65 E56.93532
G0 F6000 X165.8 Y133.05
;TYPE:WALL-OUTER
G1 F1200 X69.2 Y133.05 E61.43342
G1 X69.2 Y101.95 E62.88156
G1 X165.8 Y101.95 E67.37966
G1 X165.8 Y133.05 E68.82781
G0 F6000 X165.53 Y132.78
G0 X165.29 Y132.26
G0 X165.01 Y132.26
;TYPE:SKIN
G1 F1200 X69.99 Y132.26 E73.25234
G1 X69.99 Y102.74 E74.62691
G1 X165.01 Y102.74 E79.05144
G1 X165.01 Y132.26 E80.42602
G0 F6000 X165.29 Y132.26
G0 X165.29 Y103.189
G0 X164.849 Y103.189
G1 F1200 X164.559 Y102.899 E80.44512
G0 F6000 X163.993 Y102.899
G1 F1200 X164.849 Y103.755 E80.50148
G0 F6000 X164.849 Y104.32
G1 F1200 X163.427 Y102.899 E80.59509
G0 F6000 X162.862 Y102.899
G1 F1200 X164.849 Y104.886 E80.72594
G0 F6000 X164.849 Y105.452
G1 F1200 X162.296 Y102.899 E80.89406
G0 F6000 X161.73 Y102.899
G1 F1200 X164.849 Y106.017 E81.09942
G0 F6000 X164.849 Y106.583
G1 F1200 X161.165 Y102.899 E81.34202
G0 F6000 X160.599 Y102.899
G1 F1200 X164.849 Y107.149 E81.62189
G0 F6000 X164.849 Y107.714
G1 F1200 X160.033 Y102.899 E81.93899
G0 F6000 X159.468 Y102.899
G1 F1200 X164.849 Y108.28 E82.29334
G0 F6000 X164.849 Y108.846
G1 F1200 X158.902 Y102.899 E82.68496
G0 F6000 X158.336 Y102.899
G1 F1200 X164.849 Y109.412 E83.11385
G0 F6000 X164.849 Y109.977
G1 F1200 X157.771 Y102.899 E83.57995
G0 F6000 X157.205 Y102.899
G1 F1200 X164.849 Y110.543 E84.08332
G0 F6000 X164.849 Y111.109
G1 F1200 X156.639 Y102.899 E84.62397
G0 F6000 X156.074 Y102.899
G1 F1200 X164.849 Y111.674 E85.20182
G0 F6000 X164.849 Y112.24
G1 F1200 X155.508 Y102.899 E85.81694
G0 F6000 X154.942 Y102.899
G1 F1200 X164.849 Y112.806 E86.46933
G0 F6000 X164.849 Y113.371
G1 F1200 X154.376 Y102.899 E87.15896
G0 F6000 X153.811 Y102.899
G1 F1200 X164.849 Y113.937 E87.88583
G0 F6000 X164.849 Y114.503
G1 F1200 X153.245 Y102.899 E88.64998
G0 F6000 X152.679 Y102.899
G1 F1200 X164.849 Y115.068 E89.45136
G0 F6000 X164.849 Y115.634
G1 F1200 X152.114 Y102.899 E90.28998
G0 F6000 X151.548 Y102.899
G1 F1200 X164.849 Y116.2 E91.16587
G0 F6000 X164.849 Y116.765
G1 F1200 X150.982 Y102.899 E92.07901
G0 F6000 X150.417 Y102.899
G1 F1200 X164.849 Y117.331 E93.02938
G0 F6000 X164.849 Y117.897
G1 F1200 X149.851 Y102.899 E94.01702
G0 F6000 X149.285 Y102.899
G1 F1200 X164.849 Y118.463 E95.04194
G0 F6000 X164.849 Y119.028
G1 F1200 X148.72 Y102.899 E96.10406
G0 F6000 X148.154 Y102.899
G1 F1200 X164.849 Y119.594 E97.20345
G0 F6000 X164.849 Y120.16
G1 F1200 X147.588 Y102.899 E98.34012
G0 F6000 X147.023 Y102.899
G1 F1200 X164.849 Y120.725 E99.51399
G0 F6000 X164.849 Y121.291
G1 F1200 X146.457 Y102.899 E100.72514
G0 F6000 X145.891 Y102.899
G1 F1200 X164.849 Y121.857 E101.97355
G0 F6000 X164.849 Y122.422
G1 F1200 X145.325 Y102.899 E103.25921
G0 F6000 X144.76 Y102.899
G1 F1200 X164.849 Y122.988 E104.5821
G0 F6000 X164.849 Y123.554
G1 F1200 X144.194 Y102.899 E105.94227
G0 F6000 X143.628 Y102.899
G1 F1200 X164.849 Y124.119 E107.33968
G0 F6000 X164.849 Y124.685
G1 F1200 X143.063 Y102.899 E108.77432
G0 F6000 X142.497 Y102.899
G1 F1200 X164.849 Y125.251 E110.24624
G0 F6000 X164.849 Y125.816
G1 F1200 X141.931 Y102.899 E111.7554
G0 F6000 X141.366 Y102.899
G1 F1200 X164.849 Y126.382 E113.30179
G0 F6000 X164.849 Y126.948
G1 F1200 X140.8 Y102.899 E114.88546
G0 F6000 X140.234 Y102.899
G1 F1200 X164.849 Y127.513 E116.50637
G0 F6000 X164.849 Y128.079
G1 F1200 X139.669 Y102.899 E118.16451
G0 F6000 X139.103 Y102.899
G1 F1200 X164.849 Y128.645 E119.85993
G0 F6000 X164.849 Y129.211
G1 F1200 X138.537 Y102.899 E121.59262
G0 F6000 X137.972 Y102.899
G1 F1200 X164.849 Y129.776 E123.36252
G0 F6000 X164.849 Y130.342
G1 F1200 X137.406 Y102.899 E125.16969
G0 F6000 X136.84 Y102.899
G1 F1200 X164.849 Y130.908 E127.01413
G0 F6000 X164.849 Y131.473
G1 F1200 X136.275 Y102.899 E128.89577
G0 F6000 X135.709 Y102.899
G1 F1200 X164.849 Y132.039 E130.81469
G0 F6000 X164.343 Y132.099
G1 F1200 X135.143 Y102.899 E132.73756
G0 F6000 X134.577 Y102.899
G1 F1200 X163.777 Y132.099 E134.66043
G0 F6000 X163.212 Y132.099
G1 F1200 X134.012 Y102.899 E136.5833
G0 F6000 X133.446 Y102.899
G1 F1200 X162.646 Y132.099 E138.50617
G0 F6000 X162.08 Y132.099
G1 F1200 X132.88 Y102.899 E140.42904
G0 F6000 X132.315 Y102.899
G1 F1200 X161.515 Y132.099 E142.35191
G0 F6000 X160.949 Y132.099
G1 F1200 X131.749 Y102.899 E144.27478
G0 F6000 X131.183 Y102.899
G1 F1200 X160.383 Y132.099 E146.19765
G0 F6000 X159.818 Y132.099
G1 F1200 X130.618 Y102.899 E148.12052
G0 F6000 X130.052 Y102.899
G1 F1200 X159.252 Y132.099 E150.04339
G0 F6000 X158.686 Y132.099
G1 F1200 X129.486 Y102.899 E151.96626
G0 F6000 X128.921 Y102.899
G1 F1200 X158.121 Y132.099 E153.88913
G0 F6000 X157.555 Y132.099
G1 F1200 X128.355 Y102.899 E155.812
G0 F6000 X127.789 Y102.899
G1 F1200 X156.989 Y132.099 E157.73487
G0 F6000 X156.424 Y132.099
G1 F1200 X127.224 Y102.899 E159.65774
G0 F6000 X126.658 Y102.899
G1 F1200 X155.858 Y132.099 E161.58061
G0 F6000 X155.292 Y132.099
G1 F1200 X126.092 Y102.899 E163.50348
G0 F6000 X125.527 Y102.899
G1 F1200 X154.726 Y132.099 E165.42632
G0 F6000 X154.161 Y132.099
G1 F1200 X124.961 Y102.899 E167.34919
G0 F6000 X124.395 Y102.899
G1 F1200 X153.595 Y132.099 E169.27206
G0 F6000 X153.029 Y132.099
G1 F1200 X123.829 Y102.899 E171.19493
G0 F6000 X123.264 Y102.899
G1 F1200 X152.464 Y132.099 E173.1178
G0 F6000 X151.898 Y132.099
G1 F1200 X122.698 Y102.899 E175.04067
G0 F6000 X122.132 Y102.899
G1 F1200 X151.332 Y132.099 E176.96354
G0 F6000 X150.767 Y132.099
G1 F1200 X121.567 Y102.899 E178.88641
G0 F6000 X121.001 Y102.899
G1 F1200 X150.201 Y132.099 E180.80928
G0 F6000 X149.635 Y132.099
G1 F1200 X120.435 Y102.899 E182.73215
G0 F6000 X119.87 Y102.899
G1 F1200 X149.07 Y132.099 E184.65502
G0 F6000 X148.504 Y132.099
G1 F1200 X119.304 Y102.899 E186.57789
G0 F6000 X118.738 Y102.899
G1 F1200 X147.938 Y132.099 E188.50075
G0 F6000 X147.373 Y132.099
G1 F1200 X118.173 Y102.899 E190.42362
G0 F6000 X117.607 Y102.899
G1 F1200 X146.807 Y132.099 E192.34649
G0 F6000 X146.241 Y132.099
G1 F1200 X117.041 Y102.899 E194.26936
G0 F6000 X116.476 Y102.899
G1 F1200 X145.676 Y132.099 E196.19223
G0 F6000 X145.11 Y132.099
G1 F1200 X115.91 Y102.899 E198.1151
G0 F6000 X115.344 Y102.899
G1 F1200 X144.544 Y132.099 E200.03797
G0 F6000 X143.978 Y132.099
G1 F1200 X114.778 Y102.899 E201.96084
G0 F6000 X114.213 Y102.899
G1 F1200 X143.413 Y132.099 E203.88371
G0 F6000 X142.847 Y132.099
G1 F1200 X113.647 Y102.899 E205.80658
G0 F6000 X113.081 Y102.899
G1 F1200 X142.281 Y132.099 E207.72945
G0 F6000 X141.716 Y132.099
G1 F1200 X112.516 Y102.899 E209.65232
G0 F6000 X111.95 Y102.899
G1 F1200 X141.15 Y132.099 E211.57519
G0 F6000 X140.584 Y132.099
G1 F1200 X111.384 Y102.899 E213.49806
G0 F6000 X110.819 Y102.899
G1 F1200 X140.019 Y132.099 E215.42093
G0 F6000 X139.453 Y132.099
G1 F1200 X110.253 Y102.899 E217.3438
G0 F6000 X109.687 Y102.899
G1 F1200 X138.887 Y132.099 E219.26667
G0 F6000 X138.322 Y132.099
G1 F1200 X109.122 Y102.899 E221.18954
G0 F6000 X108.556 Y102.899
G1 F1200 X137.756 Y132.099 E223.11241
G0 F6000 X137.19 Y132.099
G1 F1200 X107.99 Y102.899 E225.03528
G0 F6000 X107.425 Y102.899
G1 F1200 X136.625 Y132.099 E226.95815
G0 F6000 X136.059 Y132.099
G1 F1200 X106.859 Y102.899 E228.88102
G0 F6000 X106.293 Y102.899
G1 F1200 X135.493 Y132.099 E230.80389
G0 F6000 X134.927 Y132.099
