;FLAVOR:Marlin
;TIME:12840
;Filament used: 5.98925m
;Layer height: 0.16
;MINX:85.043
;MINY:88.95
;MINZ:0.2
;MAXX:149.968
;MAXY:146.05
;MAXZ:36.2
;Generated with Cura_SteamEngine 4.10.0
M140 S50
M105
M190 S50
M104 S200
M105
M109 S200
M82 ;absolute extrusion mode
; Ender 3 Custom Start G-code
G92 E0 ; Reset Extruder
G28 ; Home all axes
G1 Z2.0 F3000 ; Move Z Axis up little to prevent scratching of Heat Bed
G1 X0.1 Y20 Z0.3 F5000.0 ; Move to start position
G1 X0.1 Y200.0 Z0.3 F1500.0 E15 ; Draw the first line
G1 X0.4 Y200.0 Z0.3 F5000.0 ; Move to side a little
G1 X0.4 Y20 Z0.3 F1500.0 E30 ; Draw the second line
G92 E0 ; Reset Extruder
G1 Z2.0 F3000 ; Move Z Axis up little to prevent scratching of Heat Bed
G1 X5 Y20 Z0.3 F5000.0 ; Move over to prevent blob squish
G92 E0
G92 E0
G1 F2700 E-5
;LAYER_COUNT:238
;LAYER:0
M107
G0 F6000 X92.583 Y100.976 Z0.2
;TYPE:SKIRT
G1 F2700 E0
G1 F1200 X93.11 Y100.55 E0.02254
G1 X93.206 Y100.479 E0.02651
G1 X93.864 Y100.042 E0.05278
G1 X94.562 Y99.674 E0.07903
G1 X95.295 Y99.378 E0.10532
G1 X96.053 Y99.158 E0.13157
G1 X96.83 Y99.016 E0.15784
G1 X97.844 Y98.95 E0.19164
G1 X102.402 Y98.95 E0.34324
G1 X102.514 Y98.956 E0.34697
G1 X102.635 Y98.507 E0.36244
G1 X103.114 Y97.025 E0.41424
G1 X103.214 Y96.736 E0.42441
G1 X103.521 Y96.009 E0.45066
G1 X103.79 Y95.501 E0.46978
G1 X104.579 Y94.135 E0.52224
G1 X104.909 Y93.612 E0.54281
G1 X105.556 Y92.79 E0.5776
G1 X106.605 Y91.628 E0.62967
G1 X107.163 Y91.07 E0.65592
G1 X107.775 Y90.57 E0.6822
G1 X108.314 Y90.208 E0.7038
G1 X108.485 Y90.103 E0.71047
G1 X109.178 Y89.724 E0.73674
G1 X109.905 Y89.418 E0.76298
G1 X110.66 Y89.186 E0.78925
G1 X111.435 Y89.032 E0.81553
G1 X112.566 Y88.95 E0.85324
G1 X122.433 Y88.95 E1.18142
G1 X123.222 Y88.99 E1.2077
G1 X124.002 Y89.109 E1.23394
G1 X124.767 Y89.307 E1.26022
G1 X125.507 Y89.581 E1.28647
G1 X126.386 Y90.026 E1.31924
G1 X126.551 Y90.123 E1.3256
G1 X127.211 Y90.557 E1.35188
G1 X127.823 Y91.056 E1.37814
G1 X128.391 Y91.623 E1.40483
G1 X129.447 Y92.794 E1.45728
G1 X130.091 Y93.613 E1.49193
G1 X130.426 Y94.144 E1.51281
G1 X131.218 Y95.519 E1.56559
G1 X131.577 Y96.222 E1.59185
G1 X131.882 Y97.016 E1.62014
G1 X132.371 Y98.531 E1.67308
G1 X132.485 Y98.956 E1.68772
G1 X132.598 Y98.95 E1.69148
G1 X137.155 Y98.95 E1.84305
G1 X137.944 Y98.99 E1.86933
G1 X138.724 Y99.109 E1.89557
G1 X139.489 Y99.307 E1.92185
G1 X140.229 Y99.581 E1.9481
G1 X140.938 Y99.929 E1.97437
G1 X141.648 Y100.374 E2.00223
G1 X141.753 Y100.448 E2.00651
G1 X142.375 Y100.935 E2.03278
G1 X142.944 Y101.483 E2.05906
G1 X143.455 Y102.085 E2.08532
G1 X143.903 Y102.735 E2.11158
G1 X144.282 Y103.428 E2.13785
G1 X144.604 Y104.197 E2.16558
G1 X145.219 Y105.916 E2.2263
G1 X145.447 Y106.672 E2.25256
G1 X145.624 Y107.651 E2.28565
G1 X146.062 Y111.456 E2.41304
G1 X146.112 Y112.244 E2.4393
G1 X146.062 Y113.242 E2.47254
G1 X145.952 Y114.192 E2.50435
G1 X146.221 Y114.638 E2.52167
G1 X146.578 Y115.401 E2.54969
G1 X146.681 Y115.656 E2.55884
G1 X146.94 Y116.402 E2.5851
G1 X147.121 Y117.17 E2.61135
G1 X147.188 Y117.607 E2.62605
G1 X147.43 Y119.536 E2.69071
G1 X147.461 Y119.613 E2.69347
G1 X147.683 Y120.371 E2.71974
G1 X147.825 Y121.133 E2.74552
G1 X147.865 Y121.429 E2.75546
G1 X147.935 Y122.474 E2.79029
G1 X147.935 Y122.548 E2.79275
G1 X147.885 Y123.325 E2.81865
G1 X148.069 Y123.717 E2.83305
G1 X148.806 Y125.457 E2.8959
G1 X149.077 Y126.199 E2.92218
G1 X149.271 Y126.964 E2.94843
G1 X149.354 Y127.455 E2.96499
G1 X149.902 Y131.514 E3.10122
G1 X149.968 Y132.301 E3.12748
G1 X149.954 Y133.091 E3.15376
G1 X149.898 Y133.631 E3.17182
G1 X149.378 Y137.376 E3.29757
G1 X149.287 Y137.897 E3.31516
G1 X149.249 Y138.079 E3.32135
G1 X149.049 Y138.843 E3.34762
G1 X148.798 Y139.524 E3.37176
G1 X148.084 Y141.212 E3.43271
G1 X147.74 Y141.922 E3.45895
G1 X147.326 Y142.595 E3.48524
G1 X146.846 Y143.222 E3.5115
G1 X146.305 Y143.797 E3.53776
G1 X145.708 Y144.315 E3.56405
G1 X145.214 Y144.672 E3.58432
G1 X145.098 Y144.749 E3.58895
G1 X144.419 Y145.151 E3.61519
G1 X143.702 Y145.484 E3.64149
G1 X142.956 Y145.742 E3.66774
G1 X142.187 Y145.923 E3.69402
G1 X141.404 Y146.025 E3.72028
G1 X140.784 Y146.05 E3.74092
G1 X125.838 Y146.05 E4.23802
G1 X125.082 Y146.012 E4.2632
G1 X124.569 Y146.05 E4.28031
G1 X110.432 Y146.05 E4.75051
G1 X109.777 Y146.017 E4.77232
G1 X109.16 Y146.05 E4.79287
G1 X94.201 Y146.05 E5.29041
G1 X93.412 Y146.01 E5.31669
G1 X92.632 Y145.891 E5.34293
G1 X91.867 Y145.693 E5.36921
G1 X91.127 Y145.419 E5.39546
G1 X90.418 Y145.071 E5.42173
G1 X89.874 Y144.74 E5.44291
G1 X89.772 Y144.672 E5.44698
G1 X89.138 Y144.201 E5.47325
G1 X88.555 Y143.669 E5.4995
G1 X88.029 Y143.08 E5.52577
G1 X87.565 Y142.441 E5.55203
G1 X87.167 Y141.759 E5.5783
G1 X86.905 Y141.196 E5.59895
G1 X86.197 Y139.506 E5.65989
G1 X85.929 Y138.763 E5.68616
G1 X85.738 Y137.997 E5.71242
G1 X85.663 Y137.552 E5.72743
G1 X85.11 Y133.521 E5.86276
G1 X85.043 Y132.734 E5.88903
G1 X85.055 Y131.945 E5.91527
G1 X85.112 Y131.388 E5.9339
G1 X85.658 Y127.458 E6.06586
G1 X85.806 Y126.682 E6.09214
G1 X86.032 Y125.925 E6.11842
G1 X86.19 Y125.516 E6.133
G1 X86.905 Y123.81 E6.19452
G1 X87.116 Y123.371 E6.21072
G1 X87.065 Y122.485 E6.24024
G1 X87.065 Y122.199 E6.24975
G1 X87.127 Y121.215 E6.28255
G1 X87.562 Y117.793 E6.39728
G1 X87.701 Y117.016 E6.42353
G1 X87.885 Y116.355 E6.44635
G1 X87.966 Y116.107 E6.45503
G1 X88.159 Y115.582 E6.47363
G1 X88.25 Y115.359 E6.48164
G1 X88.585 Y114.644 E6.50791
G1 X88.991 Y113.966 E6.53419
G1 X89.01 Y113.941 E6.53523
G1 X88.969 Y113.584 E6.54719
G1 X88.92 Y112.795 E6.57348
G1 X88.972 Y111.786 E6.60708
G1 X89.496 Y107.334 E6.75618
G1 X89.628 Y106.556 E6.78243
G1 X89.891 Y105.641 E6.81409
G1 X90.396 Y104.216 E6.86437
G1 X90.697 Y103.486 E6.89064
G1 X91.071 Y102.79 E6.91692
G1 X91.512 Y102.135 E6.94318
G1 X92.018 Y101.529 E6.96944
G1 X92.583 Y100.976 E6.99573
G0 F6000 X92.923 Y101.211
G1 F1200 X93.348 Y100.871 E7.01384
G1 X93.444 Y100.8 E7.01781
G1 X94.085 Y100.376 E7.04337
G1 X94.767 Y100.02 E7.06896
G1 X95.482 Y99.737 E7.09453
G1 X96.223 Y99.53 E7.12012
G1 X96.981 Y99.4 E7.1457
G1 X97.844 Y99.35 E7.17445
G1 X102.402 Y99.35 E7.32605
G1 X102.819 Y99.372 E7.33994
G1 X102.826 Y99.334 E7.34123
G1 X103.016 Y98.63 E7.36548
G1 X103.495 Y97.148 E7.41728
G1 X103.59 Y96.873 E7.42696
G1 X103.89 Y96.165 E7.45253
G1 X104.136 Y95.701 E7.47
G1 X104.925 Y94.335 E7.52247
G1 X105.239 Y93.838 E7.54202
G1 X105.853 Y93.058 E7.57504
G1 X106.902 Y91.896 E7.62711
G1 X107.447 Y91.353 E7.65269
G1 X108.044 Y90.869 E7.67826
G1 X108.523 Y90.549 E7.69742
G1 X108.694 Y90.444 E7.70409
G1 X109.369 Y90.076 E7.72966
G1 X110.079 Y89.78 E7.75524
G1 X110.816 Y89.56 E7.78083
G1 X111.572 Y89.417 E7.80642
G1 X112.566 Y89.35 E7.83955
G1 X122.433 Y89.35 E8.16773
G1 X123.201 Y89.39 E8.19331
G1 X123.961 Y89.509 E8.21889
G1 X124.704 Y89.707 E8.24447
G1 X125.423 Y89.981 E8.27006
G1 X126.183 Y90.371 E8.29847
G1 X126.348 Y90.468 E8.30484
G1 X126.99 Y90.891 E8.33041
G1 X127.585 Y91.38 E8.35602
G1 X128.093 Y91.891 E8.37999
G1 X129.149 Y93.062 E8.43244
G1 X129.761 Y93.839 E8.46533
G1 X130.079 Y94.343 E8.48515
G1 X130.871 Y95.718 E8.53793
G1 X131.22 Y96.404 E8.56353
G1 X131.501 Y97.139 E8.5897
G1 X131.99 Y98.654 E8.64265
G1 X132.183 Y99.38 E8.66764
G1 X132.598 Y99.35 E8.68147
G1 X137.155 Y99.35 E8.83304
G1 X137.923 Y99.39 E8.85862
G1 X138.683 Y99.509 E8.88421
G1 X139.426 Y99.707 E8.90978
G1 X140.145 Y99.981 E8.93537
G1 X140.831 Y100.328 E8.96094
G1 X141.418 Y100.701 E8.98407
G1 X141.523 Y100.775 E8.98835
G1 X142.128 Y101.25 E9.01393
G1 X142.68 Y101.786 E9.03952
G1 X143.174 Y102.376 E9.06511
G1 X143.603 Y103.013 E9.09066
G1 X143.965 Y103.692 E9.11625
G1 X144.228 Y104.331 E9.13923
G1 X144.843 Y106.05 E9.19996
G1 X145.064 Y106.787 E9.22555
G1 X145.226 Y107.697 E9.25629
G1 X145.664 Y111.502 E9.38368
G1 X145.713 Y112.269 E9.40924
G1 X145.664 Y113.197 E9.44015
G1 X145.539 Y114.281 E9.47644
G1 X145.602 Y114.37 E9.48007
G1 X145.979 Y115.04 E9.50564
G1 X146.207 Y115.551 E9.52425
G1 X146.31 Y115.806 E9.5334
G1 X146.561 Y116.533 E9.55898
G1 X146.792 Y117.656 E9.59711
G1 X147.042 Y119.647 E9.66385
G1 X147.103 Y119.801 E9.66936
G1 X147.312 Y120.542 E9.69497
G1 X147.428 Y121.187 E9.71677
G1 X147.468 Y121.483 E9.7267
G1 X147.535 Y122.474 E9.75974
G1 X147.535 Y122.548 E9.7622
G1 X147.48 Y123.405 E9.79076
G1 X147.507 Y123.452 E9.79256
G1 X147.701 Y123.873 E9.80798
G1 X148.438 Y125.613 E9.87083
G1 X148.701 Y126.336 E9.89642
G1 X148.887 Y127.082 E9.92199
G1 X148.957 Y127.509 E9.93638
G1 X149.505 Y131.568 E10.07261
G1 X149.569 Y132.334 E10.09818
G1 X149.552 Y133.103 E10.12376
G1 X149.502 Y133.576 E10.13958
G1 X148.982 Y137.321 E10.26533
G1 X148.896 Y137.815 E10.28201
G1 X148.858 Y137.997 E10.2882
G1 X148.662 Y138.741 E10.31379
G1 X148.429 Y139.368 E10.33603
G1 X147.715 Y141.056 E10.39699
G1 X147.379 Y141.748 E10.42258
G1 X146.973 Y142.401 E10.44815
G1 X146.502 Y143.008 E10.47371
G1 X145.969 Y143.564 E10.49932
G1 X145.382 Y144.061 E10.52491
G1 X144.993 Y144.338 E10.54079
G1 X144.877 Y144.415 E10.54542
G1 X144.214 Y144.807 E10.57104
G1 X143.515 Y145.127 E10.59661
G1 X142.787 Y145.374 E10.62218
G1 X142.036 Y145.543 E10.64778
G1 X141.273 Y145.634 E10.67334
G1 X140.784 Y145.65 E10.68961
G1 X125.838 Y145.65 E11.18671
G1 X125.1 Y145.612 E11.21129
G1 X124.569 Y145.65 E11.229
G1 X110.432 Y145.65 E11.6992
G1 X109.683 Y145.611 E11.72414
G1 X109.16 Y145.65 E11.74159
G1 X94.201 Y145.65 E12.23912
G1 X93.433 Y145.61 E12.2647
G1 X92.673 Y145.491 E12.29029
G1 X91.93 Y145.293 E12.31586
G1 X91.211 Y145.019 E12.34146
G1 X90.525 Y144.672 E12.36702
G1 X90.096 Y144.407 E12.3838
G1 X89.994 Y144.339 E12.38787
G1 X89.377 Y143.88 E12.41345
G1 X88.811 Y143.359 E12.43904
G1 X88.303 Y142.782 E12.46461
G1 X87.856 Y142.156 E12.49019
G1 X87.478 Y141.486 E12.51578
G1 X87.274 Y141.041 E12.53206
G1 X86.566 Y139.351 E12.593
G1 X86.306 Y138.627 E12.61859
G1 X86.122 Y137.88 E12.64418
G1 X86.06 Y137.498 E12.65705
G1 X85.507 Y133.467 E12.79237
G1 X85.442 Y132.7 E12.81798
G1 X85.457 Y131.931 E12.84356
G1 X85.508 Y131.443 E12.85988
G1 X86.054 Y127.513 E12.99185
G1 X86.2 Y126.757 E13.01745
G1 X86.559 Y125.671 E13.0555
G1 X87.274 Y123.965 E13.11702
G1 X87.527 Y123.441 E13.13637
G1 X87.514 Y123.332 E13.14003
G1 X87.465 Y122.485 E13.16824
G1 X87.465 Y122.199 E13.17776
G1 X87.524 Y121.266 E13.20885
G1 X87.959 Y117.844 E13.32358
G1 X88.096 Y117.087 E13.34917
G1 X88.266 Y116.48 E13.37013
G1 X88.347 Y116.232 E13.37881
G1 X88.53 Y115.733 E13.39649
G1 X88.621 Y115.51 E13.4045
G1 X88.948 Y114.814 E13.43008
G1 X89.345 Y114.156 E13.45564
G1 X89.425 Y114.05 E13.46005
G1 X89.367 Y113.538 E13.47719
G1 X89.319 Y112.77 E13.50279
G1 X89.37 Y111.833 E13.534
G1 X89.894 Y107.381 E13.68309
G1 X90.023 Y106.623 E13.70867
G1 X90.268 Y105.774 E13.73806
G1 X90.773 Y104.349 E13.78834
G1 X91.067 Y103.639 E13.8139
G1 X91.434 Y102.962 E13.83951
G1 X91.868 Y102.328 E13.86507
G1 X92.367 Y101.742 E13.89067
G1 X92.923 Y101.211 E13.91624
G0 F6000 X93.262 Y101.447
G1 F1200 X93.586 Y101.193 E13.92993
G1 X93.682 Y101.122 E13.9339
G1 X94.306 Y100.71 E13.95877
G1 X94.971 Y100.367 E13.98366
G1 X95.668 Y100.097 E14.00852
G1 X96.391 Y99.903 E14.03342
G1 X97.13 Y99.787 E14.0583
G1 X97.844 Y99.75 E14.08208
G1 X102.402 Y99.75 E14.23368
G1 X103.156 Y99.791 E14.25879
G1 X103.217 Y99.419 E14.27133
G1 X103.396 Y98.753 E14.29427
G1 X103.875 Y97.271 E14.34607
G1 X103.965 Y97.01 E14.35525
G1 X104.258 Y96.321 E14.38015
G1 X104.482 Y95.901 E14.39599
G1 X105.271 Y94.535 E14.44845
G1 X105.569 Y94.064 E14.46699
G1 X106.15 Y93.326 E14.49823
G1 X107.199 Y92.164 E14.5503
G1 X107.729 Y91.637 E14.57516
G1 X108.313 Y91.169 E14.60005
G1 X108.732 Y90.89 E14.61679
G1 X108.903 Y90.785 E14.62347
G1 X109.561 Y90.428 E14.64837
G1 X110.252 Y90.143 E14.67323
G1 X110.971 Y89.934 E14.69813
G1 X111.707 Y89.803 E14.72299
G1 X112.566 Y89.75 E14.75162
G1 X122.433 Y89.75 E15.0798
G1 X123.18 Y89.79 E15.10468
G1 X123.918 Y89.909 E15.12954
G1 X124.64 Y90.107 E15.15444
G1 X125.336 Y90.38 E15.17931
G1 X125.981 Y90.716 E15.2035
G1 X126.146 Y90.813 E15.20986
G1 X126.769 Y91.226 E15.23472
G1 X127.345 Y91.703 E15.2596
G1 X127.796 Y92.159 E15.28093
G1 X128.852 Y93.33 E15.33337
G1 X129.431 Y94.065 E15.36449
G1 X129.733 Y94.543 E15.3833
G1 X130.525 Y95.918 E15.43608
G1 X130.863 Y96.585 E15.46095
G1 X131.121 Y97.262 E15.48504
G1 X131.61 Y98.777 E15.53799
G1 X131.801 Y99.5 E15.56286
G1 X131.848 Y99.799 E15.57293
G1 X132.06 Y99.771 E15.58004
G1 X132.598 Y99.75 E15.59795
G1 X137.155 Y99.75 E15.74952
G1 X137.902 Y99.79 E15.7744
G1 X138.64 Y99.909 E15.79926
G1 X139.362 Y100.107 E15.82416
G1 X140.058 Y100.38 E15.84903
G1 X140.721 Y100.727 E15.87392
G1 X141.188 Y101.028 E15.8924
G1 X141.293 Y101.102 E15.89667
G1 X141.88 Y101.565 E15.92154
G1 X142.415 Y102.088 E15.94642
G1 X142.891 Y102.665 E15.9713
G1 X143.302 Y103.29 E15.99618
G1 X143.645 Y103.955 E16.02106
G1 X143.851 Y104.466 E16.03939
G1 X144.466 Y106.185 E16.10011
G1 X144.68 Y106.902 E16.125
G1 X144.829 Y107.743 E16.15341
G1 X145.267 Y111.548 E16.2808
G1 X145.313 Y112.294 E16.30566
G1 X145.267 Y113.151 E16.3342
G1 X145.124 Y114.387 E16.37559
G1 X145.381 Y114.776 E16.39109
G1 X145.837 Y115.7 E16.42536
G1 X145.94 Y115.955 E16.43451
G1 X146.182 Y116.663 E16.4594
G1 X146.395 Y117.706 E16.4948
G1 X146.651 Y119.749 E16.56328
G1 X146.744 Y119.988 E16.57181
G1 X146.939 Y120.71 E16.59669
G1 X147.032 Y121.241 E16.61462
G1 X147.072 Y121.537 E16.62455
G1 X147.135 Y122.474 E16.65579
G1 X147.135 Y122.548 E16.65825
G1 X147.079 Y123.434 E16.68778
G1 X147.068 Y123.519 E16.69063
G1 X147.333 Y124.029 E16.70974
G1 X148.07 Y125.769 E16.77259
G1 X148.324 Y126.472 E16.79745
G1 X148.561 Y127.562 E16.83455
G1 X149.109 Y131.621 E16.97078
G1 X149.169 Y132.367 E16.99567
G1 X149.15 Y133.115 E17.02056
G1 X149.105 Y133.521 E17.03415
G1 X148.585 Y137.266 E17.1599
G1 X148.504 Y137.734 E17.1757
G1 X148.466 Y137.916 E17.18188
G1 X148.274 Y138.639 E17.20676
G1 X148.061 Y139.212 E17.2271
G1 X147.347 Y140.9 E17.28805
G1 X147.019 Y141.572 E17.31293
G1 X146.621 Y142.206 E17.33782
G1 X146.158 Y142.794 E17.36272
G1 X145.635 Y143.328 E17.38758
G1 X144.771 Y144.005 E17.42408
G1 X144.655 Y144.082 E17.42871
G1 X144.011 Y144.462 E17.45358
G1 X143.33 Y144.771 E17.47846
G1 X142.619 Y145.005 E17.50335
G1 X141.888 Y145.162 E17.52822
G1 X140.784 Y145.25 E17.56506
G1 X125.838 Y145.25 E18.06216
G1 X125.122 Y145.212 E18.08601
G1 X124.569 Y145.25 E18.10445
G1 X110.432 Y145.25 E18.57465
G1 X109.811 Y145.217 E18.59533
G1 X109.752 Y145.225 E18.59731
G1 X109.16 Y145.25 E18.61702
G1 X94.201 Y145.25 E19.11456
G1 X93.454 Y145.21 E19.13944
G1 X92.716 Y145.091 E19.1643
G1 X91.994 Y144.893 E19.1892
G1 X91.298 Y144.62 E19.21407
G1 X90.318 Y144.074 E19.25138
G1 X90.216 Y144.006 E19.25546
G1 X89.617 Y143.559 E19.28031
G1 X89.069 Y143.05 E19.30519
G1 X88.578 Y142.485 E19.33009
G1 X88.15 Y141.871 E19.35498
G1 X87.643 Y140.887 E19.3918
G1 X86.935 Y139.197 E19.45274
G1 X86.683 Y138.492 E19.47764
G1 X86.456 Y137.443 E19.51334
G1 X85.903 Y133.412 E19.64867
G1 X85.841 Y132.667 E19.67353
G1 X85.859 Y131.919 E19.69842
G1 X85.905 Y131.498 E19.7125
G1 X86.451 Y127.568 E19.84447
G1 X86.593 Y126.833 E19.86937
G1 X86.928 Y125.825 E19.9047
G1 X87.643 Y124.119 E19.96622
G1 X87.937 Y123.512 E19.98865
G1 X87.911 Y123.286 E19.99622
G1 X87.865 Y122.485 E20.02291
G1 X87.865 Y122.199 E20.03242
G1 X87.921 Y121.316 E20.06185
G1 X88.356 Y117.894 E20.17658
G1 X88.49 Y117.158 E20.20146
G1 X88.646 Y116.604 E20.2206
G1 X88.727 Y116.356 E20.22928
G1 X88.9 Y115.884 E20.246
G1 X88.991 Y115.661 E20.25401
G1 X89.31 Y114.985 E20.27887
G1 X89.7 Y114.346 E20.30377
G1 X89.841 Y114.163 E20.31145
G1 X89.764 Y113.493 E20.33389
G1 X89.719 Y112.746 E20.35878
G1 X89.767 Y111.88 E20.38762
G1 X90.291 Y107.428 E20.53672
G1 X90.418 Y106.691 E20.56159
G1 X90.645 Y105.908 E20.58871
G1 X91.15 Y104.483 E20.63899
G1 X91.437 Y103.792 E20.66388
G1 X91.797 Y103.136 E20.68877
G1 X92.224 Y102.522 E20.71364
G1 X92.714 Y101.957 E20.73852
G1 X93.262 Y101.447 E20.76341
G0 F6000 X93.061 Y102.175
G1 F1200 X93.823 Y101.515 E20.79694
G1 X93.919 Y101.444 E20.80091
G1 X94.526 Y101.044 E20.82509
G1 X95.173 Y100.714 E20.84925
G1 X95.853 Y100.458 E20.87342
G1 X96.556 Y100.277 E20.89756
