;FLAVOR:Marlin
;TIME:12716
;Filament used: 9.58216m
;Layer height: 0.16
;MINX:53.66
;MINY:56.586
;MINZ:0.2
;MAXX:181.283
;MAXY:178.414
;MAXZ:7.48
;Generated with Cura_SteamEngine 4.10.0
M140 S50
M105
M190 S50
M104 S200
M105
M109 S200
M82 ;absolute extrusion mode
; Ender 3 Custom Start G-code
G92 E0 ; Reset Extruder
G28 ; Home all axes
G1 Z2.0 F3000 ; Move Z Axis up little to prevent scratching of Heat Bed
G1 X0.1 Y20 Z0.3 F5000.0 ; Move to start position
G1 X0.1 Y200.0 Z0.3 F1500.0 E15 ; Draw the first line
G1 X0.4 Y200.0 Z0.3 F5000.0 ; Move to side a little
G1 X0.4 Y20 Z0.3 F1500.0 E30 ; Draw the second line
G92 E0 ; Reset Extruder
G1 Z2.0 F3000 ; Move Z Axis up little to prevent scratching of Heat Bed
G1 X5 Y20 Z0.3 F5000.0 ; Move over to prevent blob squish
G92 E0
G92 E0
G1 F2700 E-5
;LAYER_COUNT:39
;LAYER:0
M107
G0 F6000 X72.086 Y59.655 Z0.2
;TYPE:SKIRT
G1 F2700 E0
G1 F1200 X72.64 Y59.092 E0.02627
G1 X73.248 Y58.588 E0.05254
G1 X73.903 Y58.147 E0.0788
G1 X74.6 Y57.775 E0.10508
G1 X75.331 Y57.476 E0.13135
G1 X76.088 Y57.252 E0.1576
G1 X76.864 Y57.106 E0.18387
G1 X77.871 Y57.034 E0.21744
G1 X151.28 Y56.586 E2.65908
G1 X152.069 Y56.621 E2.68535
G1 X152.851 Y56.736 E2.71164
G1 X153.616 Y56.929 E2.73788
G1 X154.359 Y57.199 E2.76418
G1 X155.07 Y57.542 E2.79043
G1 X155.743 Y57.955 E2.81669
G1 X156.37 Y58.435 E2.84296
G1 X156.867 Y58.894 E2.86546
G1 X156.985 Y59.013 E2.87103
G1 X157.512 Y59.601 E2.8973
G1 X157.976 Y60.239 E2.92353
G1 X158.374 Y60.922 E2.94983
G1 X158.701 Y61.641 E2.9761
G1 X158.953 Y62.389 E3.00235
G1 X159.129 Y63.159 E3.02862
G1 X159.226 Y63.942 E3.05486
G1 X159.246 Y64.575 E3.07593
G1 X159.145 Y75.886 E3.45215
G1 X159.652 Y75.829 E3.46912
G1 X160.442 Y75.822 E3.49539
G1 X161.228 Y75.894 E3.52164
G1 X162.304 Y76.126 E3.55825
G1 X162.455 Y76.17 E3.56349
G1 X163.201 Y76.429 E3.58975
G1 X163.917 Y76.763 E3.61603
G1 X164.596 Y77.166 E3.64229
G1 X165.23 Y77.637 E3.66856
G1 X165.814 Y78.169 E3.69483
G1 X166.34 Y78.757 E3.72107
G1 X166.947 Y79.621 E3.75619
G1 X180.163 Y101.465 E4.60535
G1 X180.537 Y102.161 E4.63163
G1 X180.838 Y102.891 E4.6579
G1 X181.065 Y103.647 E4.68415
G1 X181.214 Y104.423 E4.71043
G1 X181.283 Y105.209 E4.73667
G1 X181.273 Y105.999 E4.76295
G1 X181.166 Y106.885 E4.79263
G1 X181.139 Y107.035 E4.7977
G1 X180.96 Y107.804 E4.82396
G1 X180.704 Y108.551 E4.85023
G1 X180.374 Y109.268 E4.87648
G1 X179.973 Y109.949 E4.90276
G1 X179.505 Y110.585 E4.92903
G1 X178.975 Y111.171 E4.95531
G1 X178.394 Y111.696 E4.98135
G1 X142.331 Y141.128 E6.52957
G1 X139.269 Y156.298 E7.0443
G1 X139.074 Y157.063 E7.07056
G1 X138.802 Y157.805 E7.09684
G1 X138.457 Y158.515 E7.1231
G1 X138.042 Y159.187 E7.14937
G1 X137.561 Y159.813 E7.17562
G1 X137.019 Y160.388 E7.20191
G1 X136.542 Y160.809 E7.22307
G1 X136.43 Y160.9 E7.22787
G1 X135.792 Y161.366 E7.25414
G1 X135.111 Y161.765 E7.2804
G1 X134.393 Y162.094 E7.30666
G1 X133.645 Y162.348 E7.33294
G1 X132.876 Y162.526 E7.35919
G1 X132.092 Y162.624 E7.38547
G1 X131.511 Y162.646 E7.40481
G1 X103.156 Y162.646 E8.3479
G1 X102.367 Y162.606 E8.37418
G1 X101.587 Y162.487 E8.40042
G1 X101.292 Y162.411 E8.41055
G1 X97.693 Y173.04 E8.78379
G1 X97.402 Y173.775 E8.81008
G1 X97.039 Y174.476 E8.83634
G1 X96.606 Y175.136 E8.86259
G1 X96.109 Y175.75 E8.88886
G1 X95.552 Y176.31 E8.91514
G1 X94.839 Y176.886 E8.94562
G1 X94.734 Y176.961 E8.94991
G1 X94.069 Y177.387 E8.97618
G1 X93.364 Y177.743 E9.00245
G1 X92.627 Y178.027 E9.02872
G1 X91.865 Y178.234 E9.05498
G1 X91.086 Y178.364 E9.08125
G1 X90.2 Y178.414 E9.11076
G1 X61.577 Y178.414 E10.06277
G1 X60.788 Y178.374 E10.08904
G1 X60.008 Y178.255 E10.11529
G1 X59.243 Y178.057 E10.14157
G1 X58.503 Y177.783 E10.16782
G1 X57.794 Y177.435 E10.19408
G1 X57.123 Y177.017 E10.22038
G1 X56.499 Y176.534 E10.24662
G1 X56.062 Y176.129 E10.26644
G1 X55.945 Y176.012 E10.27194
G1 X55.415 Y175.426 E10.29822
G1 X54.948 Y174.79 E10.32447
G1 X54.547 Y174.11 E10.35072
G1 X54.217 Y173.392 E10.37701
G1 X53.962 Y172.645 E10.40326
G1 X53.783 Y171.876 E10.42952
G1 X53.683 Y171.092 E10.45581
G1 X53.66 Y170.497 E10.47561
G1 X53.66 Y149.083 E11.18784
G1 X53.7 Y148.294 E11.21412
G1 X53.819 Y147.514 E11.24036
G1 X54.017 Y146.749 E11.26665
G1 X54.291 Y146.009 E11.29289
G1 X54.639 Y145.3 E11.31916
G1 X55.057 Y144.629 E11.34545
G1 X55.54 Y144.005 E11.3717
G1 X55.945 Y143.568 E11.39152
G1 X56.062 Y143.451 E11.39702
G1 X56.648 Y142.921 E11.4233
G1 X57.284 Y142.454 E11.44954
G1 X57.964 Y142.053 E11.4758
G1 X58.682 Y141.723 E11.50208
G1 X59.429 Y141.468 E11.52833
G1 X60.198 Y141.289 E11.5546
G1 X60.982 Y141.189 E11.58088
G1 X61.577 Y141.166 E11.60069
G1 X69.57 Y141.166 E11.86654
G1 X74.887 Y123.66 E12.47505
G1 X75.154 Y122.917 E12.50131
G1 X75.495 Y122.205 E12.52757
G1 X76.068 Y121.304 E12.56308
G1 X76.107 Y121.251 E12.56527
G1 X76.606 Y120.64 E12.59151
G1 X77.165 Y120.082 E12.61778
G1 X77.838 Y119.539 E12.64654
G1 X85.666 Y113.915 E12.96713
G1 X70.39 Y67.434 E14.59444
G1 X70.182 Y66.673 E14.62068
G1 X70.051 Y65.894 E14.64696
G1 X70.001 Y65.106 E14.67322
G1 X70.03 Y64.316 E14.69951
G1 X70.139 Y63.534 E14.72577
G1 X70.326 Y62.767 E14.75203
G1 X70.59 Y62.023 E14.77829
G1 X70.928 Y61.309 E14.80456
G1 X71.474 Y60.436 E14.83881
G1 X71.593 Y60.271 E14.84557
G1 X72.086 Y59.655 E14.87182
G0 F6000 X72.399 Y59.906
G1 F1200 X72.94 Y59.359 E14.8974
G1 X73.535 Y58.872 E14.92298
G1 X74.178 Y58.449 E14.94858
G1 X74.861 Y58.095 E14.97416
G1 X75.577 Y57.814 E14.99975
G1 X76.318 Y57.609 E15.02532
G1 X77.077 Y57.482 E15.05091
G1 X77.874 Y57.434 E15.07747
G1 X151.283 Y56.986 E17.51911
G1 X152.051 Y57.021 E17.54468
G1 X152.812 Y57.136 E17.57028
G1 X153.556 Y57.329 E17.59584
G1 X154.277 Y57.599 E17.62145
G1 X154.965 Y57.942 E17.64702
G1 X155.615 Y58.354 E17.67261
G1 X156.217 Y58.831 E17.69816
G1 X156.583 Y59.176 E17.71489
G1 X156.701 Y59.295 E17.72046
G1 X157.213 Y59.868 E17.74602
G1 X157.663 Y60.492 E17.77161
G1 X158.046 Y61.159 E17.79719
G1 X158.358 Y61.862 E17.82277
G1 X158.595 Y62.594 E17.84836
G1 X158.755 Y63.346 E17.87393
G1 X158.836 Y64.111 E17.89952
G1 X158.846 Y64.571 E17.91482
G1 X158.741 Y76.354 E18.30674
G1 X158.991 Y76.302 E18.31524
G1 X159.756 Y76.224 E18.34081
G1 X160.525 Y76.226 E18.36639
G1 X161.29 Y76.308 E18.39198
G1 X162.192 Y76.51 E18.42272
G1 X162.343 Y76.554 E18.42795
G1 X163.069 Y76.808 E18.45354
G1 X163.766 Y77.135 E18.47914
G1 X164.424 Y77.533 E18.50472
G1 X165.037 Y77.997 E18.53029
G1 X165.599 Y78.522 E18.55587
G1 X166.104 Y79.102 E18.58145
G1 X166.604 Y79.828 E18.61077
G1 X179.82 Y101.672 E19.45993
G1 X180.184 Y102.35 E19.48552
G1 X180.475 Y103.062 E19.5111
G1 X180.691 Y103.801 E19.53671
G1 X180.828 Y104.557 E19.56227
G1 X180.887 Y105.324 E19.58785
G1 X180.865 Y106.093 E19.61344
G1 X180.772 Y106.814 E19.63762
G1 X180.745 Y106.964 E19.64269
G1 X180.57 Y107.713 E19.66827
G1 X180.317 Y108.439 E19.69384
G1 X179.991 Y109.136 E19.71943
G1 X179.594 Y109.795 E19.74502
G1 X179.131 Y110.409 E19.7706
G1 X178.607 Y110.972 E19.79618
G1 X178.141 Y111.386 E19.81691
G1 X141.967 Y140.908 E21.36988
G1 X138.877 Y156.219 E21.8894
G1 X138.686 Y156.964 E21.91498
G1 X138.418 Y157.685 E21.94056
G1 X138.077 Y158.375 E21.96616
G1 X137.667 Y159.025 E21.99172
G1 X137.191 Y159.629 E22.0173
G1 X136.655 Y160.181 E22.04289
G1 X136.289 Y160.498 E22.05899
G1 X136.177 Y160.589 E22.06379
G1 X135.556 Y161.043 E22.08938
G1 X134.891 Y161.429 E22.11495
G1 X134.189 Y161.744 E22.14054
G1 X133.459 Y161.985 E22.16611
G1 X132.707 Y162.149 E22.19171
G1 X131.943 Y162.233 E22.21728
G1 X131.511 Y162.246 E22.23165
G1 X103.156 Y162.246 E23.17474
G1 X102.388 Y162.206 E23.20032
G1 X101.628 Y162.087 E23.22591
G1 X101.033 Y161.928 E23.24639
G1 X97.314 Y172.912 E23.63209
G1 X97.03 Y173.627 E23.65768
G1 X96.673 Y174.308 E23.68325
G1 X96.247 Y174.949 E23.70885
G1 X95.758 Y175.542 E23.73442
G1 X95.209 Y176.081 E23.76001
G1 X94.606 Y176.561 E23.78564
G1 X94.501 Y176.636 E23.78993
G1 X93.853 Y177.05 E23.81551
G1 X93.165 Y177.394 E23.84109
G1 X92.445 Y177.665 E23.86668
G1 X91.701 Y177.86 E23.89226
G1 X90.941 Y177.977 E23.91784
G1 X90.2 Y178.014 E23.94251
G1 X61.577 Y178.014 E24.89452
G1 X60.809 Y177.974 E24.92009
G1 X60.049 Y177.855 E24.94568
G1 X59.306 Y177.657 E24.97126
G1 X58.587 Y177.383 E24.99685
G1 X57.901 Y177.036 E25.02242
G1 X57.254 Y176.62 E25.048
G1 X56.654 Y176.139 E25.07358
G1 X56.344 Y175.847 E25.08774
G1 X56.227 Y175.73 E25.09324
G1 X55.713 Y175.158 E25.11882
G1 X55.26 Y174.536 E25.14442
G1 X54.874 Y173.871 E25.16999
G1 X54.559 Y173.169 E25.19558
G1 X54.319 Y172.438 E25.22117
G1 X54.156 Y171.687 E25.24673
G1 X54.072 Y170.922 E25.27233
G1 X54.06 Y170.497 E25.28647
G1 X54.06 Y149.083 E25.9987
G1 X54.1 Y148.315 E26.02428
G1 X54.219 Y147.555 E26.04987
G1 X54.417 Y146.812 E26.07544
G1 X54.691 Y146.093 E26.10103
G1 X55.038 Y145.407 E26.1266
G1 X55.454 Y144.76 E26.15218
G1 X55.935 Y144.16 E26.17776
G1 X56.227 Y143.85 E26.19193
G1 X56.344 Y143.733 E26.19743
G1 X56.916 Y143.219 E26.22301
G1 X57.538 Y142.766 E26.2486
G1 X58.203 Y142.38 E26.27417
G1 X58.905 Y142.065 E26.29977
G1 X59.636 Y141.825 E26.32536
G1 X60.387 Y141.662 E26.35092
G1 X61.152 Y141.578 E26.37651
G1 X61.577 Y141.566 E26.39065
G1 X69.866 Y141.566 E26.66635
G1 X75.269 Y123.777 E27.2847
G1 X75.531 Y123.053 E27.31031
G1 X75.866 Y122.361 E27.33588
G1 X76.39 Y121.541 E27.36825
G1 X76.429 Y121.488 E27.37043
G1 X76.916 Y120.893 E27.39601
G1 X77.463 Y120.352 E27.4216
G1 X78.071 Y119.864 E27.44753
G1 X86.137 Y114.069 E27.77786
G1 X70.77 Y67.309 E29.41494
G1 X70.568 Y66.567 E29.44052
G1 X70.444 Y65.808 E29.46609
G1 X70.4 Y65.04 E29.49168
G1 X70.436 Y64.272 E29.51725
G1 X70.551 Y63.511 E29.54285
G1 X70.745 Y62.767 E29.56842
G1 X71.014 Y62.047 E29.59399
G1 X71.358 Y61.358 E29.6196
G1 X71.798 Y60.67 E29.64676
G1 X71.917 Y60.505 E29.65353
G1 X72.399 Y59.906 E29.6791
G0 F6000 X72.711 Y60.157
G1 F1200 X73.24 Y59.628 E29.70398
G1 X73.822 Y59.158 E29.72887
G1 X74.451 Y58.753 E29.75375
G1 X75.12 Y58.418 E29.77863
G1 X75.82 Y58.156 E29.80349
G1 X76.545 Y57.97 E29.82839
G1 X77.285 Y57.863 E29.85325
G1 X77.876 Y57.834 E29.87294
G1 X151.285 Y57.386 E32.31457
G1 X152.033 Y57.422 E32.33948
G1 X152.772 Y57.536 E32.36435
G1 X153.494 Y57.73 E32.38922
G1 X154.192 Y57.999 E32.4141
G1 X154.858 Y58.341 E32.439
G1 X155.483 Y58.752 E32.46388
G1 X156.299 Y59.457 E32.49974
G1 X156.417 Y59.576 E32.50532
G1 X156.914 Y60.135 E32.5302
G1 X157.349 Y60.743 E32.55506
G1 X157.717 Y61.395 E32.57996
G1 X158.013 Y62.082 E32.60484
G1 X158.234 Y62.796 E32.6297
G1 X158.378 Y63.53 E32.65458
G1 X158.446 Y64.568 E32.68918
G1 X158.336 Y76.849 E33.09766
G1 X158.38 Y76.835 E33.0992
G1 X159.113 Y76.688 E33.12406
G1 X159.858 Y76.62 E33.14895
G1 X160.606 Y76.632 E33.17383
G1 X161.348 Y76.723 E33.19869
G1 X162.08 Y76.895 E33.2237
G1 X162.231 Y76.939 E33.22893
G1 X162.937 Y77.186 E33.25381
G1 X163.613 Y77.507 E33.2787
G1 X164.25 Y77.899 E33.30358
G1 X164.842 Y78.356 E33.32845
G1 X165.382 Y78.874 E33.35334
G1 X165.864 Y79.446 E33.37822
G1 X166.262 Y80.035 E33.40186
G1 X179.478 Y101.879 E34.25102
G1 X179.831 Y102.539 E34.27591
G1 X180.111 Y103.233 E34.3008
G1 X180.315 Y103.953 E34.32569
G1 X180.442 Y104.69 E34.35057
G1 X180.489 Y105.436 E34.37543
G1 X180.456 Y106.184 E34.40033
G1 X180.378 Y106.743 E34.4191
G1 X180.351 Y106.893 E34.42417
G1 X180.18 Y107.621 E34.44905
G1 X179.931 Y108.327 E34.47394
G1 X179.609 Y109.002 E34.49882
G1 X179.216 Y109.639 E34.52371
G1 X178.758 Y110.23 E34.54858
G1 X178.24 Y110.769 E34.57345
G1 X177.888 Y111.076 E34.58898
G1 X141.604 Y140.688 E36.14668
G1 X138.485 Y156.14 E36.67098
G1 X138.298 Y156.864 E36.69585
G1 X138.034 Y157.564 E36.72073
G1 X137.698 Y158.233 E36.74563
G1 X137.292 Y158.861 E36.7705
G1 X136.822 Y159.443 E36.79538
G1 X136.037 Y160.188 E36.83138
G1 X135.925 Y160.279 E36.83618
G1 X135.32 Y160.719 E36.86106
G1 X134.672 Y161.092 E36.88593
G1 X133.987 Y161.393 E36.91082
G1 X133.274 Y161.62 E36.9357
G1 X132.541 Y161.77 E36.96059
G1 X131.511 Y161.846 E36.99494
G1 X103.156 Y161.846 E37.93803
G1 X102.409 Y161.806 E37.96291
G1 X101.671 Y161.687 E37.98777
G1 X100.949 Y161.489 E38.01267
G1 X100.781 Y161.423 E38.01868
G1 X96.935 Y172.784 E38.41761
G1 X96.658 Y173.479 E38.44249
G1 X96.308 Y174.14 E38.46737
G1 X95.889 Y174.76 E38.49226
G1 X95.407 Y175.332 E38.51714
G1 X94.867 Y175.849 E38.542
G1 X94.374 Y176.235 E38.56283
G1 X94.269 Y176.31 E38.56712
G1 X93.638 Y176.712 E38.59201
G1 X92.967 Y177.044 E38.61691
G1 X92.265 Y177.302 E38.64178
G1 X91.54 Y177.485 E38.66665
G1 X90.799 Y177.588 E38.69153
G1 X90.2 Y177.614 E38.71147
G1 X61.577 Y177.614 E39.66348
G1 X60.83 Y177.574 E39.68836
G1 X60.092 Y177.455 E39.71322
G1 X59.37 Y177.257 E39.73812
G1 X58.674 Y176.984 E39.76299
G1 X58.011 Y176.637 E39.78788
G1 X57.388 Y176.222 E39.81278
G1 X56.627 Y175.564 E39.84624
G1 X56.51 Y175.447 E39.85174
G1 X56.01 Y174.89 E39.87664
G1 X55.573 Y174.284 E39.90149
G1 X55.202 Y173.634 E39.92638
G1 X54.903 Y172.948 E39.95127
G1 X54.679 Y172.234 E39.97616
G1 X54.532 Y171.501 E40.00102
G1 X54.46 Y170.497 E40.0345
G1 X54.46 Y149.083 E40.74673
G1 X54.5 Y148.336 E40.77161
G1 X54.619 Y147.598 E40.79648
G1 X54.817 Y146.876 E40.82138
G1 X55.09 Y146.18 E40.84624
G1 X55.437 Y145.517 E40.87113
G1 X55.852 Y144.894 E40.89603
G1 X56.51 Y144.133 E40.92949
G1 X56.627 Y144.016 E40.93499
G1 X57.184 Y143.516 E40.95989
G1 X57.79 Y143.079 E40.98474
G1 X58.44 Y142.708 E41.00963
G1 X59.126 Y142.409 E41.03452
G1 X59.84 Y142.185 E41.05941
G1 X60.573 Y142.038 E41.08428
G1 X61.577 Y141.966 E41.11775
G1 X70.163 Y141.966 E41.40333
G1 X75.652 Y123.893 E42.03155
G1 X75.907 Y123.19 E42.05642
G1 X76.236 Y122.518 E42.08131
G1 X76.712 Y121.778 E42.11057
G1 X76.751 Y121.725 E42.11276
G1 X77.226 Y121.147 E42.13764
G1 X77.76 Y120.623 E42.16253
G1 X78.305 Y120.189 E42.1857
G1 X86.609 Y114.223 E42.52578
G1 X71.15 Y67.184 E44.17263
G1 X70.955 Y66.462 E44.1975
G1 X70.838 Y65.724 E44.22236
G1 X70.8 Y64.976 E44.24727
G1 X70.842 Y64.23 E44.27212
G1 X70.964 Y63.491 E44.29703
G1 X71.164 Y62.771 E44.32188
G1 X71.44 Y62.075 E44.34679
G1 X71.788 Y61.413 E44.37166
G1 X72.123 Y60.904 E44.39193
G1 X72.242 Y60.739 E44.39869
G1 X72.711 Y60.157 E44.42355
G0 F6000 X73.023 Y60.408
G1 F1200 X73.539 Y59.897 E44.44771
G1 X74.108 Y59.446 E44.47186
G1 X74.723 Y59.06 E44.49601
G1 X75.377 Y58.743 E44.52018
G1 X76.061 Y58.501 E44.54431
G1 X76.769 Y58.335 E44.5685
G1 X77.49 Y58.248 E44.59265
G1 X77.879 Y58.234 E44.6056
G1 X151.288 Y57.786 E47.04724
G1 X152.013 Y57.822 E47.07138
G1 X152.73 Y57.937 E47.09553
G1 X153.431 Y58.13 E47.11972
G1 X154.105 Y58.399 E47.14385
G1 X154.746 Y58.74 E47.168
G1 X155.346 Y59.15 E47.19217
G1 X156.015 Y59.739 E47.22182
G1 X156.133 Y59.858 E47.22739
G1 X156.615 Y60.401 E47.25154
G1 X157.035 Y60.994 E47.27571
G1 X157.387 Y61.629 E47.29986
G1 X157.667 Y62.299 E47.32401
G1 X157.871 Y62.996 E47.34817
G1 X157.998 Y63.712 E47.37235
G1 X158.046 Y64.564 E47.40073
G1 X157.931 Y77.394 E47.82748
G1 X158.52 Y77.212 E47.84798
G1 X159.233 Y77.075 E47.87213
G1 X159.957 Y77.017 E47.89629
G1 X160.683 Y77.039 E47.92045
G1 X161.403 Y77.14 E47.94463
G1 X161.968 Y77.279 E47.96398
G1 X162.119 Y77.323 E47.96921
G1 X162.805 Y77.564 E47.9934
G1 X163.459 Y77.879 E48.01754
G1 X164.075 Y78.264 E48.0417
G1 X164.645 Y78.714 E48.06585
G1 X165.162 Y79.225 E48.09003
G1 X165.619 Y79.789 E48.11418
G1 X165.92 Y80.243 E48.13229
G1 X179.136 Y102.087 E48.98145
G1 X179.477 Y102.728 E49.0056
G1 X179.746 Y103.403 E49.02977
G1 X179.939 Y104.103 E49.05392
G1 X180.054 Y104.82 E49.07807
G1 X180.089 Y105.546 E49.10225
G1 X180.044 Y106.271 E49.12641
G1 X179.985 Y106.672 E49.13989
G1 X179.958 Y106.822 E49.14496
G1 X179.79 Y107.529 E49.16913
G1 X179.545 Y108.213 E49.19329
G1 X179.227 Y108.866 E49.21745
G1 X178.839 Y109.48 E49.24161
G1 X178.386 Y110.048 E49.26577
G1 X177.635 Y110.766 E49.30033
G1 X141.24 Y140.468 E50.86278
G1 X138.093 Y156.061 E51.39186
G1 X137.91 Y156.764 E51.41602
G1 X137.651 Y157.442 E51.44016
G1 X137.319 Y158.089 E51.46435
G1 X136.918 Y158.694 E51.48849
G1 X136.453 Y159.252 E51.51265
G1 X135.785 Y159.877 E51.54307
G1 X135.673 Y159.968 E51.54787
G1 X135.085 Y160.395 E51.57204
G1 X134.453 Y160.754 E51.59622
G1 X133.786 Y161.041 E51.62037
G1 X133.092 Y161.254 E51.64451
