;FLAVOR:Marlin
;TIME:12440
;Filament used: 7.77578m
;Layer height: 0.16
;MINX:32.117
;MINY:48.959
;MINZ:0.2
;MAXX:189.801
;MAXY:175.388
;MAXZ:3.56
;Generated with Cura_SteamEngine 4.10.0
M140 S50
M105
M190 S50
M104 S200
M105
M109 S200
M82 ;absolute extrusion mode
; Ender 3 Custom Start G-code
G92 E0 ; Reset Extruder
G28 ; Home all axes
G1 Z2.0 F3000 ; Move Z Axis up little to prevent scratching of Heat Bed
G1 X0.1 Y20 Z0.3 F5000.0 ; Move to start position
G1 X0.1 Y200.0 Z0.3 F1500.0 E15 ; Draw the first line
G1 X0.4 Y200.0 Z0.3 F5000.0 ; Move to side a little
G1 X0.4 Y20 Z0.3 F1500.0 E30 ; Draw the second line
G92 E0 ; Reset Extruder
G1 Z2.0 F3000 ; Move Z Axis up little to prevent scratching of Heat Bed
G1 X5 Y20 Z0.3 F5000.0 ; Move over to prevent blob squish
G92 E0
G92 E0
G1 F2700 E-5
;LAYER_COUNT:19
;LAYER:0
M107
G0 F6000 X93.568 Y103.811 Z0.2
;TYPE:SKIRT
G1 F2700 E0
G1 F1200 X92.923 Y105.934 E0.0738
G1 X92.656 Y106.677 E0.10006
G1 X92.315 Y107.39 E0.12634
G1 X91.742 Y108.291 E0.16186
G1 X91.703 Y108.344 E0.16405
G1 X91.204 Y108.955 E0.19029
G1 X90.645 Y109.513 E0.21656
G1 X89.973 Y110.055 E0.24527
G1 X88.394 Y111.189 E0.30993
G1 X91.812 Y121.588 E0.674
G1 X92.457 Y119.464 E0.74783
G1 X92.724 Y118.721 E0.77409
G1 X93.065 Y118.008 E0.80038
G1 X93.638 Y117.107 E0.8359
G1 X93.677 Y117.054 E0.83808
G1 X94.176 Y116.443 E0.86432
G1 X94.735 Y115.885 E0.89059
G1 X95.407 Y115.343 E0.91931
G1 X96.985 Y114.209 E0.98394
G1 X93.568 Y103.811 E1.34797
G0 F6000 X93.553 Y102.485
G1 F1200 X92.541 Y105.818 E1.46383
G1 X92.279 Y106.542 E1.48943
G1 X91.944 Y107.234 E1.51501
G1 X91.42 Y108.054 E1.54737
G1 X91.381 Y108.107 E1.54956
G1 X90.894 Y108.702 E1.57513
G1 X90.347 Y109.243 E1.60072
G1 X89.739 Y109.73 E1.62663
G1 X87.923 Y111.035 E1.70101
G1 X91.827 Y122.914 E2.1169
G1 X92.839 Y119.58 E2.23278
G1 X93.101 Y118.856 E2.25839
G1 X93.436 Y118.164 E2.28396
G1 X93.96 Y117.344 E2.31633
G1 X93.999 Y117.291 E2.31852
G1 X94.486 Y116.696 E2.34409
G1 X95.033 Y116.155 E2.36968
G1 X95.64 Y115.668 E2.39556
G1 X97.456 Y114.363 E2.46994
G1 X93.553 Y102.485 E2.88579
G0 F6000 X92.158 Y105.702
G1 F1200 X91.903 Y106.405 E2.91066
G1 X91.574 Y107.077 E2.93554
G1 X91.098 Y107.817 E2.96481
G1 X91.059 Y107.87 E2.967
G1 X90.584 Y108.448 E2.99188
G1 X90.05 Y108.972 E3.01676
G1 X89.506 Y109.406 E3.03991
G1 X87.452 Y110.882 E3.12404
G1 X91.842 Y124.241 E3.59173
G1 X93.222 Y119.696 E3.74972
G1 X93.477 Y118.993 E3.77459
G1 X93.806 Y118.321 E3.79947
G1 X94.282 Y117.581 E3.82874
G1 X94.321 Y117.528 E3.83093
G1 X94.796 Y116.95 E3.85581
G1 X95.33 Y116.426 E3.88069
G1 X95.874 Y115.993 E3.90382
G1 X97.928 Y114.517 E3.98795
G1 X93.538 Y101.157 E4.45568
G1 X92.158 Y105.702 E4.61366
G0 F6000 X91.775 Y105.586
G1 F1200 X91.526 Y106.268 E4.63781
G1 X91.204 Y106.919 E4.66196
G1 X90.776 Y107.58 E4.68815
G1 X90.737 Y107.633 E4.69034
G1 X90.275 Y108.193 E4.71449
G1 X89.754 Y108.699 E4.73864
G1 X89.272 Y109.081 E4.7591
G1 X86.98 Y110.728 E4.85297
G1 X91.857 Y125.568 E5.37252
G1 X93.605 Y119.812 E5.5726
G1 X93.854 Y119.13 E5.59675
G1 X94.176 Y118.479 E5.62091
G1 X94.604 Y117.818 E5.6471
G1 X94.643 Y117.765 E5.64929
G1 X95.105 Y117.205 E5.67343
G1 X95.626 Y116.699 E5.69759
G1 X96.107 Y116.318 E5.718
G1 X98.4 Y114.67 E5.81192
G1 X93.523 Y99.83 E6.33147
G1 X91.775 Y105.586 E6.53155
G0 F6000 X91.393 Y105.469
G1 F1200 X91.15 Y106.13 E6.55497
G1 X90.834 Y106.76 E6.57841
G1 X90.454 Y107.343 E6.60156
G1 X90.415 Y107.396 E6.60375
G1 X89.966 Y107.938 E6.62716
G1 X89.459 Y108.426 E6.65056
G1 X89.039 Y108.756 E6.66833
G1 X86.508 Y110.575 E6.77199
G1 X91.872 Y126.894 E7.34333
G1 X93.987 Y119.929 E7.58544
G1 X94.23 Y119.268 E7.60886
G1 X94.546 Y118.638 E7.6323
G1 X94.926 Y118.055 E7.65545
G1 X94.965 Y118.002 E7.65764
G1 X95.414 Y117.46 E7.68105
G1 X95.921 Y116.972 E7.70445
G1 X96.341 Y116.642 E7.72222
G1 X98.871 Y114.824 E7.82584
G1 X93.508 Y98.504 E8.3972
G1 X91.393 Y105.469 E8.6393
G0 F6000 X91.01 Y105.353
G1 F1200 X90.774 Y105.992 E8.66196
G1 X90.465 Y106.599 E8.68461
G1 X90.132 Y107.106 E8.70479
G1 X90.093 Y107.159 E8.70698
G1 X89.657 Y107.682 E8.72962
G1 X89.164 Y108.152 E8.75228
G1 X88.806 Y108.431 E8.76737
G1 X86.037 Y110.421 E8.88079
G1 X91.628 Y127.433 E9.47638
G1 X92.127 Y127.433 E9.49298
G1 X94.37 Y120.045 E9.74978
G1 X94.606 Y119.406 E9.77244
G1 X94.915 Y118.799 E9.79509
G1 X95.248 Y118.292 E9.81527
G1 X95.287 Y118.239 E9.81745
G1 X95.723 Y117.716 E9.8401
G1 X96.216 Y117.246 E9.86276
G1 X96.574 Y116.967 E9.87785
G1 X99.342 Y114.977 E9.99124
G1 X93.752 Y97.965 E10.58682
G1 X93.253 Y97.965 E10.60342
G1 X91.01 Y105.353 E10.86022
G0 F6000 X90.627 Y105.237
G1 F1200 X90.398 Y105.853 E10.88208
G1 X90.096 Y106.436 E10.90392
G1 X89.809 Y106.868 E10.92117
G1 X89.77 Y106.921 E10.92336
G1 X89.35 Y107.426 E10.9452
G1 X88.871 Y107.876 E10.96706
G1 X88.572 Y108.106 E10.97961
G1 X85.565 Y110.267 E11.10277
G1 X91.338 Y127.833 E11.71776
G1 X92.423 Y127.833 E11.75385
G1 X94.753 Y120.161 E12.02053
G1 X94.982 Y119.545 E12.04239
G1 X95.284 Y118.962 E12.06422
G1 X95.571 Y118.53 E12.08147
G1 X95.61 Y118.477 E12.08366
G1 X96.03 Y117.972 E12.10551
G1 X96.509 Y117.522 E12.12737
G1 X96.808 Y117.292 E12.13991
G1 X99.814 Y115.131 E12.26305
G1 X94.042 Y97.565 E12.87803
G1 X92.957 Y97.565 E12.91412
G1 X90.627 Y105.237 E13.1808
G0 F6000 X90.244 Y105.121
G1 F1200 X90.023 Y105.713 E13.20181
G1 X89.728 Y106.272 E13.22284
G1 X89.487 Y106.631 E13.23722
G1 X89.448 Y106.684 E13.23941
G1 X89.042 Y107.169 E13.26044
G1 X88.339 Y107.781 E13.29144
G1 X85.093 Y110.113 E13.42438
G1 X91.049 Y128.233 E14.05878
G1 X92.72 Y128.233 E14.11435
G1 X95.136 Y120.277 E14.3909
G1 X95.357 Y119.685 E14.41192
G1 X95.652 Y119.126 E14.43294
G1 X95.893 Y118.767 E14.44732
G1 X95.932 Y118.714 E14.44951
G1 X96.338 Y118.229 E14.47055
G1 X97.041 Y117.617 E14.50155
G1 X100.286 Y115.285 E14.63446
G1 X94.331 Y97.165 E15.26884
G1 X92.66 Y97.165 E15.32442
G1 X90.244 Y105.121 E15.60097
G0 F6000 X89.862 Y105.005
G1 F1200 X89.648 Y105.572 E15.62113
G1 X89.361 Y106.106 E15.64129
G1 X89.165 Y106.394 E15.65288
G1 X89.126 Y106.447 E15.65507
G1 X88.735 Y106.911 E15.67525
G1 X88.105 Y107.457 E15.70298
G1 X84.622 Y109.96 E15.84563
G1 X90.759 Y128.633 E16.49938
G1 X93.016 Y128.633 E16.57445
G1 X95.518 Y120.393 E16.86087
G1 X95.732 Y119.826 E16.88103
G1 X96.019 Y119.292 E16.90119
G1 X96.215 Y119.004 E16.91278
G1 X96.254 Y118.951 E16.91497
G1 X96.645 Y118.487 E16.93515
G1 X97.274 Y117.942 E16.96283
G1 X100.757 Y115.439 E17.10548
G1 X94.621 Y96.765 E17.75925
G1 X92.364 Y96.765 E17.83432
G1 X89.862 Y105.005 E18.12074
G0 F6000 X89.479 Y104.888
G1 F1200 X89.273 Y105.43 E18.14003
G1 X88.843 Y106.157 E18.16812
G1 X88.804 Y106.21 E18.17031
G1 X88.429 Y106.652 E18.18959
G1 X87.872 Y107.132 E18.21404
G1 X84.15 Y109.806 E18.36647
G1 X90.469 Y129.033 E19.03962
G1 X93.313 Y129.033 E19.13421
G1 X95.901 Y120.51 E19.43046
G1 X96.107 Y119.968 E19.44975
G1 X96.537 Y119.241 E19.47784
G1 X96.576 Y119.188 E19.48003
G1 X96.951 Y118.746 E19.49931
G1 X97.508 Y118.266 E19.52377
G1 X101.229 Y115.592 E19.67617
G1 X94.91 Y96.365 E20.34931
G1 X92.067 Y96.365 E20.44387
G1 X89.479 Y104.888 E20.74013
G0 F6000 X89.096 Y104.772
G1 F1200 X88.898 Y105.286 E20.75845
G1 X88.521 Y105.92 E20.78298
G1 X88.482 Y105.973 E20.78517
G1 X88.124 Y106.392 E20.8035
G1 X87.638 Y106.807 E20.82476
G1 X83.679 Y109.652 E20.98691
G1 X90.18 Y129.433 E21.67945
G1 X93.61 Y129.433 E21.79353
G1 X96.284 Y120.626 E22.09965
G1 X96.482 Y120.112 E22.11797
G1 X96.859 Y119.478 E22.14251
G1 X96.898 Y119.425 E22.1447
G1 X97.256 Y119.006 E22.16303
G1 X97.741 Y118.591 E22.18426
G1 X101.7 Y115.745 E22.34643
G1 X95.2 Y95.965 E23.03892
G1 X91.77 Y95.965 E23.15301
G1 X89.096 Y104.772 E23.45913
G0 F6000 X88.713 Y104.656
G1 F1200 X88.524 Y105.141 E23.47644
G1 X88.198 Y105.683 E23.49748
G1 X88.159 Y105.736 E23.49967
G1 X87.819 Y106.131 E23.517
G1 X87.405 Y106.482 E23.53506
G1 X83.207 Y109.498 E23.70698
G1 X89.89 Y129.833 E24.41891
G1 X93.906 Y129.833 E24.55249
G1 X96.667 Y120.742 E24.86849
G1 X96.856 Y120.257 E24.88581
G1 X97.182 Y119.715 E24.90684
G1 X97.221 Y119.662 E24.90903
G1 X97.561 Y119.267 E24.92637
G1 X97.975 Y118.916 E24.94442
G1 X102.172 Y115.9 E25.11632
G1 X95.49 Y95.565 E25.82824
G1 X91.474 Y95.565 E25.96181
G1 X88.713 Y104.656 E26.27782
G0 F6000 X88.331 Y104.54
G1 F1200 X88.151 Y104.995 E26.29409
G1 X87.876 Y105.446 E26.31166
G1 X87.837 Y105.499 E26.31385
G1 X87.516 Y105.868 E26.33012
G1 X87.172 Y106.157 E26.34506
G1 X82.736 Y109.345 E26.52675
G1 X89.601 Y130.233 E27.25805
G1 X94.202 Y130.233 E27.41108
G1 X97.049 Y120.858 E27.73695
G1 X97.229 Y120.403 E27.75323
G1 X97.504 Y119.952 E27.7708
G1 X97.543 Y119.899 E27.77298
G1 X97.864 Y119.53 E27.78925
G1 X98.208 Y119.241 E27.80419
G1 X102.643 Y116.053 E27.98586
G1 X95.779 Y95.165 E28.71714
G1 X91.178 Y95.165 E28.87017
G1 X88.331 Y104.54 E29.19605
G0 F6000 X87.948 Y104.423
G1 F1200 X87.778 Y104.846 E29.21121
G1 X87.554 Y105.209 E29.2254
G1 X87.515 Y105.262 E29.22759
G1 X87.214 Y105.604 E29.24274
G1 X86.938 Y105.832 E29.25465
G1 X82.264 Y109.191 E29.44609
G1 X89.323 Y130.669 E30.19804
G1 X89.597 Y130.633 E30.20723
G1 X94.499 Y130.633 E30.37027
G1 X97.432 Y120.975 E30.70599
G1 X97.602 Y120.552 E30.72115
G1 X97.826 Y120.189 E30.73534
G1 X97.865 Y120.136 E30.73752
G1 X98.166 Y119.794 E30.75268
G1 X98.442 Y119.566 E30.76458
G1 X103.115 Y116.208 E30.95598
G1 X96.057 Y94.729 E31.70795
G1 X95.783 Y94.765 E31.71714
G1 X90.881 Y94.765 E31.88018
G1 X87.948 Y104.423 E32.2159
G0 F6000 X87.565 Y104.307
G1 F1200 X87.406 Y104.695 E32.22984
G1 X87.232 Y104.972 E32.24072
G1 X87.193 Y105.025 E32.24291
G1 X86.914 Y105.337 E32.25683
G1 X86.705 Y105.508 E32.26581
G1 X81.793 Y109.038 E32.467
G1 X89.047 Y131.11 E33.23975
G1 X89.132 Y131.083 E33.24271
G1 X89.597 Y131.033 E33.25827
G1 X94.796 Y131.033 E33.43119
G1 X97.815 Y121.091 E33.77677
G1 X97.974 Y120.703 E33.79072
G1 X98.148 Y120.426 E33.8016
G1 X98.187 Y120.373 E33.80379
G1 X98.466 Y120.061 E33.81771
G1 X98.675 Y119.891 E33.82667
G1 X103.587 Y116.361 E34.02785
G1 X96.333 Y94.288 E34.80063
G1 X96.248 Y94.315 E34.8036
G1 X95.783 Y94.365 E34.81915
G1 X90.584 Y94.365 E34.99207
G1 X87.565 Y104.307 E35.33766
G0 F6000 X87.182 Y104.191
G1 F1200 X87.035 Y104.54 E35.35025
G1 X86.871 Y104.788 E35.36014
G1 X86.471 Y105.183 E35.37884
G1 X81.321 Y108.884 E35.58977
G1 X88.797 Y131.632 E36.38618
G1 X88.957 Y131.551 E36.39215
G1 X89.323 Y131.454 E36.40474
G1 X89.597 Y131.433 E36.41388
G1 X95.093 Y131.433 E36.59668
G1 X98.198 Y121.207 E36.95213
G1 X98.345 Y120.858 E36.96473
G1 X98.509 Y120.61 E36.97462
G1 X98.909 Y120.215 E36.99331
G1 X104.058 Y116.514 E37.20422
G1 X96.583 Y93.766 E38.00062
G1 X96.423 Y93.847 E38.00659
G1 X96.057 Y93.944 E38.01918
G1 X95.783 Y93.965 E38.02832
G1 X90.287 Y93.965 E38.21112
G1 X87.182 Y104.191 E38.56657
G0 F6000 X86.8 Y104.075
G1 F1200 X86.588 Y104.498 E38.58231
G1 X86.549 Y104.551 E38.58449
G1 X86.238 Y104.858 E38.59903
G1 X80.849 Y108.73 E38.81974
G1 X88.585 Y132.265 E39.64372
G1 X88.607 Y132.243 E39.64475
G1 X88.87 Y132.037 E39.65586
G1 X89.174 Y131.898 E39.66698
G1 X89.597 Y131.833 E39.68122
G1 X95.389 Y131.833 E39.87386
G1 X98.58 Y121.323 E40.23918
G1 X98.792 Y120.9 E40.25492
G1 X98.831 Y120.847 E40.2571
G1 X99.142 Y120.54 E40.27164
G1 X104.53 Y116.668 E40.49232
G1 X96.795 Y93.133 E41.31629
G1 X96.773 Y93.155 E41.31732
G1 X96.51 Y93.361 E41.32844
G1 X96.206 Y93.5 E41.33955
G1 X95.783 Y93.565 E41.35379
G1 X89.991 Y93.565 E41.54643
G1 X86.8 Y104.075 E41.91175
G0 F6000 X86.417 Y103.959
G1 F1200 X86.265 Y104.261 E41.923
G1 X86.226 Y104.314 E41.92518
G1 X86.005 Y104.533 E41.93553
G1 X80.378 Y108.577 E42.16601
G1 X88.492 Y133.265 E43.03034
G1 X88.52 Y133.071 E43.03686
G1 X88.636 Y132.814 E43.04624
G1 X88.89 Y132.526 E43.05901
G1 X89.116 Y132.357 E43.0684
G1 X89.38 Y132.257 E43.07779
G1 X89.597 Y132.233 E43.08505
G1 X95.685 Y132.233 E43.28754
G1 X98.963 Y121.439 E43.66274
G1 X99.115 Y121.137 E43.67398
G1 X99.154 Y121.084 E43.67617
G1 X99.375 Y120.865 E43.68652
G1 X105.001 Y116.822 E43.91695
G1 X96.888 Y92.133 E44.78131
G1 X96.86 Y92.327 E44.78783
G1 X96.744 Y92.584 E44.7972
G1 X96.49 Y92.872 E44.80998
G1 X96.264 Y93.041 E44.81936
G1 X96 Y93.141 E44.82875
G1 X95.783 Y93.165 E44.83601
G1 X89.695 Y93.165 E45.0385
G1 X86.417 Y103.959 E45.4137
G0 F6000 X86.034 Y103.842
G1 F1200 X85.904 Y104.077 E45.42263
G1 X85.771 Y104.208 E45.42884
G1 X79.906 Y108.422 E45.66904
G1 X88.273 Y133.88 E46.56034
G1 X88.302 Y134.096 E46.56759
G1 X88.19 Y134.418 E46.57893
G1 X87.913 Y134.734 E46.5929
G1 X87.588 Y134.832 E46.60419
G1 X51.029 Y135.056 E47.82017
G1 X50.814 Y135.018 E47.82744
G1 X50.599 Y134.878 E47.83597
G1 X50.358 Y134.579 E47.84874
G1 X50.307 Y134.332 E47.85713
G1 X50.404 Y123.586 E48.21456
G1 X46.885 Y125.353 E48.34553
G1 X46.676 Y125.414 E48.35277
G1 X46.297 Y125.349 E48.36556
G1 X46.102 Y125.251 E48.37282
G1 X45.952 Y125.084 E48.38028
G1 X39.398 Y114.251 E48.8014
G1 X39.321 Y114.046 E48.80868
G1 X39.347 Y113.684 E48.82076
G1 X39.425 Y113.48 E48.82802
G1 X39.559 Y113.325 E48.83483
G1 X58.465 Y97.896 E49.64647
G1 X60.222 Y89.196 E49.94168
G1 X60.303 Y88.994 E49.94891
G1 X60.543 Y88.759 E49.96009
G1 X60.735 Y88.655 E49.96735
G1 X60.921 Y88.625 E49.97362
G1 X75.003 Y88.625 E50.44198
G1 X75.218 Y88.665 E50.44926
G1 X75.507 Y88.867 E50.46099
G1 X75.644 Y89.037 E50.46825
G1 X75.709 Y89.232 E50.47508
G1 X76.476 Y94.282 E50.64497
G1 X80.896 Y81.224 E51.10349
G1 X81.002 Y81.033 E51.11076
G1 X81.22 Y80.853 E51.12016
G1 X81.418 Y80.76 E51.12743
G1 X81.569 Y80.741 E51.1325
G1 X95.783 Y80.741 E51.60526
G1 X95.998 Y80.781 E51.61253
G1 X96.324 Y81.034 E51.62625
G1 X96.448 Y81.213 E51.6335
G1 X96.5 Y81.458 E51.64183
G1 X96.5 Y92.048 E51.99405
G1 X96.46 Y92.263 E52.00133
G1 X96.207 Y92.589 E52.01505
G1 X96.028 Y92.713 E52.02229
G1 X95.783 Y92.765 E52.03062
G1 X89.398 Y92.765 E52.24299
G1 X86.034 Y103.842 E52.62803
G0 F6000 X85.651 Y103.726
G1 F1200 X85.538 Y103.883 E52.63446
G1 X79.435 Y108.269 E52.88443
G1 X87.893 Y134.005 E53.78545
G1 X87.865 Y134.184 E53.79148
G1 X87.746 Y134.349 E53.79825
G1 X87.585 Y134.432 E53.80427
G1 X51.026 Y134.656 E55.02025
G1 X50.883 Y134.597 E55.0254
G1 X50.765 Y134.478 E55.03097
G1 X50.707 Y134.335 E55.0361
G1 X50.81 Y122.935 E55.41528
G1 X46.706 Y124.996 E55.56803
G1 X46.56 Y125.009 E55.5729
G1 X46.409 Y124.965 E55.57813
G1 X46.294 Y124.877 E55.58295
G1 X39.74 Y114.044 E56.00407
G1 X39.714 Y113.905 E56.00877
G1 X39.741 Y113.755 E56.01384
G1 X39.812 Y113.635 E56.01848
G1 X58.829 Y98.116 E56.83487
G1 X60.614 Y89.275 E57.13485
G1 X60.795 Y89.07 E57.14395
G1 X60.921 Y89.025 E57.1484
G1 X75.003 Y89.025 E57.61677
G1 X75.133 Y89.073 E57.62138
G1 X75.246 Y89.17 E57.62633
G1 X75.314 Y89.292 E57.63098
G1 X76.327 Y95.968 E57.85556
G1 X81.275 Y81.352 E58.36879
G1 X81.453 Y81.178 E58.37707
G1 X81.569 Y81.141 E58.38112
G1 X95.783 Y81.141 E58.85388
G1 X95.924 Y81.2 E58.85897
G1 X96.041 Y81.317 E58.86447
G1 X96.1 Y81.458 E58.86955
G1 X96.1 Y92.048 E59.22178
G1 X96.041 Y92.189 E59.22686
G1 X95.924 Y92.306 E59.23236
G1 X95.783 Y92.365 E59.23745
G1 X89.101 Y92.365 E59.45969
G1 X85.651 Y103.726 E59.8546
G1 F2700 E54.8546
G0 F6000 X86.097 Y103.86
G0 X96.561 Y92.322
G0 X97.046 Y91.538
G0 X97.107 Y91.518
G1 F2700 E59.8546
G1 F1200 X97.078 Y91.302 E59.86185
G1 X97.19 Y90.98 E59.87319
G1 X97.467 Y90.664 E59.88716
G1 X97.792 Y90.566 E59.89845
G1 X134.35 Y90.343 E61.1144
G1 X134.565 Y90.381 E61.12166
G1 X134.78 Y90.521 E61.1302
G1 X135.021 Y90.82 E61.14297
G1 X135.072 Y91.067 E61.15136
G1 X134.976 Y101.812 E61.50875
G1 X138.495 Y100.045 E61.63972
G1 X138.704 Y99.984 E61.64696
G1 X139.083 Y100.049 E61.65975
G1 X139.278 Y100.147 E61.66701
G1 X139.428 Y100.314 E61.67448
G1 X145.982 Y111.148 E62.09562
G1 X146.059 Y111.353 E62.10291
G1 X146.033 Y111.715 E62.11498
G1 X145.955 Y111.919 E62.12224
G1 X145.821 Y112.074 E62.12906
G1 X126.915 Y127.503 E62.94069
G1 X125.159 Y136.201 E63.23583
G1 X125.078 Y136.403 E63.24306
G1 X124.837 Y136.639 E63.25428
G1 X124.646 Y136.743 E63.26152
G1 X124.459 Y136.773 E63.26782
G1 X110.377 Y136.773 E63.73618
G1 X110.162 Y136.733 E63.74346
G1 X109.873 Y136.531 E63.75519
G1 X109.736 Y136.361 E63.76245
