;FLAVOR:Marlin
;TIME:33943
;Filament used: 24.5383m
;Layer height: 0.16
;MINX:60.7
;MINY:15.2
;MINZ:0.2
;MAXX:174.3
;MAXY:219.8
;MAXZ:7.16
;Generated with Cura_SteamEngine 4.10.0
M140 S50
M105
M190 S50
M104 S200
M105
M109 S200
M82 ;absolute extrusion mode
; Ender 3 Custom Start G-code
G92 E0 ; Reset Extruder
G28 ; Home all axes
G1 Z2.0 F3000 ; Move Z Axis up little to prevent scratching of Heat Bed
G1 X0.1 Y20 Z0.3 F5000.0 ; Move to start position
G1 X0.1 Y200.0 Z0.3 F1500.0 E15 ; Draw the first line
G1 X0.4 Y200.0 Z0.3 F5000.0 ; Move to side a little
G1 X0.4 Y20 Z0.3 F1500.0 E30 ; Draw the second line
G92 E0 ; Reset Extruder
G1 Z2.0 F3000 ; Move Z Axis up little to prevent scratching of Heat Bed
G1 X5 Y20 Z0.3 F5000.0 ; Move over to prevent blob squish
G92 E0
G92 E0
G1 F2700 E-5
;LAYER_COUNT:37
;LAYER:0
M107
G0 F6000 X61.057 Y20.783 Z0.2
;TYPE:SKIRT
G1 F2700 E0
G1 F1200 X61.331 Y20.043 E0.02625
G1 X61.679 Y19.334 E0.05251
G1 X62.097 Y18.663 E0.07881
G1 X62.58 Y18.039 E0.10505
G1 X62.985 Y17.602 E0.12487
G1 X63.102 Y17.485 E0.13037
G1 X63.688 Y16.955 E0.15665
G1 X64.324 Y16.488 E0.1829
G1 X65.004 Y16.087 E0.20915
G1 X65.722 Y15.757 E0.23544
G1 X66.469 Y15.502 E0.26169
G1 X67.238 Y15.323 E0.28795
G1 X68.022 Y15.223 E0.31424
G1 X68.617 Y15.2 E0.33404
G1 X166.383 Y15.2 E3.58575
G1 X167.172 Y15.24 E3.61203
G1 X167.952 Y15.359 E3.63827
G1 X168.717 Y15.557 E3.66455
G1 X169.457 Y15.831 E3.6908
G1 X170.166 Y16.179 E3.71707
G1 X170.837 Y16.597 E3.74336
G1 X171.461 Y17.08 E3.76961
G1 X171.898 Y17.485 E3.78942
G1 X172.015 Y17.602 E3.79493
G1 X172.545 Y18.188 E3.82121
G1 X173.012 Y18.824 E3.84745
G1 X173.413 Y19.504 E3.87371
G1 X173.743 Y20.222 E3.89999
G1 X173.998 Y20.969 E3.92624
G1 X174.177 Y21.738 E3.9525
G1 X174.277 Y22.522 E3.97879
G1 X174.3 Y23.117 E3.99859
G1 X174.3 Y211.883 E10.27698
G1 X174.26 Y212.672 E10.30325
G1 X174.141 Y213.452 E10.3295
G1 X173.943 Y214.217 E10.35578
G1 X173.669 Y214.957 E10.38202
G1 X173.321 Y215.666 E10.40829
G1 X172.903 Y216.337 E10.43459
G1 X172.42 Y216.961 E10.46083
G1 X172.015 Y217.398 E10.48065
G1 X171.898 Y217.515 E10.48615
G1 X171.312 Y218.045 E10.51243
G1 X170.676 Y218.512 E10.53868
G1 X169.996 Y218.913 E10.56493
G1 X169.278 Y219.243 E10.59121
G1 X168.531 Y219.498 E10.61747
G1 X167.762 Y219.677 E10.64373
G1 X166.978 Y219.777 E10.67002
G1 X166.383 Y219.8 E10.68982
G1 X68.617 Y219.8 E13.94153
G1 X67.828 Y219.76 E13.96781
G1 X67.048 Y219.641 E13.99405
G1 X66.283 Y219.443 E14.02033
G1 X65.543 Y219.169 E14.04658
G1 X64.834 Y218.821 E14.07285
G1 X64.163 Y218.403 E14.09914
G1 X63.539 Y217.92 E14.12539
G1 X63.102 Y217.515 E14.1452
G1 X62.985 Y217.398 E14.15071
G1 X62.455 Y216.812 E14.17698
G1 X61.988 Y216.176 E14.20323
G1 X61.587 Y215.496 E14.22949
G1 X61.257 Y214.778 E14.25577
G1 X61.002 Y214.031 E14.28202
G1 X60.823 Y213.262 E14.30828
G1 X60.723 Y212.478 E14.33457
G1 X60.7 Y211.883 E14.35437
G1 X60.7 Y23.117 E20.63276
G1 X60.74 Y22.328 E20.65903
G1 X60.859 Y21.548 E20.68527
G1 X61.057 Y20.783 E20.71156
G0 F6000 X61.457 Y20.846
G1 F1200 X61.731 Y20.127 E20.73715
G1 X62.078 Y19.441 E20.76272
G1 X62.494 Y18.794 E20.7883
G1 X62.975 Y18.194 E20.81388
G1 X63.267 Y17.884 E20.82804
G1 X63.384 Y17.767 E20.83355
G1 X63.956 Y17.253 E20.85912
G1 X64.578 Y16.8 E20.88472
G1 X65.243 Y16.414 E20.91029
G1 X65.945 Y16.099 E20.93588
G1 X66.676 Y15.859 E20.96147
G1 X67.427 Y15.696 E20.98703
G1 X68.192 Y15.612 E21.01263
G1 X68.617 Y15.6 E21.02677
G1 X166.383 Y15.6 E24.27848
G1 X167.151 Y15.64 E24.30406
G1 X167.911 Y15.759 E24.32964
G1 X168.654 Y15.957 E24.35522
G1 X169.373 Y16.231 E24.38081
G1 X170.059 Y16.578 E24.40638
G1 X170.706 Y16.994 E24.43196
G1 X171.306 Y17.475 E24.45754
G1 X171.616 Y17.767 E24.47171
G1 X171.733 Y17.884 E24.47721
G1 X172.247 Y18.456 E24.50279
G1 X172.7 Y19.078 E24.52838
G1 X173.086 Y19.743 E24.55395
G1 X173.401 Y20.445 E24.57954
G1 X173.641 Y21.176 E24.60513
G1 X173.804 Y21.927 E24.63069
G1 X173.888 Y22.692 E24.65629
G1 X173.9 Y23.117 E24.67043
G1 X173.9 Y211.883 E30.94882
G1 X173.86 Y212.651 E30.97439
G1 X173.741 Y213.411 E30.99998
G1 X173.543 Y214.154 E31.02555
G1 X173.269 Y214.873 E31.05115
G1 X172.922 Y215.559 E31.07672
G1 X172.506 Y216.206 E31.1023
G1 X172.025 Y216.806 E31.12788
G1 X171.733 Y217.116 E31.14204
G1 X171.616 Y217.233 E31.14754
G1 X171.044 Y217.747 E31.17312
G1 X170.422 Y218.2 E31.19871
G1 X169.757 Y218.586 E31.22429
G1 X169.055 Y218.901 E31.24988
G1 X168.324 Y219.141 E31.27547
G1 X167.573 Y219.304 E31.30103
G1 X166.808 Y219.388 E31.32663
G1 X166.383 Y219.4 E31.34077
G1 X68.617 Y219.4 E34.59248
G1 X67.849 Y219.36 E34.61806
G1 X67.089 Y219.241 E34.64364
G1 X66.346 Y219.043 E34.66922
G1 X65.627 Y218.769 E34.69481
G1 X64.941 Y218.422 E34.72038
G1 X64.294 Y218.006 E34.74596
G1 X63.694 Y217.525 E34.77154
G1 X63.384 Y217.233 E34.7857
G1 X63.267 Y217.116 E34.79121
G1 X62.753 Y216.544 E34.81678
G1 X62.3 Y215.922 E34.84238
G1 X61.914 Y215.257 E34.86795
G1 X61.599 Y214.555 E34.89354
G1 X61.359 Y213.824 E34.91913
G1 X61.196 Y213.073 E34.94469
G1 X61.112 Y212.308 E34.97029
G1 X61.1 Y211.883 E34.98443
G1 X61.1 Y23.117 E41.26281
G1 X61.14 Y22.349 E41.28839
G1 X61.259 Y21.589 E41.31398
G1 X61.457 Y20.846 E41.33955
G0 F6000 X61.857 Y20.91
G1 F1200 X62.13 Y20.214 E41.36442
G1 X62.477 Y19.551 E41.38931
G1 X62.892 Y18.928 E41.4142
G1 X63.55 Y18.167 E41.44766
G1 X63.667 Y18.05 E41.45317
G1 X64.224 Y17.55 E41.47806
G1 X64.83 Y17.113 E41.50291
G1 X65.48 Y16.742 E41.52781
G1 X66.166 Y16.443 E41.5527
G1 X66.88 Y16.219 E41.57758
G1 X67.613 Y16.072 E41.60245
G1 X68.617 Y16 E41.63593
G1 X166.383 Y16 E44.88764
G1 X167.13 Y16.04 E44.91252
G1 X167.868 Y16.159 E44.93738
G1 X168.59 Y16.357 E44.96228
G1 X169.286 Y16.63 E44.98715
G1 X169.949 Y16.977 E45.01204
G1 X170.572 Y17.392 E45.03694
G1 X171.333 Y18.05 E45.0704
G1 X171.45 Y18.167 E45.0759
G1 X171.95 Y18.724 E45.10079
G1 X172.387 Y19.33 E45.12564
G1 X172.758 Y19.98 E45.15054
G1 X173.057 Y20.666 E45.17543
G1 X173.281 Y21.38 E45.20032
G1 X173.428 Y22.113 E45.22518
G1 X173.5 Y23.117 E45.25866
G1 X173.5 Y211.883 E51.53704
G1 X173.46 Y212.63 E51.56192
G1 X173.341 Y213.368 E51.58679
G1 X173.143 Y214.09 E51.61169
G1 X172.87 Y214.786 E51.63655
G1 X172.523 Y215.449 E51.66144
G1 X172.108 Y216.072 E51.68634
G1 X171.45 Y216.833 E51.7198
G1 X171.333 Y216.95 E51.7253
G1 X170.776 Y217.45 E51.7502
G1 X170.17 Y217.887 E51.77505
G1 X169.52 Y218.258 E51.79994
G1 X168.834 Y218.557 E51.82483
G1 X168.12 Y218.781 E51.84972
G1 X167.387 Y218.928 E51.87458
G1 X166.383 Y219 E51.90806
G1 X68.617 Y219 E55.15977
G1 X67.87 Y218.96 E55.18465
G1 X67.132 Y218.841 E55.20952
G1 X66.41 Y218.643 E55.23442
G1 X65.714 Y218.37 E55.25928
G1 X65.051 Y218.023 E55.28417
G1 X64.428 Y217.608 E55.30907
G1 X63.667 Y216.95 E55.34253
G1 X63.55 Y216.833 E55.34803
G1 X63.05 Y216.276 E55.37293
G1 X62.613 Y215.67 E55.39778
G1 X62.242 Y215.02 E55.42267
G1 X61.943 Y214.334 E55.44756
G1 X61.719 Y213.62 E55.47245
G1 X61.572 Y212.887 E55.49732
G1 X61.5 Y211.883 E55.5308
G1 X61.5 Y23.117 E61.80918
G1 X61.54 Y22.37 E61.83406
G1 X61.659 Y21.632 E61.85892
G1 X61.857 Y20.91 E61.88382
G0 F6000 X62.257 Y20.976
G1 F1200 X62.53 Y20.303 E61.90798
G1 X62.875 Y19.664 E61.93213
G1 X63.289 Y19.067 E61.95629
G1 X63.833 Y18.45 E61.98365
G1 X63.95 Y18.333 E61.98916
G1 X64.491 Y17.849 E62.0133
G1 X65.082 Y17.426 E62.03747
G1 X65.716 Y17.072 E62.06162
G1 X66.385 Y16.789 E62.08578
G1 X67.081 Y16.581 E62.10995
G1 X67.796 Y16.451 E62.13412
G1 X68.617 Y16.4 E62.16148
G1 X166.383 Y16.4 E65.41319
G1 X167.108 Y16.44 E65.43734
G1 X167.825 Y16.559 E65.46151
G1 X168.524 Y16.757 E65.48567
G1 X169.197 Y17.03 E65.50983
G1 X169.836 Y17.375 E65.53398
G1 X170.433 Y17.789 E65.55815
G1 X171.05 Y18.333 E65.5855
G1 X171.167 Y18.45 E65.59101
G1 X171.651 Y18.991 E65.61515
G1 X172.074 Y19.582 E65.63932
G1 X172.428 Y20.216 E65.66348
G1 X172.711 Y20.885 E65.68764
G1 X172.919 Y21.581 E65.7118
G1 X173.049 Y22.296 E65.73597
G1 X173.1 Y23.117 E65.76333
G1 X173.1 Y211.883 E72.04171
G1 X173.06 Y212.608 E72.06586
G1 X172.941 Y213.325 E72.09003
G1 X172.743 Y214.024 E72.1142
G1 X172.47 Y214.697 E72.13835
G1 X172.125 Y215.336 E72.1625
G1 X171.711 Y215.933 E72.18667
G1 X171.167 Y216.55 E72.21403
G1 X171.05 Y216.667 E72.21953
G1 X170.509 Y217.151 E72.24367
G1 X169.918 Y217.574 E72.26785
G1 X169.284 Y217.928 E72.292
G1 X168.615 Y218.211 E72.31616
G1 X167.919 Y218.419 E72.34032
G1 X167.204 Y218.549 E72.36449
G1 X166.383 Y218.6 E72.39185
G1 X68.617 Y218.6 E75.64356
G1 X67.892 Y218.56 E75.66771
G1 X67.175 Y218.441 E75.69188
G1 X66.476 Y218.243 E75.71605
G1 X65.803 Y217.97 E75.7402
G1 X65.164 Y217.625 E75.76436
G1 X64.567 Y217.211 E75.78852
G1 X63.95 Y216.667 E75.81588
G1 X63.833 Y216.55 E75.82138
G1 X63.349 Y216.009 E75.84553
G1 X62.926 Y215.418 E75.8697
G1 X62.572 Y214.784 E75.89385
G1 X62.289 Y214.115 E75.91801
G1 X62.081 Y213.419 E75.94217
G1 X61.951 Y212.704 E75.96634
G1 X61.9 Y211.883 E75.9937
G1 X61.9 Y23.117 E82.27208
G1 X61.94 Y22.392 E82.29623
G1 X62.059 Y21.675 E82.32041
G1 X62.257 Y20.976 E82.34457
G0 F6000 X62.657 Y21.045
G1 F1200 X62.929 Y20.396 E82.36798
G1 X63.274 Y19.782 E82.3914
G1 X63.685 Y19.211 E82.4148
G1 X64.116 Y18.733 E82.43621
G1 X64.233 Y18.616 E82.44171
G1 X64.758 Y18.147 E82.46512
G1 X65.333 Y17.741 E82.48854
G1 X65.951 Y17.403 E82.51196
G1 X66.602 Y17.136 E82.53537
G1 X67.28 Y16.946 E82.55879
G1 X67.975 Y16.833 E82.58221
G1 X68.617 Y16.8 E82.60359
G1 X166.383 Y16.8 E85.8553
G1 X167.086 Y16.84 E85.87872
G1 X167.78 Y16.959 E85.90214
G1 X168.455 Y17.157 E85.92553
G1 X169.104 Y17.429 E85.94894
G1 X169.718 Y17.774 E85.97236
G1 X170.289 Y18.185 E85.99576
G1 X170.767 Y18.616 E86.01717
G1 X170.884 Y18.733 E86.02267
G1 X171.353 Y19.258 E86.04609
G1 X171.759 Y19.833 E86.0695
G1 X172.097 Y20.451 E86.09293
G1 X172.364 Y21.102 E86.11633
G1 X172.554 Y21.78 E86.13975
G1 X172.667 Y22.475 E86.16317
G1 X172.7 Y23.117 E86.18455
G1 X172.7 Y211.883 E92.46293
G1 X172.66 Y212.586 E92.48635
G1 X172.541 Y213.28 E92.50977
G1 X172.343 Y213.955 E92.53317
G1 X172.071 Y214.604 E92.55657
G1 X171.726 Y215.218 E92.58
G1 X171.315 Y215.789 E92.6034
G1 X170.884 Y216.267 E92.6248
G1 X170.767 Y216.384 E92.63031
G1 X170.242 Y216.853 E92.65372
G1 X169.667 Y217.259 E92.67713
G1 X169.049 Y217.597 E92.70056
G1 X168.398 Y217.864 E92.72396
G1 X167.72 Y218.054 E92.74738
G1 X167.025 Y218.167 E92.7708
G1 X166.383 Y218.2 E92.79218
G1 X68.617 Y218.2 E96.04389
G1 X67.914 Y218.16 E96.06731
G1 X67.22 Y218.041 E96.09073
G1 X66.545 Y217.843 E96.11413
G1 X65.896 Y217.571 E96.13753
G1 X65.282 Y217.226 E96.16096
G1 X64.711 Y216.815 E96.18436
G1 X64.233 Y216.384 E96.20576
G1 X64.116 Y216.267 E96.21127
G1 X63.647 Y215.742 E96.23468
G1 X63.241 Y215.167 E96.25809
G1 X62.903 Y214.549 E96.28152
G1 X62.636 Y213.898 E96.30492
G1 X62.446 Y213.22 E96.32834
G1 X62.333 Y212.525 E96.35176
G1 X62.3 Y211.883 E96.37314
G1 X62.3 Y23.117 E102.65153
G1 X62.34 Y22.414 E102.67495
G1 X62.459 Y21.72 E102.69837
G1 X62.657 Y21.045 E102.72176
G0 F6000 X63.056 Y21.115
G1 F1200 X63.328 Y20.491 E102.7444
G1 X63.672 Y19.903 E102.76706
G1 X64.082 Y19.359 E102.78972
G1 X64.399 Y19.016 E102.80525
G1 X64.516 Y18.899 E102.81076
G1 X65.025 Y18.446 E102.83342
G1 X65.583 Y18.057 E102.85604
G1 X66.183 Y17.735 E102.87869
G1 X66.817 Y17.486 E102.90135
G1 X67.476 Y17.313 E102.92401
G1 X68.15 Y17.219 E102.94664
G1 X68.617 Y17.2 E102.96219
G1 X166.383 Y17.2 E106.2139
G1 X167.063 Y17.24 E106.23655
G1 X167.733 Y17.359 E106.25919
G1 X168.385 Y17.556 E106.28184
G1 X169.009 Y17.828 E106.30448
G1 X169.597 Y18.172 E106.32714
G1 X170.141 Y18.582 E106.34979
G1 X170.484 Y18.899 E106.36533
G1 X170.601 Y19.016 E106.37083
G1 X171.054 Y19.525 E106.3935
G1 X171.443 Y20.083 E106.41612
G1 X171.765 Y20.683 E106.43877
G1 X172.014 Y21.317 E106.46142
G1 X172.187 Y21.976 E106.48408
G1 X172.281 Y22.65 E106.50672
G1 X172.3 Y23.117 E106.52226
G1 X172.3 Y211.883 E112.80065
G1 X172.26 Y212.563 E112.8233
G1 X172.141 Y213.233 E112.84593
G1 X171.944 Y213.885 E112.86859
G1 X171.672 Y214.509 E112.89123
G1 X171.328 Y215.097 E112.91389
G1 X170.918 Y215.641 E112.93654
G1 X170.601 Y215.984 E112.95208
G1 X170.484 Y216.101 E112.95758
G1 X169.975 Y216.554 E112.98024
G1 X169.417 Y216.943 E113.00287
G1 X168.817 Y217.265 E113.02552
G1 X168.183 Y217.514 E113.04817
G1 X167.524 Y217.687 E113.07083
G1 X166.85 Y217.781 E113.09347
G1 X166.383 Y217.8 E113.10901
G1 X68.617 Y217.8 E116.36072
G1 X67.937 Y217.76 E116.38338
G1 X67.267 Y217.641 E116.40601
G1 X66.615 Y217.444 E116.42867
G1 X65.991 Y217.172 E116.45131
G1 X65.403 Y216.828 E116.47396
G1 X64.859 Y216.418 E116.49662
G1 X64.516 Y216.101 E116.51215
G1 X64.399 Y215.984 E116.51766
G1 X63.946 Y215.475 E116.54032
G1 X63.557 Y214.917 E116.56295
G1 X63.235 Y214.317 E116.58559
G1 X62.986 Y213.683 E116.60825
G1 X62.813 Y213.024 E116.63091
G1 X62.719 Y212.35 E116.65354
G1 X62.7 Y211.883 E116.66909
G1 X62.7 Y23.117 E122.94747
G1 X62.74 Y22.437 E122.97013
G1 X62.859 Y21.767 E122.99276
G1 X63.056 Y21.115 E123.01541
G0 F6000 X63.259 Y21.815
G1 F1200 X63.456 Y21.188 E123.03727
G1 X63.728 Y20.59 E123.05912
G1 X64.07 Y20.029 E123.08098
G1 X64.682 Y19.299 E123.11266
G1 X64.799 Y19.182 E123.11816
G1 X65.291 Y18.746 E123.14003
G1 X65.832 Y18.374 E123.16187
G1 X66.414 Y18.07 E123.1837
G1 X67.029 Y17.839 E123.20556
G1 X67.668 Y17.684 E123.22742
G1 X68.617 Y17.6 E123.25911
G1 X166.383 Y17.6 E126.51082
G1 X167.039 Y17.64 E126.53268
G1 X167.685 Y17.759 E126.55453
G1 X168.312 Y17.956 E126.57639
G1 X168.91 Y18.228 E126.59824
G1 X169.471 Y18.57 E126.62009
G1 X170.201 Y19.182 E126.65178
G1 X170.318 Y19.299 E126.65728
G1 X170.754 Y19.791 E126.67914
G1 X171.126 Y20.332 E126.70098
G1 X171.43 Y20.914 E126.72282
G1 X171.661 Y21.529 E126.74467
G1 X171.816 Y22.168 E126.76654
G1 X171.9 Y23.117 E126.79823
G1 X171.9 Y211.883 E133.07661
G1 X171.86 Y212.539 E133.09847
G1 X171.741 Y213.185 E133.12032
G1 X171.544 Y213.812 E133.14218
G1 X171.272 Y214.41 E133.16403
G1 X170.93 Y214.971 E133.18588
G1 X170.318 Y215.701 E133.21756
G1 X170.201 Y215.818 E133.22307
G1 X169.709 Y216.254 E133.24493
G1 X169.168 Y216.626 E133.26677
G1 X168.586 Y216.93 E133.28861
G1 X167.971 Y217.161 E133.31046
G1 X167.332 Y217.316 E133.33233
G1 X166.383 Y217.4 E133.36401
G1 X68.617 Y217.4 E136.61572
G1 X67.961 Y217.36 E136.63758
G1 X67.315 Y217.241 E136.65943
G1 X66.688 Y217.044 E136.68129
G1 X66.09 Y216.772 E136.70314
G1 X65.529 Y216.43 E136.72499
G1 X64.799 Y215.818 E136.75668
G1 X64.682 Y215.701 E136.76218
G1 X64.246 Y215.209 E136.78404
G1 X63.874 Y214.668 E136.80588
G1 X63.57 Y214.086 E136.82772
G1 X63.339 Y213.471 E136.84957
G1 X63.184 Y212.832 E136.87144
G1 X63.1 Y211.883 E136.90313
G1 X63.1 Y23.117 E143.18151
G1 X63.14 Y22.461 E143.20337
G1 X63.259 Y21.815 E143.22522
G0 F6000 X63.659 Y21.865
G1 F1200 X63.856 Y21.265 E143.24622
G1 X64.127 Y20.693 E143.26727
G1 X64.467 Y20.161 E143.28827
G1 X64.964 Y19.581 E143.31368
G1 X65.081 Y19.464 E143.31918
G1 X65.556 Y19.047 E143.3402
G1 X66.079 Y18.692 E143.36123
G1 X66.643 Y18.406 E143.38226
G1 X67.238 Y18.194 E143.40327
G1 X67.856 Y18.058 E143.42431
G1 X68.617 Y18 E143.4497
G1 X166.383 Y18 E146.70141
G1 X167.014 Y18.04 E146.72244
G1 X167.635 Y18.159 E146.74347
G1 X168.235 Y18.356 E146.76447
G1 X168.807 Y18.627 E146.78553
G1 X169.339 Y18.967 E146.80652
G1 X169.919 Y19.464 E146.83193
G1 X170.036 Y19.581 E146.83743
G1 X170.453 Y20.056 E146.85846
G1 X170.808 Y20.579 E146.87948
G1 X171.094 Y21.143 E146.90051
G1 X171.306 Y21.738 E146.92152
G1 X171.442 Y22.356 E146.94257
G1 X171.5 Y23.117 E146.96795
G1 X171.5 Y211.883 E153.24633
G1 X171.46 Y212.514 E153.26736
G1 X171.341 Y213.135 E153.28839
G1 X171.144 Y213.735 E153.3094
G1 X170.873 Y214.307 E153.33045
G1 X170.533 Y214.839 E153.35145
G1 X170.036 Y215.419 E153.37685
G1 X169.919 Y215.536 E153.38236
G1 X169.444 Y215.953 E153.40338
G1 X168.921 Y216.308 E153.4244
G1 X168.357 Y216.594 E153.44544
G1 X167.762 Y216.806 E153.46644
G1 X167.144 Y216.942 E153.48749
G1 X166.383 Y217 E153.51288
G1 X68.617 Y217 E156.76459
G1 X67.986 Y216.96 E156.78562
G1 X67.365 Y216.841 E156.80665
G1 X66.765 Y216.644 E156.82765
G1 X66.193 Y216.373 E156.8487
G1 X65.661 Y216.033 E156.8697
G1 X65.081 Y215.536 E156.89511
