;FLAVOR:Marlin
;TIME:2281
;Filament used: 1.45072m
;Layer height: 0.2
;MINX:78.48
;MINY:79.948
;MINZ:0.2
;MAXX:156.505
;MAXY:155.057
;MAXZ:3.8
;Generated with Cura_SteamEngine 4.10.0
M140 S50
M105
M190 S50
M104 S200
M105
M109 S200
M82 ;absolute extrusion mode
; Ender 3 Custom Start G-code
G92 E0 ; Reset Extruder
G28 ; Home all axes
G1 Z2.0 F3000 ; Move Z Axis up little to prevent scratching of Heat Bed
G1 X0.1 Y20 Z0.3 F5000.0 ; Move to start position
G1 X0.1 Y200.0 Z0.3 F1500.0 E15 ; Draw the first line
G1 X0.4 Y200.0 Z0.3 F5000.0 ; Move to side a little
G1 X0.4 Y20 Z0.3 F1500.0 E30 ; Draw the second line
G92 E0 ; Reset Extruder
G1 Z2.0 F3000 ; Move Z Axis up little to prevent scratching of Heat Bed
G1 X5 Y20 Z0.3 F5000.0 ; Move over to prevent blob squish
G92 E0
G92 E0
G1 F2700 E-5
;LAYER_COUNT:19
;LAYER:0
M107
G0 F6000 X89.563 Y83.703 Z0.2
;TYPE:SKIRT
G1 F2700 E0
G1 F1200 X90.23 Y83.042 E0.03123
G1 X90.949 Y82.441 E0.0624
G1 X91.718 Y81.903 E0.09362
G1 X92.529 Y81.433 E0.12479
G1 X93.378 Y81.034 E0.15599
G1 X94.257 Y80.708 E0.18717
G1 X95.161 Y80.458 E0.21837
G1 X96.083 Y80.287 E0.24956
G1 X97.202 Y80.185 E0.28693
G1 X97.482 Y80.174 E0.29625
G1 X97.847 Y80.166 E0.30839
G1 X133.82 Y79.948 E1.50488
G1 X134.555 Y79.954 E1.52933
G1 X135.491 Y80.002 E1.5605
G1 X136.421 Y80.129 E1.59172
G1 X137.336 Y80.335 E1.62292
G1 X138.23 Y80.618 E1.65411
G1 X139.096 Y80.977 E1.68529
G1 X139.93 Y81.407 E1.71649
G1 X140.723 Y81.908 E1.74769
G1 X141.471 Y82.473 E1.77887
G1 X142.168 Y83.101 E1.81007
G1 X142.809 Y83.786 E1.84128
G1 X143.484 Y84.656 E1.8779
G1 X143.988 Y85.446 E1.90907
G1 X144.591 Y86.652 E1.95392
G1 X145.112 Y87.874 E1.9981
G1 X146.079 Y90.07 E2.07791
G1 X147.139 Y92.307 E2.16024
G1 X148.283 Y94.556 E2.24416
G1 X149.493 Y96.779 E2.32834
G1 X150.919 Y99.219 E2.42234
G1 X154.659 Y105.404 E2.66274
G1 X154.993 Y105.973 E2.68469
G1 X155.433 Y106.801 E2.71587
G1 X155.801 Y107.664 E2.74708
G1 X156.094 Y108.555 E2.77827
G1 X156.31 Y109.467 E2.80944
G1 X156.447 Y110.395 E2.84064
G1 X156.505 Y111.331 E2.87184
G1 X156.483 Y112.269 E2.90304
G1 X156.381 Y113.201 E2.93423
G1 X156.2 Y114.121 E2.96541
G1 X155.941 Y115.023 E2.99662
G1 X155.607 Y115.899 E3.02781
G1 X155.199 Y116.743 E3.05899
G1 X154.721 Y117.55 E3.09018
G1 X154.175 Y118.313 E3.12139
G1 X153.567 Y119.027 E3.15258
G1 X152.734 Y119.834 E3.19115
G1 X151.832 Y120.62 E3.23095
G1 X149.95 Y122.301 E3.31488
G1 X148.106 Y124.044 E3.39927
G1 X146.338 Y125.814 E3.48248
G1 X144.608 Y127.646 E3.56629
G1 X142.925 Y129.533 E3.65038
G1 X141.303 Y131.457 E3.73408
G1 X139.752 Y133.408 E3.81698
G1 X138.218 Y135.452 E3.90198
G1 X136.773 Y137.498 E3.98529
G1 X135.367 Y139.609 E4.06965
G1 X134.431 Y141.094 E4.12803
G1 X133.903 Y141.948 E4.16143
G1 X133.376 Y142.724 E4.19263
G1 X132.785 Y143.452 E4.22381
G1 X132.135 Y144.127 E4.25498
G1 X131.429 Y144.745 E4.28619
G1 X130.673 Y145.3 E4.31738
G1 X129.872 Y145.788 E4.34858
G1 X129.033 Y146.207 E4.37977
G1 X128.161 Y146.552 E4.41096
G1 X127.467 Y146.768 E4.43513
G1 X124.847 Y147.489 E4.52552
G1 X122.442 Y148.225 E4.60917
G1 X120.057 Y149.028 E4.69287
G1 X117.687 Y149.902 E4.77688
G1 X115.361 Y150.836 E4.86025
G1 X113.055 Y151.838 E4.94388
G1 X110.721 Y152.932 E5.02961
G1 X109.564 Y153.504 E5.07254
G1 X108.831 Y153.873 E5.09983
G1 X107.976 Y154.259 E5.13104
G1 X107.091 Y154.57 E5.16223
G1 X106.183 Y154.805 E5.19343
G1 X105.258 Y154.961 E5.22463
G1 X104.052 Y155.046 E5.26484
G1 X103.221 Y155.057 E5.29248
G1 X90.029 Y155.056 E5.73125
G1 X89.331 Y155.046 E5.75447
G1 X88.395 Y154.992 E5.78565
G1 X87.467 Y154.86 E5.81683
G1 X86.553 Y154.648 E5.84803
G1 X85.661 Y154.359 E5.87922
G1 X84.796 Y153.996 E5.91042
G1 X83.966 Y153.56 E5.9416
G1 X83.175 Y153.055 E5.97282
G1 X82.431 Y152.484 E6.00401
G1 X81.738 Y151.852 E6.03521
G1 X81.101 Y151.164 E6.06639
G1 X80.526 Y150.423 E6.09759
G1 X80.015 Y149.637 E6.12877
G1 X79.573 Y148.809 E6.15999
G1 X79.204 Y147.947 E6.19117
G1 X78.909 Y147.057 E6.22236
G1 X78.691 Y146.145 E6.25355
G1 X78.551 Y145.217 E6.28476
G1 X78.493 Y144.342 E6.31393
G1 X78.484 Y144.006 E6.32511
G1 X78.48 Y143.711 E6.33492
G1 X78.481 Y133.769 E6.66559
G1 X78.492 Y133.06 E6.68918
G1 X78.547 Y132.124 E6.72036
G1 X78.681 Y131.196 E6.75155
G1 X78.894 Y130.282 E6.78276
G1 X79.281 Y129.139 E6.8229
G1 X79.446 Y128.729 E6.8376
G1 X80.235 Y126.845 E6.90553
G1 X81.147 Y124.481 E6.98981
G1 X81.98 Y122.127 E7.07286
G1 X82.749 Y119.739 E7.1563
G1 X83.451 Y117.328 E7.23982
G1 X84.094 Y114.863 E7.32455
G1 X84.667 Y112.388 E7.40905
G1 X85.151 Y109.973 E7.49097
G1 X85.581 Y107.465 E7.5756
G1 X85.934 Y104.998 E7.65849
G1 X86.221 Y102.483 E7.74268
G1 X86.436 Y99.974 E7.82644
G1 X86.581 Y97.441 E7.91082
G1 X86.652 Y94.982 E7.99264
G1 X86.642 Y91.711 E8.10144
G1 X86.636 Y91.403 E8.11168
G1 X86.657 Y90.465 E8.14289
G1 X86.758 Y89.532 E8.1741
G1 X86.937 Y88.612 E8.20528
G1 X87.195 Y87.71 E8.23648
G1 X87.528 Y86.833 E8.26768
G1 X87.935 Y85.988 E8.29888
G1 X88.412 Y85.181 E8.33005
G1 X88.956 Y84.417 E8.36125
G1 X89.563 Y83.703 E8.39242
G0 F6000 X89.961 Y83.864
G1 F1200 X90.625 Y83.225 E8.42307
G1 X91.341 Y82.647 E8.45367
G1 X92.105 Y82.133 E8.4843
G1 X92.911 Y81.688 E8.51492
G1 X93.752 Y81.313 E8.54555
G1 X94.622 Y81.014 E8.57615
G1 X95.516 Y80.791 E8.60679
G1 X96.425 Y80.646 E8.63741
G1 X97.218 Y80.585 E8.66386
G1 X97.498 Y80.574 E8.67318
G1 X97.849 Y80.566 E8.68486
G1 X133.817 Y80.348 E9.88118
G1 X134.552 Y80.354 E9.90563
G1 X135.471 Y80.402 E9.93624
G1 X136.383 Y80.529 E9.96686
G1 X137.28 Y80.735 E9.99747
G1 X138.156 Y81.017 E10.02808
G1 X139.005 Y81.375 E10.05873
G1 X139.819 Y81.805 E10.08935
G1 X140.592 Y82.304 E10.11995
G1 X141.32 Y82.869 E10.1506
G1 X141.995 Y83.494 E10.18119
G1 X142.614 Y84.176 E10.21183
G1 X143.156 Y84.885 E10.24151
G1 X143.651 Y85.662 E10.27215
G1 X144.223 Y86.808 E10.31475
G1 X144.767 Y88.083 E10.36086
G1 X145.695 Y90.193 E10.43752
G1 X146.786 Y92.495 E10.52225
G1 X147.933 Y94.751 E10.60643
G1 X149.14 Y96.967 E10.69036
G1 X150.575 Y99.422 E10.78494
G1 X154.314 Y105.606 E11.02529
G1 X154.648 Y106.175 E11.04723
G1 X155.08 Y106.988 E11.07786
G1 X155.439 Y107.836 E11.10848
G1 X155.723 Y108.712 E11.13911
G1 X155.929 Y109.609 E11.16972
G1 X156.058 Y110.521 E11.20036
G1 X156.107 Y111.44 E11.23097
G1 X156.075 Y112.36 E11.26159
G1 X155.964 Y113.274 E11.29221
G1 X155.775 Y114.175 E11.32283
G1 X155.507 Y115.056 E11.35346
G1 X155.164 Y115.911 E11.3841
G1 X154.749 Y116.732 E11.41469
G1 X154.264 Y117.514 E11.4453
G1 X153.712 Y118.252 E11.47595
G1 X153.099 Y118.938 E11.50655
G1 X152.471 Y119.533 E11.53532
G1 X151.594 Y120.297 E11.57401
G1 X149.673 Y122.013 E11.65968
G1 X147.832 Y123.753 E11.74394
G1 X146.047 Y125.54 E11.82794
G1 X144.301 Y127.388 E11.9125
G1 X142.621 Y129.272 E11.99646
G1 X141 Y131.196 E12.08014
G1 X139.435 Y133.164 E12.16377
G1 X137.887 Y135.227 E12.24955
G1 X136.457 Y137.251 E12.33198
G1 X135.035 Y139.387 E12.41732
G1 X134.042 Y140.962 E12.47925
G1 X133.563 Y141.737 E12.50955
G1 X133.045 Y142.499 E12.5402
G1 X132.463 Y143.212 E12.57081
G1 X131.822 Y143.872 E12.60141
G1 X131.126 Y144.475 E12.63204
G1 X130.38 Y145.014 E12.66265
G1 X129.589 Y145.487 E12.6933
G1 X128.761 Y145.889 E12.72392
G1 X127.902 Y146.218 E12.75451
G1 X127.36 Y146.383 E12.77336
G1 X124.738 Y147.105 E12.86381
G1 X122.313 Y147.846 E12.94815
G1 X119.917 Y148.654 E13.03225
G1 X117.548 Y149.527 E13.11622
G1 X115.201 Y150.469 E13.20033
G1 X112.892 Y151.473 E13.28408
G1 X110.572 Y152.56 E13.36929
G1 X109.387 Y153.146 E13.41326
G1 X108.651 Y153.516 E13.44066
G1 X107.811 Y153.894 E13.4713
G1 X106.942 Y154.197 E13.50191
G1 X106.05 Y154.424 E13.53252
G1 X105.141 Y154.573 E13.56316
G1 X104.046 Y154.646 E13.59966
G1 X103.221 Y154.657 E13.6271
G1 X90.035 Y154.656 E14.06567
G1 X89.337 Y154.646 E14.08889
G1 X88.418 Y154.593 E14.1195
G1 X87.507 Y154.46 E14.15012
G1 X86.611 Y154.249 E14.18074
G1 X85.737 Y153.961 E14.21135
G1 X84.89 Y153.598 E14.242
G1 X84.079 Y153.163 E14.27261
G1 X83.309 Y152.659 E14.30321
G1 X82.585 Y152.09 E14.33384
G1 X81.913 Y151.46 E14.36448
G1 X81.298 Y150.775 E14.3951
G1 X80.745 Y150.039 E14.42572
G1 X80.258 Y149.258 E14.45633
G1 X79.841 Y148.437 E14.48696
G1 X79.496 Y147.583 E14.51759
G1 X79.227 Y146.703 E14.5482
G1 X79.035 Y145.802 E14.57884
G1 X78.922 Y144.889 E14.60943
G1 X78.893 Y144.331 E14.62802
G1 X78.884 Y143.995 E14.6392
G1 X78.88 Y143.711 E14.64864
G1 X78.881 Y133.776 E14.97908
G1 X78.892 Y133.067 E15.00267
G1 X78.947 Y132.148 E15.03329
G1 X79.08 Y131.237 E15.06391
G1 X79.293 Y130.341 E15.09454
G1 X79.652 Y129.288 E15.13154
G1 X79.815 Y128.884 E15.14603
G1 X80.601 Y127.008 E15.21368
G1 X81.521 Y124.622 E15.29874
G1 X82.351 Y122.277 E15.38147
G1 X83.14 Y119.825 E15.46715
G1 X83.836 Y117.435 E15.54994
G1 X84.485 Y114.948 E15.63543
G1 X85.055 Y112.484 E15.71955
G1 X85.543 Y110.048 E15.80218
G1 X85.977 Y107.523 E15.88739
G1 X86.329 Y105.063 E15.97004
G1 X86.622 Y102.491 E16.05614
G1 X86.833 Y100.03 E16.1383
G1 X86.979 Y97.476 E16.22338
G1 X87.052 Y94.96 E16.3071
G1 X87.042 Y91.701 E16.41549
G1 X87.036 Y91.394 E16.42571
G1 X87.057 Y90.474 E16.45631
G1 X87.158 Y89.559 E16.48693
G1 X87.338 Y88.656 E16.51756
G1 X87.596 Y87.772 E16.54819
G1 X87.929 Y86.914 E16.5788
G1 X88.336 Y86.088 E16.60942
G1 X88.812 Y85.3 E16.64004
G1 X89.355 Y84.557 E16.67065
G1 X89.961 Y83.864 E16.70127
G0 F6000 X90.358 Y84.028
G1 F1200 X91.019 Y83.413 E16.7313
G1 X91.732 Y82.858 E16.76135
G1 X92.491 Y82.369 E16.79138
G1 X93.29 Y81.948 E16.82142
G1 X94.124 Y81.6 E16.85148
G1 X94.984 Y81.327 E16.88149
G1 X95.866 Y81.131 E16.91154
G1 X96.762 Y81.014 E16.94159
G1 X97.234 Y80.985 E16.95732
G1 X97.514 Y80.974 E16.96664
G1 X97.852 Y80.966 E16.97789
G1 X133.813 Y80.748 E18.17398
G1 X134.548 Y80.754 E18.19842
G1 X135.45 Y80.802 E18.22847
G1 X136.344 Y80.929 E18.2585
G1 X137.224 Y81.134 E18.28855
G1 X138.081 Y81.417 E18.31857
G1 X138.911 Y81.774 E18.34862
G1 X139.705 Y82.203 E18.37864
G1 X140.459 Y82.701 E18.40869
G1 X141.165 Y83.264 E18.43872
G1 X141.819 Y83.886 E18.46874
G1 X142.416 Y84.565 E18.49882
G1 X142.828 Y85.115 E18.52167
G1 X143.313 Y85.877 E18.55171
G1 X143.855 Y86.965 E18.59214
G1 X144.392 Y88.224 E18.63767
G1 X145.339 Y90.376 E18.71587
G1 X146.425 Y92.668 E18.80022
G1 X147.582 Y94.944 E18.88514
G1 X148.78 Y97.143 E18.96843
G1 X150.231 Y99.625 E19.06406
G1 X153.901 Y105.693 E19.29992
G1 X154.303 Y106.378 E19.32634
G1 X154.726 Y107.176 E19.35638
G1 X155.076 Y108.008 E19.3864
G1 X155.351 Y108.869 E19.41646
G1 X155.548 Y109.75 E19.44649
G1 X155.668 Y110.645 E19.47652
G1 X155.707 Y111.547 E19.50655
G1 X155.666 Y112.449 E19.53658
G1 X155.546 Y113.344 E19.56661
G1 X155.347 Y114.225 E19.59665
G1 X155.071 Y115.085 E19.6267
G1 X154.72 Y115.917 E19.65673
G1 X154.297 Y116.715 E19.68677
G1 X153.805 Y117.472 E19.7168
G1 X153.248 Y118.183 E19.74684
G1 X152.63 Y118.842 E19.77689
G1 X152.208 Y119.231 E19.79598
G1 X151.35 Y119.978 E19.83381
G1 X149.395 Y121.725 E19.92102
G1 X147.557 Y123.462 E20.00513
G1 X145.755 Y125.265 E20.08991
G1 X144.029 Y127.094 E20.17356
G1 X142.3 Y129.032 E20.25994
G1 X140.697 Y130.935 E20.3427
G1 X139.117 Y132.921 E20.4271
G1 X137.585 Y134.963 E20.51201
G1 X136.102 Y137.062 E20.59749
G1 X134.696 Y139.174 E20.68188
G1 X133.751 Y140.673 E20.74081
G1 X133.223 Y141.527 E20.77421
G1 X132.714 Y142.273 E20.80425
G1 X132.142 Y142.972 E20.83429
G1 X131.51 Y143.617 E20.86432
G1 X130.823 Y144.204 E20.89438
G1 X130.087 Y144.727 E20.92441
G1 X129.308 Y145.184 E20.95445
G1 X128.492 Y145.569 E20.98446
G1 X127.254 Y145.997 E21.02802
G1 X124.62 Y146.722 E21.11889
G1 X122.205 Y147.46 E21.20288
G1 X119.798 Y148.271 E21.28736
G1 X117.41 Y149.152 E21.37202
G1 X115.017 Y150.112 E21.45777
G1 X112.741 Y151.102 E21.54032
G1 X110.364 Y152.216 E21.62764
G1 X109.272 Y152.756 E21.66815
G1 X108.471 Y153.159 E21.69798
G1 X107.647 Y153.529 E21.72802
G1 X106.794 Y153.824 E21.75804
G1 X105.918 Y154.043 E21.78807
G1 X105.026 Y154.183 E21.8181
G1 X104.04 Y154.246 E21.85096
G1 X103.221 Y154.257 E21.87821
G1 X90.041 Y154.256 E22.31658
G1 X89.343 Y154.246 E22.33979
G1 X88.441 Y154.193 E22.36985
G1 X87.548 Y154.061 E22.39987
G1 X86.67 Y153.85 E22.4299
G1 X85.814 Y153.562 E22.45994
G1 X84.987 Y153.2 E22.48997
G1 X84.195 Y152.765 E22.52002
G1 X83.444 Y152.263 E22.55007
G1 X82.741 Y151.696 E22.58011
G1 X82.091 Y151.069 E22.61014
G1 X81.499 Y150.387 E22.64018
G1 X80.969 Y149.656 E22.67021
G1 X80.507 Y148.88 E22.70025
G1 X80.114 Y148.067 E22.73028
G1 X79.796 Y147.222 E22.76031
G1 X79.553 Y146.352 E22.79036
G1 X79.388 Y145.464 E22.8204
G1 X79.293 Y144.32 E22.85858
G1 X79.284 Y143.984 E22.86976
G1 X79.28 Y143.711 E22.87884
G1 X79.281 Y133.782 E23.20908
G1 X79.292 Y133.073 E23.23266
G1 X79.346 Y132.171 E23.26272
G1 X79.48 Y131.278 E23.29275
G1 X79.692 Y130.4 E23.32279
G1 X80.023 Y129.436 E23.35669
G1 X80.184 Y129.038 E23.37097
G1 X80.984 Y127.127 E23.43988
G1 X81.889 Y124.782 E23.52348
G1 X82.733 Y122.396 E23.60766
G1 X83.519 Y119.955 E23.69295
G1 X84.222 Y117.543 E23.77651
G1 X84.867 Y115.068 E23.86158
G1 X85.448 Y112.555 E23.94737
G1 X85.937 Y110.116 E24.0301
G1 X86.374 Y107.576 E24.11582
G1 X86.728 Y105.094 E24.19921
G1 X87.017 Y102.57 E24.28371
G1 X87.235 Y100.019 E24.36886
G1 X87.379 Y97.51 E24.45245
G1 X87.452 Y94.971 E24.53693
G1 X87.442 Y91.692 E24.64599
G1 X87.436 Y91.386 E24.65617
G1 X87.458 Y90.483 E24.68622
G1 X87.559 Y89.586 E24.71624
G1 X87.739 Y88.701 E24.74628
G1 X87.997 Y87.835 E24.77633
G1 X88.33 Y86.996 E24.80635
G1 X88.737 Y86.19 E24.83639
G1 X89.213 Y85.422 E24.86644
G1 X89.755 Y84.7 E24.89647
G1 X90.358 Y84.028 E24.9265
G1 F2700 E19.9265
;MESH:inflatableGibbonCaseTop.stl
G0 F6000 X99.657 Y121.076
G0 X100.289 Y121.954
G0 X97.005 Y134.011
G0 X90.262 Y134.015
G0 X90.262 Y143.275
G0 X103.46 Y143.457
;TYPE:WALL-INNER
G1 F2700 E24.9265
G1 F1200 X90.08 Y143.457 E25.37152
G1 X90.08 Y133.833 E25.69161
G1 X96.872 Y133.833 E25.91751
G1 X100.446 Y122.065 E26.32657
G1 X106.888 Y117.437 E26.59039
G1 X98.535 Y92.021 E27.48022
G1 X98.45 Y91.762 E27.48928
G1 X98.722 Y91.762 E27.49466
G1 X98.723 Y91.761 E27.49471
G1 X133.665 Y91.547 E28.65691
G1 X133.666 Y91.546 E28.65695
G1 X133.867 Y91.546 E28.66364
G1 X133.867 Y91.747 E28.66796
G1 X133.866 Y91.748 E28.66801
G1 X133.76 Y103.44 E29.0569
G1 X133.759 Y103.441 E29.05695
G1 X133.758 Y103.766 E29.06776
G1 X134.049 Y103.62 E29.07398
G1 X138.633 Y101.318 E29.24458
G1 X144.737 Y111.409 E29.63684
G1 X125.822 Y126.847 E30.4489
G1 X124.062 Y135.573 E30.74497
G1 X110.794 Y135.573 E31.18626
G1 X109.651 Y128.029 E31.44004
G1 X108.712 Y127.945 E31.4714
G1 X103.46 Y143.457 E32.0161
G0 F6000 X103.747 Y143.857
;TYPE:WALL-OUTER
G1 F1200 X89.68 Y143.857 E32.48397
G1 X89.68 Y133.433 E32.83067
G1 X96.575 Y133.433 E33.06
G1 X100.102 Y121.82 E33.46367
G1 X106.416 Y117.283 E33.72227
G1 X97.899 Y91.365 E34.62966
G1 X134.271 Y91.144 E35.83942
G1 X134.164 Y103.115 E36.23759
G1 X138.784 Y100.795 E36.40954
G1 X145.259 Y111.5 E36.82565
G1 X126.186 Y127.066 E37.64447
G1 X124.389 Y135.973 E37.94669
G1 X110.451 Y135.973 E38.41027
G1 X109.303 Y128.399 E38.66506
G1 X108.99 Y128.371 E38.67551
G1 X103.747 Y143.857 E39.2193
G0 F6000 X103.181 Y143.067
;TYPE:SKIN
G1 F1200 X90.47 Y143.067 E39.64207
G1 X90.47 Y134.223 E39.93622
G1 X97.161 Y134.223 E40.15876
G1 X100.78 Y122.304 E40.57306
G1 X107.348 Y117.587 E40.84202
G1 X98.988 Y92.148 E41.73264
G1 X133.473 Y91.938 E42.87963
G1 X133.362 Y104.401 E43.29417
G1 X138.486 Y101.829 E43.48486
G1 X144.228 Y111.321 E43.85384
G1 X125.467 Y126.633 E44.65928
G1 X123.743 Y135.183 E44.94937
G1 X111.129 Y135.183 E45.36892
G1 X109.991 Y127.668 E45.62172
G1 X108.441 Y127.529 E45.67348
G1 X103.181 Y143.067 E46.21908
G0 F6000 X103.444 Y143.157
G0 X90.863 Y143.347
G0 X90.863 Y142.906
G1 F1200 X90.629 Y142.672 E46.23009
G0 F6000 X90.629 Y142.107
G1 F1200 X91.428 Y142.906 E46.26767
G0 F6000 X91.994 Y142.906
G1 F1200 X90.629 Y141.541 E46.33188
G0 F6000 X90.629 Y140.975
G1 F1200 X92.56 Y142.906 E46.42271
G0 F6000 X93.125 Y142.906
G1 F1200 X90.629 Y140.41 E46.54011
G0 F6000 X90.629 Y139.844
G1 F1200 X93.691 Y142.906 E46.68414
G0 F6000 X94.257 Y142.906
G1 F1200 X90.629 Y139.278 E46.85479
G0 F6000 X90.629 Y138.713
G1 F1200 X94.823 Y142.906 E47.05204
