;FLAVOR:Marlin
;TIME:3270
;Filament used: 1.70427m
;Layer height: 0.16
;MINX:85.419
;MINY:85.553
;MINZ:0.2
;MAXX:149.584
;MAXY:149.446
;MAXZ:9.8
;Generated with Cura_SteamEngine 4.10.0
M140 S50
M105
M190 S50
M104 S200
M105
M109 S200
M82 ;absolute extrusion mode
; Ender 3 Custom Start G-code
G92 E0 ; Reset Extruder
G28 ; Home all axes
G1 Z2.0 F3000 ; Move Z Axis up little to prevent scratching of Heat Bed
G1 X0.1 Y20 Z0.3 F5000.0 ; Move to start position
G1 X0.1 Y200.0 Z0.3 F1500.0 E15 ; Draw the first line
G1 X0.4 Y200.0 Z0.3 F5000.0 ; Move to side a little
G1 X0.4 Y20 Z0.3 F1500.0 E30 ; Draw the second line
G92 E0 ; Reset Extruder
G1 Z2.0 F3000 ; Move Z Axis up little to prevent scratching of Heat Bed
G1 X5 Y20 Z0.3 F5000.0 ; Move over to prevent blob squish
G92 E0
G92 E0
G1 F2700 E-5
;LAYER_COUNT:53
;LAYER:0
M107
G0 F6000 X96.215 Y88.578 Z0.2
;TYPE:SKIRT
G1 F2700 E0
G1 F1200 X96.426 Y88.366 E0.00995
G1 X97.01 Y87.835 E0.0362
G1 X97.369 Y87.558 E0.05128
G1 X97.647 Y87.356 E0.06271
G1 X98.308 Y86.925 E0.08896
G1 X98.68 Y86.722 E0.10305
G1 X98.985 Y86.566 E0.11445
G1 X99.705 Y86.242 E0.14071
G1 X100.111 Y86.097 E0.15505
G1 X100.383 Y86.008 E0.16457
G1 X101.492 Y85.733 E0.20257
G1 X101.854 Y85.671 E0.21478
G1 X102.913 Y85.563 E0.25019
G1 X103.094 Y85.557 E0.25621
G1 X103.352 Y85.553 E0.26479
G1 X110.913 Y85.553 E0.51627
G1 X111.559 Y85.58 E0.53778
G1 X111.884 Y85.607 E0.54863
G1 X112.666 Y85.712 E0.57487
G1 X113.124 Y85.811 E0.59045
G1 X113.441 Y85.89 E0.60132
G1 X114.528 Y86.248 E0.63938
G1 X114.853 Y86.382 E0.65108
G1 X115.567 Y86.719 E0.67734
G1 X116.071 Y87.014 E0.69676
G1 X116.341 Y87.186 E0.70741
G1 X116.892 Y87.595 E0.73023
G1 X116.95 Y87.55 E0.73267
G1 X117.226 Y87.349 E0.74403
G1 X117.887 Y86.917 E0.77029
G1 X118.268 Y86.709 E0.78473
G1 X118.536 Y86.572 E0.79474
G1 X119.256 Y86.248 E0.821
G1 X119.675 Y86.099 E0.83579
G1 X119.998 Y85.994 E0.84709
G1 X120.76 Y85.788 E0.87334
G1 X121.226 Y85.702 E0.8891
G1 X121.565 Y85.65 E0.90051
G1 X122.392 Y85.568 E0.92815
G1 X122.545 Y85.561 E0.93324
G1 X122.901 Y85.553 E0.94509
G1 X130.47 Y85.553 E1.19683
G1 X131.07 Y85.576 E1.21681
G1 X131.407 Y85.602 E1.22805
G1 X132.19 Y85.703 E1.25431
G1 X132.704 Y85.813 E1.27179
G1 X133.055 Y85.901 E1.28382
G1 X133.81 Y86.132 E1.31008
G1 X134.237 Y86.3 E1.32535
G1 X134.514 Y86.419 E1.33537
G1 X135.223 Y86.767 E1.36164
G1 X135.597 Y86.989 E1.37611
G1 X135.876 Y87.165 E1.38708
G1 X136.776 Y87.828 E1.42426
G1 X137.021 Y88.037 E1.43497
G1 X137.595 Y88.579 E1.46123
G1 X137.869 Y88.881 E1.47479
G1 X138.074 Y89.119 E1.48524
G1 X138.558 Y89.742 E1.51148
G1 X138.822 Y90.146 E1.52753
G1 X139.002 Y90.441 E1.53902
G1 X139.379 Y91.135 E1.56529
G1 X139.548 Y91.513 E1.57906
G1 X139.668 Y91.802 E1.58947
G1 X140.034 Y92.912 E1.62834
G1 X140.113 Y93.23 E1.63924
G1 X140.264 Y94.005 E1.6655
G1 X140.32 Y94.515 E1.68257
G1 X140.346 Y94.854 E1.69388
G1 X140.368 Y95.595 E1.71853
G1 X140.363 Y95.864 E1.72748
G1 X140.272 Y96.911 E1.76244
G1 X140.216 Y97.273 E1.77462
G1 X140.056 Y98.047 E1.80091
G1 X139.925 Y98.496 E1.81646
G1 X139.84 Y98.757 E1.82559
G1 X139.5 Y99.622 E1.85651
G1 X139.462 Y99.704 E1.85951
G1 X139.319 Y99.997 E1.87036
G1 X139.139 Y100.341 E1.88327
G1 X139.101 Y100.411 E1.88592
G1 X138.495 Y101.358 E1.92331
G1 X138.315 Y101.599 E1.93332
G1 X137.655 Y102.372 E1.96712
G1 X137.435 Y102.598 E1.97761
G1 X136.856 Y103.135 E2.00388
G1 X136.448 Y103.455 E2.02113
G1 X136.177 Y103.653 E2.03229
G1 X135.901 Y103.834 E2.04327
G1 X135.877 Y104.255 E2.05729
G1 X135.851 Y104.565 E2.06764
G1 X135.8 Y105.016 E2.08273
G1 X135.742 Y105.422 E2.09638
G1 X135.698 Y105.692 E2.10547
G1 X135.622 Y106.117 E2.11983
G1 X135.571 Y106.378 E2.12868
G1 X135.493 Y106.742 E2.14106
G1 X135.432 Y107.005 E2.15004
G1 X135.344 Y107.356 E2.16208
G1 X135.277 Y107.604 E2.17062
G1 X135.154 Y108.034 E2.1855
G1 X135.091 Y108.243 E2.19276
G1 X134.959 Y108.66 E2.2073
G1 X134.854 Y108.97 E2.21819
G1 X134.681 Y109.44 E2.23485
G1 X134.47 Y109.981 E2.25416
G1 X134.402 Y110.15 E2.26022
G1 X134.256 Y110.5 E2.27283
G1 X134.142 Y110.76 E2.28228
G1 X134.002 Y111.064 E2.29341
G1 X133.894 Y111.289 E2.30171
G1 X133.661 Y111.755 E2.31904
G1 X133.539 Y111.989 E2.32781
G1 X133.318 Y112.396 E2.34322
G1 X133.19 Y112.622 E2.35186
G1 X133.028 Y112.898 E2.3625
G1 X132.881 Y113.139 E2.37189
G1 X132.641 Y113.516 E2.38675
G1 X132.439 Y113.818 E2.39884
G1 X132.27 Y114.058 E2.4086
G1 X132.024 Y114.389 E2.42232
G1 X132.34 Y114.583 E2.43465
G1 X132.62 Y114.767 E2.44579
G1 X132.655 Y114.786 E2.44712
G1 X133.204 Y115.16 E2.46921
G1 X133.552 Y115.419 E2.48364
G1 X133.849 Y115.651 E2.49618
G1 X134.192 Y115.933 E2.51095
G1 X134.185 Y115.941 E2.5113
G1 X134.702 Y116.38 E2.53386
G1 X135.034 Y116.7 E2.54919
G1 X135.334 Y117.005 E2.56342
G1 X135.638 Y117.332 E2.57827
G1 X136.044 Y117.806 E2.59903
G1 X136.357 Y118.202 E2.61582
G1 X136.685 Y118.649 E2.63426
G1 X136.939 Y119.022 E2.64927
G1 X137.101 Y119.269 E2.65909
G1 X137.358 Y119.679 E2.67519
G1 X137.567 Y120.033 E2.68886
G1 X137.801 Y120.454 E2.70488
G1 X137.951 Y120.737 E2.71553
G1 X138.19 Y121.212 E2.73322
G1 X138.321 Y121.486 E2.74332
G1 X138.53 Y121.945 E2.7601
G1 X138.656 Y122.238 E2.7707
G1 X138.847 Y122.709 E2.78761
G1 X139.067 Y123.276 E2.80784
G1 X139.149 Y123.497 E2.81568
G1 X139.294 Y123.907 E2.83014
G1 X139.399 Y124.226 E2.84131
G1 X139.69 Y125.177 E2.87439
G1 X139.755 Y125.402 E2.88218
G1 X139.978 Y126.224 E2.91051
G1 X140.101 Y126.712 E2.92725
G1 X140.252 Y127.338 E2.94866
G1 X140.931 Y127.381 E2.97129
G1 X141.271 Y127.424 E2.98269
G1 X142.048 Y127.562 E3.00894
G1 X142.659 Y127.73 E3.03001
G1 X142.995 Y127.837 E3.04174
G1 X143.734 Y128.114 E3.06799
G1 X144.106 Y128.287 E3.08164
G1 X144.371 Y128.419 E3.09148
G1 X145.059 Y128.807 E3.11776
G1 X145.704 Y129.262 E3.14401
G1 X146.061 Y129.558 E3.15943
G1 X146.286 Y129.757 E3.16942
G1 X146.85 Y130.31 E3.1957
G1 X147.58 Y131.231 E3.23478
G1 X147.795 Y131.549 E3.24755
G1 X148.203 Y132.225 E3.27381
G1 X148.439 Y132.703 E3.29154
G1 X148.634 Y133.134 E3.30728
G1 X148.988 Y134.071 E3.34059
G1 X149.05 Y134.274 E3.34765
G1 X149.145 Y134.613 E3.35936
G1 X149.231 Y134.948 E3.37086
G1 X149.322 Y135.343 E3.38435
G1 X149.365 Y135.556 E3.39157
G1 X149.441 Y135.997 E3.40646
G1 X149.482 Y136.284 E3.4161
G1 X149.538 Y136.797 E3.43326
G1 X149.559 Y137.074 E3.4425
G1 X149.58 Y137.573 E3.45911
G1 X149.584 Y137.915 E3.47049
G1 X149.575 Y138.398 E3.48656
G1 X149.566 Y138.577 E3.49252
G1 X149.521 Y139.108 E3.51024
G1 X149.475 Y139.494 E3.52317
G1 X149.373 Y140.127 E3.5445
G1 X149.317 Y140.402 E3.55383
G1 X149.165 Y141.02 E3.575
G1 X149.091 Y141.275 E3.58383
G1 X148.854 Y141.968 E3.60819
G1 X148.739 Y142.259 E3.6186
G1 X148.374 Y143.05 E3.64757
G1 X148.237 Y143.308 E3.65729
G1 X147.856 Y143.949 E3.68209
G1 X147.71 Y144.17 E3.6909
G1 X147.118 Y144.955 E3.7236
G1 X146.947 Y145.154 E3.73233
G1 X146.546 Y145.585 E3.75191
G1 X146.179 Y145.951 E3.76915
G1 X146.026 Y146.098 E3.7762
G1 X145.594 Y146.483 E3.79545
G1 X145.316 Y146.713 E3.80745
G1 X144.717 Y147.162 E3.83235
G1 X144.491 Y147.315 E3.84143
G1 X143.889 Y147.684 E3.86491
G1 X143.545 Y147.874 E3.87798
G1 X142.783 Y148.242 E3.90613
G1 X142.386 Y148.408 E3.92044
G1 X141.653 Y148.673 E3.94636
G1 X141.24 Y148.799 E3.96072
G1 X140.782 Y148.923 E3.97651
G1 X140.515 Y148.987 E3.98564
G1 X140.209 Y149.054 E3.99606
G1 X139.766 Y149.141 E4.01107
G1 X139.541 Y149.182 E4.01868
G1 X139.008 Y149.26 E4.0366
G1 X138.134 Y149.356 E4.06584
G1 X137.816 Y149.385 E4.07646
G1 X137.48 Y149.408 E4.08766
G1 X136.865 Y149.436 E4.10814
G1 X136.579 Y149.444 E4.11765
G1 X136.223 Y149.446 E4.12949
G1 X135.715 Y149.437 E4.14639
G1 X135.384 Y149.424 E4.15741
G1 X134.915 Y149.394 E4.17304
G1 X134.696 Y149.376 E4.18035
G1 X134.171 Y149.306 E4.19797
G1 X134.17 Y149.311 E4.19814
G1 X133.835 Y149.264 E4.20939
G1 X133.834 Y149.255 E4.20969
G1 X133.084 Y149.129 E4.23498
G1 X132.627 Y149.022 E4.25059
G1 X131.868 Y148.803 E4.27687
G1 X131.594 Y148.709 E4.2865
G1 X130.746 Y148.377 E4.31679
G1 X130.377 Y148.207 E4.33031
G1 X129.815 Y147.92 E4.35129
G1 X129.465 Y147.723 E4.36465
G1 X128.723 Y147.249 E4.39394
G1 X128.442 Y147.046 E4.40547
G1 X127.865 Y146.586 E4.43001
G1 X127.563 Y146.321 E4.44337
G1 X127.108 Y145.888 E4.46426
G1 X126.821 Y145.592 E4.47798
G1 X126.61 Y145.365 E4.48829
G1 X126.533 Y145.279 E4.49212
G1 X126.139 Y144.802 E4.5127
G1 X125.944 Y144.546 E4.52341
G1 X125.555 Y143.986 E4.54608
G1 X125.428 Y143.785 E4.55399
G1 X125.216 Y143.43 E4.56774
G1 X124.992 Y143.03 E4.58299
G1 X124.79 Y142.643 E4.59751
G1 X124.598 Y142.25 E4.61206
G1 X124.467 Y141.968 E4.6224
G1 X124.27 Y141.516 E4.6388
G1 X124.072 Y141.036 E4.65607
G1 X123.986 Y140.816 E4.66393
G1 X123.776 Y140.259 E4.68373
G1 X123.578 Y139.707 E4.70323
G1 X123.432 Y139.273 E4.71846
G1 X123.242 Y139.367 E4.72551
G1 X122.867 Y139.541 E4.73926
G1 X122.543 Y139.681 E4.751
G1 X122.215 Y139.814 E4.76277
G1 X121.888 Y139.938 E4.7744
G1 X121.497 Y140.075 E4.78818
G1 X121.156 Y140.184 E4.80009
G1 X120.758 Y140.299 E4.81387
G1 X120.403 Y140.392 E4.82608
G1 X120.082 Y140.469 E4.83706
G1 X119.7 Y140.552 E4.85006
G1 X119.292 Y140.63 E4.86387
G1 X118.86 Y140.7 E4.87843
G1 X118.541 Y140.745 E4.88914
G1 X118.049 Y140.804 E4.90563
G1 X117.547 Y140.847 E4.92238
G1 X117.055 Y140.874 E4.93877
G1 X116.607 Y140.886 E4.95368
G1 X116.227 Y140.885 E4.96632
G1 X115.872 Y140.876 E4.97813
G1 X115.561 Y140.861 E4.98848
G1 X115.205 Y140.836 E5.00035
G1 X114.802 Y140.798 E5.01382
G1 X114.464 Y140.758 E5.02514
G1 X114.168 Y140.717 E5.03508
G1 X113.854 Y140.667 E5.04565
G1 X113.56 Y140.614 E5.05559
G1 X113.255 Y140.553 E5.06593
G1 X112.962 Y140.488 E5.07591
G1 X112.684 Y140.421 E5.08543
G1 X112.496 Y140.372 E5.09189
G1 X111.457 Y140.022 E5.12835
G1 X111.052 Y139.851 E5.14297
G1 X110.659 Y139.677 E5.15727
G1 X110.259 Y139.491 E5.17194
G1 X110.01 Y139.37 E5.18115
G1 X109.781 Y139.254 E5.18969
G1 X109.397 Y139.049 E5.20417
G1 X109.159 Y138.917 E5.21322
G1 X108.911 Y138.774 E5.22274
G1 X108.694 Y138.643 E5.23117
G1 X108.453 Y138.491 E5.24065
G1 X108.23 Y138.345 E5.24951
G1 X107.912 Y138.126 E5.26235
G1 X107.71 Y137.979 E5.27066
G1 X107.463 Y137.791 E5.28099
G1 X107.253 Y137.625 E5.28989
G1 X106.803 Y137.241 E5.30957
G1 X106.445 Y136.911 E5.32576
G1 X105.821 Y136.265 E5.35563
G1 X105.487 Y135.877 E5.37266
G1 X104.929 Y135.146 E5.40325
G1 X104.642 Y134.72 E5.42033
G1 X104.271 Y134.11 E5.44408
G1 X104.134 Y133.86 E5.45356
G1 X103.895 Y133.386 E5.47122
G1 X103.784 Y133.146 E5.48001
G1 X103.631 Y132.793 E5.49281
G1 X103.578 Y132.701 E5.49634
G1 X103.163 Y131.86 E5.52753
G1 X103.046 Y131.582 E5.53756
G1 X102.777 Y130.839 E5.56385
G1 X102.654 Y130.39 E5.57933
G1 X102.564 Y130.018 E5.59206
G1 X102.508 Y129.721 E5.60211
G1 X102.479 Y129.707 E5.60318
G1 X102.212 Y129.557 E5.61337
G1 X102.004 Y129.436 E5.62137
G1 X101.674 Y129.237 E5.63419
G1 X101.418 Y129.077 E5.64423
G1 X101.103 Y128.87 E5.65677
G1 X100.851 Y128.696 E5.66695
G1 X100.63 Y128.538 E5.67599
G1 X100.464 Y128.416 E5.68284
G1 X100.194 Y128.212 E5.69409
G1 X99.891 Y127.971 E5.70697
G1 X99.689 Y127.802 E5.71573
G1 X99.489 Y127.629 E5.72453
G1 X99.123 Y127.3 E5.7409
G1 X98.953 Y127.143 E5.74859
G1 X98.739 Y126.938 E5.75845
G1 X98.451 Y126.651 E5.77197
G1 X98.286 Y126.481 E5.77985
G1 X97.93 Y126.104 E5.7971
G1 X97.729 Y125.869 E5.80738
G1 X97.456 Y125.575 E5.82073
G1 X97.111 Y125.171 E5.8384
G1 X95.854 Y123.638 E5.90433
G1 X95.793 Y123.595 E5.90682
G1 X95.275 Y123.3 E5.92664
G1 X94.894 Y123.093 E5.94106
G1 X94.507 Y122.887 E5.95565
G1 X92.345 Y121.773 E6.03654
G1 X91.849 Y121.494 E6.05547
G1 X91.234 Y121.118 E6.07944
G1 X91.006 Y120.972 E6.08845
G1 X90.697 Y120.768 E6.10076
G1 X90.323 Y120.505 E6.11597
G1 X90.089 Y120.33 E6.12569
G1 X89.668 Y119.992 E6.14364
G1 X89.335 Y119.705 E6.15827
G1 X88.712 Y119.106 E6.18701
G1 X88.372 Y118.74 E6.20363
G1 X87.852 Y118.118 E6.23059
G1 X87.622 Y117.812 E6.24332
G1 X87.117 Y117.051 E6.2737
G1 X86.87 Y116.627 E6.29002
G1 X86.386 Y115.643 E6.32649
G1 X86.195 Y115.174 E6.34334
G1 X85.922 Y114.384 E6.37114
G1 X85.833 Y114.074 E6.38186
G1 X85.719 Y113.63 E6.39711
G1 X85.675 Y113.434 E6.40379
G1 X85.567 Y112.849 E6.42358
G1 X85.519 Y112.519 E6.43467
G1 X85.461 Y111.989 E6.4524
G1 X85.445 Y111.779 E6.45941
G1 X85.428 Y111.35 E6.47369
G1 X85.419 Y111.123 E6.48124
G1 X85.421 Y110.578 E6.49937
G1 X85.435 Y110.22 E6.51129
G1 X85.475 Y109.682 E6.52923
G1 X85.5 Y109.452 E6.53692
G1 X85.549 Y109.079 E6.54944
G1 X85.611 Y108.686 E6.56267
G1 X85.685 Y108.287 E6.57617
G1 X85.765 Y107.909 E6.58902
G1 X85.875 Y107.458 E6.60446
G1 X85.975 Y107.094 E6.61701
G1 X86.061 Y106.802 E6.62714
G1 X86.165 Y106.474 E6.63858
G1 X86.282 Y106.134 E6.65054
G1 X86.355 Y105.936 E6.65756
G1 X86.461 Y105.663 E6.6673
G1 X86.606 Y105.311 E6.67996
G1 X86.796 Y104.886 E6.69545
G1 X86.988 Y104.494 E6.70996
G1 X87.114 Y104.247 E6.71919
G1 X87.391 Y103.748 E6.73817
G1 X87.531 Y103.517 E6.74715
G1 X87.768 Y103.145 E6.76182
G1 X88.103 Y102.668 E6.78121
G1 X88.391 Y102.288 E6.79707
G1 X88.867 Y101.717 E6.82179
G1 X89.144 Y101.416 E6.8354
G1 X89.686 Y100.882 E6.86071
G1 X90.034 Y100.571 E6.87623
G1 X90.584 Y100.123 E6.89982
G1 X90.867 Y99.913 E6.91154
G1 X91.447 Y99.522 E6.93481
G1 X91.748 Y99.338 E6.94654
G1 X92.415 Y98.974 E6.97181
G1 X92.706 Y98.833 E6.98257
G1 X93.438 Y98.523 E7.00901
G1 X93.806 Y98.389 E7.02204
G1 X93.845 Y98.377 E7.02339
G1 X93.77 Y98.106 E7.03274
G1 X93.685 Y97.76 E7.04459
G1 X93.536 Y96.984 E7.07088
G1 X93.484 Y96.508 E7.0868
G1 X93.459 Y96.189 E7.09744
G1 X93.436 Y95.456 E7.12184
G1 X93.44 Y95.204 E7.13022
G1 X93.459 Y94.764 E7.14487
G1 X93.55 Y93.98 E7.17112
G1 X93.604 Y93.657 E7.18201
G1 X93.88 Y92.53 E7.2206
G1 X93.974 Y92.241 E7.23071
G1 X94.273 Y91.463 E7.25843
G1 X94.462 Y91.068 E7.273
G1 X94.607 Y90.785 E7.28357
G1 X95.002 Y90.102 E7.30981
G1 X95.28 Y89.7 E7.32607
G1 X95.474 Y89.438 E7.33691
G1 X96.215 Y88.578 E7.37467
G0 F6000 X96.498 Y88.86
G1 F1200 X96.709 Y88.648 E7.38462
G1 X97.279 Y88.132 E7.41019
G1 X97.604 Y87.881 E7.42385
G1 X97.882 Y87.679 E7.43528
G1 X98.862 Y87.078 E7.47351
G1 X99.167 Y86.922 E7.48491
G1 X99.869 Y86.608 E7.51049
G1 X100.236 Y86.477 E7.52345
G1 X100.508 Y86.388 E7.53297
G1 X101.56 Y86.127 E7.56902
G1 X101.922 Y86.065 E7.58123
G1 X102.926 Y85.963 E7.6148
G1 X103.352 Y85.953 E7.62897
G1 X110.913 Y85.953 E7.88045
G1 X111.526 Y85.978 E7.90086
G1 X111.851 Y86.005 E7.9117
G1 X112.613 Y86.109 E7.93728
G1 X113.027 Y86.2 E7.95138
G1 X113.344 Y86.279 E7.96225
G1 X114.376 Y86.618 E7.99837
G1 X114.701 Y86.752 E8.01007
G1 X115.396 Y87.081 E8.03564
G1 X115.856 Y87.352 E8.0534
G1 X116.126 Y87.524 E8.06405
G1 X116.897 Y88.096 E8.09598
G1 X117.186 Y87.873 E8.10812
G1 X117.462 Y87.672 E8.11947
G1 X118.106 Y87.252 E8.14505
G1 X118.45 Y87.065 E8.15807
G1 X118.718 Y86.928 E8.16808
G1 X119.42 Y86.614 E8.19366
G1 X119.798 Y86.48 E8.207
G1 X120.121 Y86.375 E8.21829
G1 X120.864 Y86.175 E8.24389
G1 X121.287 Y86.098 E8.25819
G1 X121.626 Y86.046 E8.26959
G1 X122.41 Y85.968 E8.2958
G1 X122.563 Y85.961 E8.30089
G1 X122.901 Y85.953 E8.31214
G1 X130.47 Y85.953 E8.56388
G1 X131.039 Y85.975 E8.58282
G1 X131.376 Y86.001 E8.59406
G1 X132.139 Y86.1 E8.61965
G1 X132.607 Y86.201 E8.63558
G1 X132.958 Y86.289 E8.64761
G1 X133.693 Y86.515 E8.67319
G1 X134.079 Y86.668 E8.687
G1 X134.356 Y86.787 E8.69703
G1 X135.046 Y87.127 E8.72261
G1 X135.383 Y87.327 E8.73565
G1 X135.662 Y87.503 E8.74662
G1 X136.517 Y88.132 E8.78192
G1 X136.762 Y88.341 E8.79263
G1 X137.566 Y89.142 E8.83038
G1 X137.771 Y89.38 E8.84083
G1 X138.242 Y89.988 E8.86641
G1 X138.481 Y90.355 E8.88097
G1 X138.661 Y90.65 E8.89247
G1 X139.178 Y91.666 E8.93038
G1 X139.298 Y91.955 E8.94079
G1 X139.646 Y93.009 E8.97771
G1 X139.725 Y93.327 E8.98861
G1 X139.871 Y94.082 E9.01418
G1 X139.921 Y94.545 E9.02967
G1 X139.947 Y94.884 E9.04098
G1 X139.968 Y95.588 E9.06441
G1 X139.963 Y95.857 E9.07335
G1 X139.877 Y96.85 E9.10651
G1 X139.821 Y97.212 E9.11869
G1 X139.664 Y97.965 E9.14427
G1 X139.544 Y98.373 E9.15842
G1 X139.459 Y98.634 E9.16755
G1 X139.137 Y99.453 E9.19682
G1 X138.963 Y99.814 E9.21015
G1 X138.788 Y100.15 E9.22275
G1 X138.75 Y100.22 E9.22539
G1 X138.175 Y101.118 E9.26086
