;FLAVOR:Marlin
;TIME:2968
;Filament used: 1.68555m
;Layer height: 0.2
;MINX:82.232
;MINY:82.353
;MINZ:0.2
;MAXX:152.774
;MAXY:152.638
;MAXZ:10
;Generated with Cura_SteamEngine 4.10.0
M140 S80
M105
M190 S80
M104 S240
M105
M109 S240
M82 ;absolute extrusion mode
; Ender 3 Custom Start G-code
G92 E0 ; Reset Extruder
G28 ; Home all axes
G1 Z2.0 F3000 ; Move Z Axis up little to prevent scratching of Heat Bed
G1 X0.1 Y20 Z0.3 F5000.0 ; Move to start position
G1 X0.1 Y200.0 Z0.3 F1500.0 E15 ; Draw the first line
G1 X0.4 Y200.0 Z0.3 F5000.0 ; Move to side a little
G1 X0.4 Y20 Z0.3 F1500.0 E30 ; Draw the second line
G92 E0 ; Reset Extruder
G1 Z2.0 F3000 ; Move Z Axis up little to prevent scratching of Heat Bed
G1 X5 Y20 Z0.3 F5000.0 ; Move over to prevent blob squish
G92 E0
G92 E0
G1 F2700 E-5
;LAYER_COUNT:50
;LAYER:0
M107
G0 F6000 X94.185 Y86.096 Z0.2
;TYPE:SKIRT
G1 F2700 E0
G1 F1200 X94.315 Y85.971 E0.006
G1 X95.28 Y85.144 E0.04827
G1 X95.518 Y84.963 E0.05821
G1 X96.288 Y84.428 E0.0894
G1 X96.952 Y84.039 E0.11499
G1 X97.341 Y83.829 E0.1297
G1 X98.184 Y83.419 E0.16088
G1 X99.347 Y82.991 E0.20209
G1 X99.579 Y82.92 E0.21016
G1 X100.81 Y82.619 E0.25231
G1 X101.18 Y82.551 E0.26482
G1 X102.108 Y82.421 E0.29599
G1 X102.985 Y82.372 E0.32521
G1 X104.187 Y82.353 E0.36519
G1 X110.219 Y82.353 E0.56582
G1 X111.081 Y82.364 E0.59449
G1 X111.395 Y82.373 E0.60494
G1 X112.594 Y82.425 E0.64485
G1 X113.166 Y82.457 E0.66391
G1 X115.639 Y82.528 E0.74619
G1 X118.163 Y82.528 E0.83014
G1 X120.731 Y82.456 E0.91559
G1 X122.237 Y82.38 E0.96574
G1 X122.795 Y82.36 E0.98431
G1 X123.155 Y82.354 E0.99629
G1 X129.914 Y82.354 E1.22109
G1 X130.62 Y82.364 E1.24458
G1 X131.061 Y82.379 E1.25925
G1 X131.587 Y82.416 E1.27679
G1 X131.851 Y82.441 E1.28561
G1 X132.78 Y82.569 E1.3168
G1 X133.447 Y82.712 E1.33949
G1 X133.666 Y82.766 E1.34699
G1 X134.38 Y82.968 E1.37167
G1 X134.596 Y83.037 E1.37921
G1 X135.682 Y83.448 E1.41783
G1 X135.791 Y83.496 E1.4218
G1 X136.972 Y84.103 E1.46596
G1 X137.336 Y84.319 E1.48004
G1 X138.121 Y84.832 E1.51123
G1 X138.897 Y85.441 E1.54404
G1 X139.112 Y85.626 E1.55347
G1 X139.796 Y86.267 E1.58465
G1 X140.138 Y86.633 E1.60131
G1 X140.298 Y86.812 E1.6093
G1 X140.893 Y87.538 E1.64052
G1 X141.24 Y88.026 E1.66043
G1 X141.428 Y88.307 E1.67168
G1 X141.915 Y89.108 E1.70286
G1 X142.352 Y89.99 E1.73559
G1 X142.57 Y90.485 E1.75358
G1 X142.912 Y91.362 E1.78489
G1 X143.18 Y92.261 E1.81609
G1 X143.37 Y93.179 E1.84727
G1 X143.46 Y93.865 E1.87029
G1 X143.498 Y94.249 E1.88312
G1 X143.535 Y94.742 E1.89956
G1 X143.548 Y94.984 E1.90762
G1 X143.563 Y95.446 E1.923
G1 X143.568 Y95.898 E1.93803
G1 X143.634 Y98.479 E2.0239
G1 X143.768 Y100.983 E2.10731
G1 X143.976 Y103.514 E2.19177
G1 X144.251 Y105.995 E2.2748
G1 X144.6 Y108.502 E2.35898
G1 X145.015 Y110.966 E2.44209
G1 X145.509 Y113.469 E2.52695
G1 X146.06 Y115.897 E2.60976
G1 X146.696 Y118.369 E2.69465
G1 X147.381 Y120.753 E2.77715
G1 X148.15 Y123.168 E2.86145
G1 X148.968 Y125.51 E2.94396
G1 X149.877 Y127.889 E3.02866
G1 X150.851 Y130.241 E3.11334
G1 X151.489 Y131.687 E3.1659
G1 X151.767 Y132.379 E3.19071
G1 X151.871 Y132.666 E3.20086
G1 X152.067 Y133.26 E3.22166
G1 X152.193 Y133.681 E3.23628
G1 X152.357 Y134.293 E3.25735
G1 X152.376 Y134.373 E3.26009
G1 X152.551 Y135.272 E3.29055
G1 X152.63 Y135.795 E3.30814
G1 X152.721 Y136.606 E3.33529
G1 X152.738 Y136.83 E3.34276
G1 X152.764 Y137.31 E3.35875
G1 X152.774 Y137.787 E3.37461
G1 X152.774 Y138.022 E3.38243
G1 X152.762 Y138.53 E3.39933
G1 X152.751 Y138.768 E3.40726
G1 X152.713 Y139.31 E3.42533
G1 X152.706 Y139.383 E3.42777
G1 X152.646 Y139.882 E3.44448
G1 X152.611 Y140.128 E3.45275
G1 X152.483 Y140.855 E3.4773
G1 X152.435 Y141.082 E3.48502
G1 X152.276 Y141.733 E3.5073
G1 X152.231 Y141.896 E3.51293
G1 X151.945 Y142.784 E3.54396
G1 X151.786 Y143.214 E3.55921
G1 X151.219 Y144.492 E3.60571
G1 X151.102 Y144.716 E3.61411
G1 X150.486 Y145.752 E3.6542
G1 X150.329 Y145.986 E3.66357
G1 X149.618 Y146.932 E3.70293
G1 X149.45 Y147.132 E3.71162
G1 X148.685 Y147.953 E3.74895
G1 X148.188 Y148.435 E3.77197
G1 X147.597 Y148.968 E3.79844
G1 X147.498 Y149.051 E3.80274
G1 X146.754 Y149.623 E3.83395
G1 X146.438 Y149.845 E3.8468
G1 X145.544 Y150.411 E3.88199
G1 X145.366 Y150.512 E3.8888
G1 X144.913 Y150.755 E3.9059
G1 X144.637 Y150.895 E3.91619
G1 X143.876 Y151.246 E3.94406
G1 X143.741 Y151.302 E3.94892
G1 X143.01 Y151.575 E3.97488
G1 X142.465 Y151.757 E3.99399
G1 X141.774 Y151.963 E4.01797
G1 X141.614 Y152.005 E4.02347
G1 X140.772 Y152.191 E4.05215
G1 X140.084 Y152.315 E4.0754
G1 X139.424 Y152.413 E4.0976
G1 X138.485 Y152.524 E4.12904
G1 X138.034 Y152.568 E4.14412
G1 X137.786 Y152.587 E4.15239
G1 X137.321 Y152.613 E4.16788
G1 X136.852 Y152.629 E4.18349
G1 X136.31 Y152.638 E4.20152
G1 X135.87 Y152.635 E4.21615
G1 X135.464 Y152.624 E4.22966
G1 X134.996 Y152.601 E4.24524
G1 X134.91 Y152.595 E4.24811
G1 X134.31 Y152.537 E4.26816
G1 X133.503 Y152.436 E4.29521
G1 X132.49 Y152.261 E4.3294
G1 X132.174 Y152.191 E4.34017
G1 X131.734 Y152.084 E4.35523
G1 X131.152 Y151.918 E4.37536
G1 X130.764 Y151.796 E4.38889
G1 X130.015 Y151.531 E4.41531
G1 X129.828 Y151.457 E4.422
G1 X129.227 Y151.198 E4.44377
G1 X129.019 Y151.101 E4.4514
G1 X128.46 Y150.821 E4.47219
G1 X127.503 Y150.306 E4.50834
G1 X126.399 Y149.697 E4.55028
G1 X124.198 Y148.562 E4.63264
G1 X121.904 Y147.461 E4.71727
G1 X119.604 Y146.435 E4.80104
G1 X117.26 Y145.467 E4.88539
G1 X114.929 Y144.585 E4.96828
G1 X112.526 Y143.749 E5.0529
G1 X111.414 Y143.393 E5.09174
G1 X110.929 Y143.229 E5.10877
G1 X110.356 Y143.018 E5.12907
G1 X110.042 Y142.892 E5.14033
G1 X109.635 Y142.719 E5.15504
G1 X109.103 Y142.478 E5.17446
G1 X108.73 Y142.299 E5.18822
G1 X108.433 Y142.15 E5.19927
G1 X108.057 Y141.953 E5.21339
G1 X107.726 Y141.768 E5.226
G1 X107.248 Y141.49 E5.2444
G1 X106.914 Y141.288 E5.25738
G1 X106.641 Y141.116 E5.26811
G1 X106.272 Y140.873 E5.28281
G1 X105.911 Y140.617 E5.29753
G1 X105.704 Y140.464 E5.30609
G1 X105.304 Y140.154 E5.32292
G1 X105.117 Y140.002 E5.33093
G1 X104.617 Y139.57 E5.35291
G1 X104.386 Y139.358 E5.36334
G1 X103.826 Y138.806 E5.38949
G1 X103.606 Y138.573 E5.40015
G1 X103.193 Y138.111 E5.42076
G1 X103.032 Y137.92 E5.42907
G1 X102.807 Y137.644 E5.44091
G1 X102.586 Y137.363 E5.4528
G1 X100.962 Y135.368 E5.53836
G1 X99.325 Y133.469 E5.62175
G1 X97.623 Y131.603 E5.70575
G1 X95.868 Y129.786 E5.78978
G1 X94.095 Y128.05 E5.87231
G1 X92.225 Y126.32 E5.95704
G1 X90.325 Y124.662 E6.04091
G1 X88.329 Y123.015 E6.12698
G1 X88.194 Y122.906 E6.13275
G1 X87.491 Y122.324 E6.1631
G1 X86.823 Y121.723 E6.19299
G1 X86.614 Y121.519 E6.20271
G1 X86.115 Y121 E6.22665
G1 X85.911 Y120.773 E6.2368
G1 X85.579 Y120.386 E6.25376
G1 X85.525 Y120.32 E6.2566
G1 X85.147 Y119.83 E6.27718
G1 X85.013 Y119.646 E6.28475
G1 X84.497 Y118.87 E6.31575
G1 X84.208 Y118.393 E6.3343
G1 X83.757 Y117.571 E6.36548
G1 X83.495 Y117.001 E6.38635
G1 X83.392 Y116.759 E6.39509
G1 X83.252 Y116.415 E6.40745
G1 X83.162 Y116.182 E6.41575
G1 X82.838 Y115.21 E6.44983
G1 X82.771 Y114.973 E6.45802
G1 X82.633 Y114.432 E6.47659
G1 X82.569 Y114.152 E6.48615
G1 X82.419 Y113.366 E6.51276
G1 X82.385 Y113.144 E6.52023
G1 X82.295 Y112.383 E6.54572
G1 X82.271 Y112.092 E6.55543
G1 X82.244 Y111.657 E6.56993
G1 X82.232 Y110.892 E6.59537
G1 X82.241 Y110.434 E6.61061
G1 X82.279 Y109.712 E6.63466
G1 X82.301 Y109.455 E6.64324
G1 X82.347 Y109.018 E6.65785
G1 X82.412 Y108.502 E6.67515
G1 X82.49 Y107.983 E6.6926
G1 X82.508 Y107.88 E6.69608
G1 X82.643 Y107.226 E6.71829
G1 X82.728 Y106.869 E6.7305
G1 X82.861 Y106.365 E6.74784
G1 X82.954 Y106.043 E6.75898
G1 X83.086 Y105.617 E6.77382
G1 X83.174 Y105.355 E6.78301
G1 X83.29 Y105.023 E6.79471
G1 X83.427 Y104.652 E6.80786
G1 X83.491 Y104.488 E6.81371
G1 X83.672 Y104.051 E6.82945
G1 X83.802 Y103.756 E6.84017
G1 X84.044 Y103.243 E6.85903
G1 X84.11 Y103.112 E6.86391
G1 X84.328 Y102.702 E6.87936
G1 X84.593 Y102.227 E6.89745
G1 X84.949 Y101.633 E6.92048
G1 X85.478 Y100.811 E6.95299
G1 X86.796 Y98.698 E7.03582
G1 X88.087 Y96.492 E7.12084
G1 X89.284 Y94.311 E7.20358
G1 X90.944 Y91.018 E7.32624
G1 X91.532 Y89.793 E7.37143
G1 X91.759 Y89.347 E7.38808
G1 X92.179 Y88.619 E7.41603
G1 X92.344 Y88.357 E7.42633
G1 X93.101 Y87.299 E7.4696
G1 X93.258 Y87.105 E7.4779
G1 X94.185 Y86.096 E7.52347
G0 F6000 X94.462 Y86.384
G1 F1200 X94.592 Y86.259 E7.52947
G1 X95.522 Y85.463 E7.57019
G1 X95.76 Y85.282 E7.58013
G1 X96.517 Y84.757 E7.61077
G1 X97.142 Y84.391 E7.63486
G1 X97.531 Y84.181 E7.64956
G1 X98.359 Y83.78 E7.68016
G1 X99.464 Y83.373 E7.71933
G1 X99.696 Y83.302 E7.7274
G1 X100.882 Y83.013 E7.768
G1 X101.252 Y82.945 E7.78051
G1 X102.164 Y82.818 E7.81114
G1 X102.991 Y82.771 E7.83869
G1 X104.01 Y82.754 E7.87259
G1 X110.219 Y82.753 E8.0791
G1 X111.075 Y82.764 E8.10757
G1 X111.378 Y82.773 E8.11765
G1 X112.572 Y82.825 E8.1574
G1 X113.098 Y82.855 E8.17493
G1 X115.662 Y82.928 E8.26024
G1 X118.174 Y82.928 E8.34379
G1 X120.762 Y82.856 E8.4299
G1 X122.444 Y82.772 E8.48591
G1 X122.808 Y82.76 E8.49803
G1 X123.155 Y82.754 E8.50957
G1 X129.908 Y82.754 E8.73417
G1 X130.614 Y82.764 E8.75766
G1 X131.042 Y82.778 E8.7719
G1 X131.549 Y82.814 E8.78881
G1 X131.813 Y82.839 E8.79763
G1 X132.725 Y82.966 E8.82825
G1 X133.352 Y83.1 E8.84958
G1 X133.571 Y83.154 E8.85708
G1 X134.259 Y83.349 E8.88086
G1 X134.475 Y83.418 E8.88841
G1 X135.521 Y83.814 E8.92561
G1 X135.63 Y83.862 E8.92957
G1 X136.767 Y84.447 E8.9721
G1 X137.131 Y84.663 E8.98617
G1 X137.902 Y85.167 E9.01681
G1 X138.636 Y85.744 E9.04786
G1 X138.851 Y85.929 E9.0573
G1 X139.522 Y86.559 E9.08791
G1 X139.84 Y86.9 E9.10342
G1 X140 Y87.079 E9.1114
G1 X140.583 Y87.791 E9.14201
G1 X140.907 Y88.249 E9.16067
G1 X141.095 Y88.53 E9.17192
G1 X141.573 Y89.316 E9.20251
G1 X141.986 Y90.152 E9.23353
G1 X142.204 Y90.647 E9.25152
G1 X142.534 Y91.492 E9.28169
G1 X142.796 Y92.375 E9.31232
G1 X142.98 Y93.277 E9.34294
G1 X143.061 Y93.904 E9.36397
G1 X143.099 Y94.288 E9.3768
G1 X143.136 Y94.763 E9.39265
G1 X143.149 Y95.005 E9.40071
G1 X143.163 Y95.451 E9.41555
G1 X143.167 Y95.819 E9.42779
G1 X143.236 Y98.51 E9.51732
G1 X143.37 Y101.028 E9.60119
G1 X143.575 Y103.52 E9.68435
G1 X143.856 Y106.058 E9.76928
G1 X144.203 Y108.552 E9.85303
G1 X144.627 Y111.067 E9.93786
G1 X145.114 Y113.537 E10.0216
G1 X145.674 Y116.005 E10.10577
G1 X146.301 Y118.441 E10.18943
G1 X147.005 Y120.89 E10.27419
G1 X147.764 Y123.274 E10.3574
G1 X148.604 Y125.679 E10.44213
G1 X149.493 Y128.005 E10.52495
G1 X150.497 Y130.429 E10.61221
G1 X151.123 Y131.849 E10.66383
G1 X151.391 Y132.516 E10.68774
G1 X151.495 Y132.803 E10.69789
G1 X151.684 Y133.375 E10.71793
G1 X151.81 Y133.796 E10.73254
G1 X151.968 Y134.386 E10.75286
G1 X151.987 Y134.466 E10.75559
G1 X152.155 Y135.332 E10.78493
G1 X152.234 Y135.855 E10.80253
G1 X152.323 Y136.636 E10.82867
G1 X152.34 Y136.86 E10.83614
G1 X152.365 Y137.323 E10.85156
G1 X152.369 Y137.448 E10.85572
G1 X152.374 Y137.787 E10.867
G1 X152.374 Y138.022 E10.87482
G1 X152.363 Y138.511 E10.89108
G1 X152.352 Y138.749 E10.89901
G1 X152.315 Y139.272 E10.91645
G1 X152.308 Y139.345 E10.91889
G1 X152.25 Y139.826 E10.935
G1 X152.215 Y140.072 E10.94327
G1 X152.092 Y140.772 E10.9669
G1 X152.044 Y140.999 E10.97462
G1 X151.891 Y141.627 E10.99612
G1 X151.846 Y141.79 E11.00174
G1 X151.57 Y142.645 E11.03163
G1 X151.411 Y143.075 E11.04687
G1 X150.865 Y144.306 E11.09166
G1 X150.748 Y144.53 E11.10007
G1 X150.154 Y145.529 E11.13873
G1 X149.997 Y145.763 E11.1481
G1 X149.311 Y146.675 E11.18606
G1 X149.143 Y146.875 E11.19474
G1 X148.407 Y147.666 E11.23068
G1 X147.91 Y148.148 E11.25371
G1 X147.34 Y148.662 E11.27923
G1 X147.241 Y148.745 E11.28353
G1 X146.524 Y149.296 E11.31361
G1 X146.208 Y149.518 E11.32645
G1 X145.346 Y150.063 E11.36037
G1 X145.168 Y150.164 E11.36718
G1 X144.732 Y150.398 E11.38364
G1 X144.456 Y150.538 E11.39393
G1 X143.722 Y150.876 E11.42081
G1 X143.587 Y150.932 E11.42567
G1 X142.884 Y151.195 E11.45063
G1 X142.339 Y151.377 E11.46974
G1 X141.672 Y151.576 E11.49289
G1 X141.512 Y151.618 E11.4984
G1 X140.701 Y151.797 E11.52602
G1 X140.013 Y151.921 E11.54927
G1 X139.377 Y152.016 E11.57066
G1 X138.438 Y152.127 E11.60211
G1 X138.004 Y152.169 E11.61661
G1 X137.756 Y152.188 E11.62488
G1 X137.307 Y152.213 E11.63984
G1 X136.838 Y152.229 E11.65545
G1 X136.305 Y152.238 E11.67318
G1 X135.881 Y152.235 E11.68728
G1 X135.475 Y152.224 E11.70079
G1 X135.024 Y152.202 E11.71581
G1 X134.938 Y152.196 E11.71867
G1 X134.36 Y152.14 E11.73799
G1 X133.553 Y152.039 E11.76504
G1 X132.576 Y151.87 E11.79802
G1 X132.26 Y151.8 E11.80878
G1 X131.833 Y151.697 E11.82339
G1 X131.271 Y151.537 E11.84283
G1 X130.883 Y151.415 E11.85635
G1 X130.163 Y151.159 E11.88177
G1 X129.976 Y151.085 E11.88846
G1 X129.396 Y150.836 E11.90945
G1 X129.188 Y150.739 E11.91709
G1 X128.649 Y150.469 E11.93714
G1 X127.697 Y149.956 E11.9731
G1 X126.612 Y149.358 E12.01431
G1 X124.347 Y148.19 E12.09907
G1 X122.091 Y147.107 E12.1823
G1 X119.771 Y146.072 E12.2668
G1 X117.388 Y145.088 E12.35255
G1 X115.066 Y144.209 E12.43513
G1 X112.652 Y143.37 E12.52013
G1 X111.543 Y143.014 E12.55887
G1 X111.058 Y142.85 E12.5759
G1 X110.505 Y142.647 E12.59549
G1 X110.191 Y142.521 E12.60674
G1 X109.799 Y142.354 E12.62091
G1 X109.273 Y142.116 E12.64012
G1 X108.91 Y141.942 E12.6535
G1 X108.613 Y141.793 E12.66456
G1 X108.246 Y141.6 E12.67835
G1 X107.927 Y141.422 E12.6905
G1 X107.449 Y141.144 E12.70889
G1 X107.128 Y140.949 E12.72138
G1 X106.855 Y140.777 E12.73211
G1 X106.497 Y140.542 E12.74636
G1 X106.148 Y140.295 E12.76058
G1 X105.941 Y140.142 E12.76914
G1 X105.556 Y139.843 E12.78535
G1 X105.369 Y139.691 E12.79337
G1 X104.888 Y139.276 E12.8145
G1 X104.657 Y139.064 E12.82492
G1 X104.117 Y138.531 E12.85016
G1 X103.897 Y138.298 E12.86082
G1 X103.499 Y137.853 E12.88068
G1 X103.338 Y137.662 E12.88898
G1 X103.121 Y137.396 E12.9004
G1 X102.891 Y137.105 E12.91274
G1 X101.262 Y135.103 E12.99858
G1 X99.623 Y133.201 E13.08209
G1 X97.923 Y131.338 E13.16598
G1 X96.171 Y129.524 E13.24986
G1 X94.345 Y127.736 E13.33486
G1 X92.494 Y126.024 E13.41872
G1 X90.601 Y124.371 E13.5023
G1 X88.619 Y122.736 E13.58776
G1 X88.449 Y122.598 E13.59504
G1 X87.746 Y122.016 E13.6254
G1 X87.102 Y121.437 E13.6542
G1 X86.893 Y121.233 E13.66392
G1 X86.413 Y120.732 E13.68699
G1 X86.209 Y120.505 E13.69714
G1 X85.889 Y120.132 E13.71349
G1 X85.835 Y120.066 E13.71633
G1 X85.47 Y119.594 E13.73617
G1 X85.336 Y119.41 E13.74374
G1 X84.839 Y118.663 E13.77358
G1 X84.55 Y118.186 E13.79213
G1 X84.108 Y117.378 E13.82276
G1 X83.863 Y116.844 E13.84231
G1 X83.76 Y116.602 E13.85105
G1 X83.625 Y116.27 E13.86297
G1 X83.535 Y116.037 E13.87128
G1 X83.223 Y115.102 E13.90407
G1 X83.156 Y114.865 E13.91226
G1 X83.022 Y114.343 E13.93018
G1 X82.958 Y114.063 E13.93973
G1 X82.814 Y113.306 E13.96536
G1 X82.78 Y113.084 E13.97283
G1 X82.694 Y112.35 E13.99741
G1 X82.67 Y112.059 E14.00713
G1 X82.643 Y111.637 E14.02119
G1 X82.632 Y110.9 E14.04571
G1 X82.641 Y110.442 E14.06094
G1 X82.678 Y109.746 E14.08412
G1 X82.7 Y109.489 E14.0927
G1 X82.744 Y109.068 E14.10678
G1 X82.809 Y108.552 E14.12408
G1 X82.884 Y108.052 E14.1409
G1 X82.902 Y107.949 E14.14437
G1 X83.032 Y107.319 E14.16577
G1 X83.117 Y106.962 E14.17797
G1 X83.245 Y106.476 E14.19469
G1 X83.338 Y106.154 E14.20584
G1 X83.466 Y105.739 E14.22028
G1 X83.551 Y105.487 E14.22913
G1 X83.667 Y105.155 E14.24082
G1 X83.799 Y104.797 E14.25352
G1 X83.863 Y104.633 E14.25937
G1 X84.038 Y104.212 E14.27453
G1 X84.168 Y103.917 E14.28526
G1 X84.402 Y103.423 E14.30344
G1 X84.468 Y103.292 E14.30832
G1 X84.677 Y102.897 E14.32318
G1 X84.942 Y102.422 E14.34127
G1 X85.285 Y101.85 E14.36345
G1 X85.773 Y101.091 E14.39347
G1 X87.147 Y98.891 E14.47974
G1 X88.449 Y96.665 E14.56551
G1 X89.628 Y94.517 E14.64701
G1 X91.314 Y91.172 E14.77159
G1 X91.893 Y89.966 E14.81609
G1 X92.113 Y89.533 E14.83224
G1 X92.518 Y88.832 E14.85917
G1 X92.683 Y88.57 E14.86947
G1 X93.412 Y87.551 E14.91114
G1 X93.569 Y87.357 E14.91944
G1 X94.462 Y86.384 E14.96337
G0 F6000 X94.739 Y86.673
G1 F1200 X94.869 Y86.548 E14.96936
G1 X95.765 Y85.781 E15.00859
G1 X96.003 Y85.6 E15.01854
G1 X96.745 Y85.086 E15.04856
G1 X97.332 Y84.743 E15.07117
G1 X97.721 Y84.533 E15.08588
G1 X98.533 Y84.14 E15.11588
G1 X99.581 Y83.756 E15.153
G1 X99.813 Y83.685 E15.16107
